(.../software/eagle/pcbgcode/pcb-gcode.ulp)
(Copyright 2005 - 2012 by John Johnson)
(See readme.txt for licensing terms.)
(This file generated from the board:)
(.../midicontroller/pcb/midicontroller.brd)
(Current profile is .../pcbgcode/profiles/generic.pp  )
(This file generated 17-03-15 20:05)
(Z Axis Settings)
(  High     Up        Down     Drill)
(10.0000 	1.0000 	-0.1500 	-1.9000 )
M06 (Contoleer je files en maten in LinuxCNC.)
G21
(Absolute Coordinates)
G90
S30000
G00 Z10.0000 
G00 X0.0000 Y0.0000 
M03
G04 P3.000000
G00 Z1.0000 
G00 X-2.4171 Y1.1879 
G01 Z-0.1500 F50.00 
G01 X-2.3950 Y1.2412 F75.00 
G01 X-2.3950 Y3.8388 
G01 X-2.4171 Y3.8921 
G01 X-2.4579 Y3.9329 
G01 X-2.5112 Y3.9550 
G01 X-7.6488 Y3.9550 
G01 X-7.7021 Y3.9329 
G01 X-7.7429 Y3.8921 
G01 X-7.7650 Y3.8388 
G01 X-7.7650 Y3.7347 
G01 X-11.4929 Y9.8411 
G01 X-11.5090 Y9.8735 
G01 X-11.5264 Y9.8959 
G01 X-11.5412 Y9.9201 
G01 X-11.5656 Y9.9467 
G01 X-11.5877 Y9.9752 
G01 X-11.6091 Y9.9939 
G01 X-11.6283 Y10.0147 
G01 X-11.6575 Y10.0360 
G01 X-13.1650 Y11.3487 
G01 X-13.1646 Y11.5093 
G01 X-13.1956 Y11.6649 
G01 X-13.2563 Y11.8115 
G01 X-13.3444 Y11.9434 
G01 X-13.4566 Y12.0556 
G01 X-13.5885 Y12.1437 
G01 X-13.7351 Y12.2044 
G01 X-13.8907 Y12.2354 
G01 X-14.0493 Y12.2354 
G01 X-14.2049 Y12.2044 
G01 X-14.3515 Y12.1437 
G01 X-14.4834 Y12.0556 
G01 X-14.5956 Y11.9434 
G01 X-14.6837 Y11.8115 
G01 X-14.7444 Y11.6649 
G01 X-14.7754 Y11.5093 
G01 X-14.7754 Y11.3507 
G01 X-14.7444 Y11.1951 
G01 X-14.6837 Y11.0485 
G01 X-14.5956 Y10.9166 
G01 X-14.4834 Y10.8044 
G01 X-14.4307 Y10.7692 
G01 X-14.4160 Y10.7395 
G01 X-14.4068 Y10.7276 
G01 X-14.3994 Y10.7144 
G01 X-14.3675 Y10.6768 
G01 X-14.3373 Y10.6378 
G01 X-14.3259 Y10.6279 
G01 X-14.3162 Y10.6164 
G01 X-14.2775 Y10.5857 
G01 X-12.5698 Y9.0987 
G01 X-8.6652 Y2.7028 
G01 X-8.6578 Y2.6857 
G01 X-8.6317 Y2.6479 
G01 X-8.6078 Y2.6088 
G01 X-8.5952 Y2.5952 
G01 X-8.5846 Y2.5798 
G01 X-8.5517 Y2.5479 
G01 X-8.5207 Y2.5142 
G01 X-8.5056 Y2.5033 
G01 X-8.4923 Y2.4903 
G01 X-8.4538 Y2.4655 
G01 X-8.4167 Y2.4385 
G01 X-8.3998 Y2.4306 
G01 X-8.3842 Y2.4205 
G01 X-8.3416 Y2.4037 
G01 X-8.3000 Y2.3844 
G01 X-8.2819 Y2.3800 
G01 X-8.2646 Y2.3732 
G01 X-8.2195 Y2.3650 
G01 X-8.1750 Y2.3542 
G01 X-8.1564 Y2.3534 
G01 X-7.7650 Y2.2819 
G01 X-7.7650 Y1.2412 
G01 X-7.7429 Y1.1879 
G01 X-7.7021 Y1.1471 
G01 X-7.6488 Y1.1250 
G01 X-2.5112 Y1.1250 
G01 X-2.4579 Y1.1471 
G01 X-2.4171 Y1.1879 
G00 Z1.0000 
G00 X-2.4171 Y4.9979 
G01 Z-0.1500 F50.00 
G01 X-2.3950 Y5.0512 F75.00 
G01 X-2.3950 Y7.6488 
G01 X-2.4171 Y7.7021 
G01 X-2.4579 Y7.7429 
G01 X-2.5112 Y7.7650 
G01 X-6.1206 Y7.7650 
G01 X-13.2335 Y14.3310 
G01 X-13.2608 Y14.3583 
G01 X-13.3444 Y14.4834 
G01 X-13.4566 Y14.5956 
G01 X-13.5885 Y14.6837 
G01 X-13.7351 Y14.7444 
G01 X-13.8907 Y14.7754 
G01 X-14.0493 Y14.7754 
G01 X-14.2049 Y14.7444 
G01 X-14.3515 Y14.6837 
G01 X-14.4834 Y14.5956 
G01 X-14.5956 Y14.4834 
G01 X-14.6837 Y14.3515 
G01 X-14.7444 Y14.2049 
G01 X-14.7754 Y14.0493 
G01 X-14.7754 Y13.8907 
G01 X-14.7444 Y13.7351 
G01 X-14.6837 Y13.5885 
G01 X-14.5956 Y13.4566 
G01 X-14.4834 Y13.3444 
G01 X-14.3515 Y13.2563 
G01 X-14.2049 Y13.1956 
G01 X-14.0493 Y13.1646 
G01 X-13.8954 Y13.1646 
G01 X-7.7650 Y7.5056 
G01 X-7.7650 Y5.0512 
G01 X-7.7429 Y4.9979 
G01 X-7.7021 Y4.9571 
G01 X-7.6488 Y4.9350 
G01 X-2.5112 Y4.9350 
G01 X-2.4579 Y4.9571 
G01 X-2.4171 Y4.9979 
G00 Z1.0000 
G00 X-2.4171 Y10.0779 
G01 Z-0.1500 F50.00 
G01 X-2.3950 Y10.1312 F75.00 
G01 X-2.3950 Y12.7288 
G01 X-2.4171 Y12.7821 
G01 X-2.4579 Y12.8229 
G01 X-2.5112 Y12.8450 
G01 X-5.7432 Y12.8450 
G01 X-10.4247 Y16.4312 
G01 X-10.4397 Y16.4462 
G01 X-10.4756 Y16.4702 
G01 X-10.5100 Y16.4965 
G01 X-10.5290 Y16.5059 
G01 X-10.5467 Y16.5177 
G01 X-10.5866 Y16.5342 
G01 X-10.6254 Y16.5533 
G01 X-10.6459 Y16.5588 
G01 X-10.6655 Y16.5669 
G01 X-10.7079 Y16.5753 
G01 X-10.7496 Y16.5865 
G01 X-10.7708 Y16.5878 
G01 X-10.7917 Y16.5920 
G01 X-10.8349 Y16.5920 
G01 X-10.8780 Y16.5948 
G01 X-10.8991 Y16.5920 
G01 X-13.1651 Y16.5920 
G01 X-13.1956 Y16.7449 
G01 X-13.2563 Y16.8915 
G01 X-13.3444 Y17.0234 
G01 X-13.4566 Y17.1356 
G01 X-13.5885 Y17.2237 
G01 X-13.7351 Y17.2844 
G01 X-13.8907 Y17.3154 
G01 X-14.0493 Y17.3154 
G01 X-14.2049 Y17.2844 
G01 X-14.3515 Y17.2237 
G01 X-14.4834 Y17.1356 
G01 X-14.5956 Y17.0234 
G01 X-14.6837 Y16.8915 
G01 X-14.7444 Y16.7449 
G01 X-14.7754 Y16.5893 
G01 X-14.7754 Y16.4307 
G01 X-14.7444 Y16.2751 
G01 X-14.6837 Y16.1285 
G01 X-14.5956 Y15.9966 
G01 X-14.5219 Y15.9229 
G01 X-14.5130 Y15.8767 
G01 X-14.5008 Y15.8134 
G01 X-14.4890 Y15.7523 
G01 X-14.4879 Y15.7485 
G01 X-14.4640 Y15.6909 
G01 X-14.4405 Y15.6332 
G01 X-14.4387 Y15.6297 
G01 X-14.4040 Y15.5778 
G01 X-14.3697 Y15.5258 
G01 X-14.3672 Y15.5227 
G01 X-14.3230 Y15.4785 
G01 X-14.2793 Y15.4343 
G01 X-14.2763 Y15.4318 
G01 X-14.2244 Y15.3971 
G01 X-14.1728 Y15.3622 
G01 X-14.1693 Y15.3603 
G01 X-14.1116 Y15.3364 
G01 X-14.0543 Y15.3123 
G01 X-14.0505 Y15.3111 
G01 X-13.9893 Y15.2989 
G01 X-13.9283 Y15.2864 
G01 X-13.9243 Y15.2860 
G01 X-13.8619 Y15.2860 
G01 X-13.7996 Y15.2856 
G01 X-11.0774 Y15.2860 
G01 X-7.7588 Y12.7439 
G01 X-7.7650 Y12.7288 
G01 X-7.7650 Y10.1312 
G01 X-7.7429 Y10.0779 
G01 X-7.7021 Y10.0371 
G01 X-7.6488 Y10.0150 
G01 X-2.5112 Y10.0150 
G01 X-2.4579 Y10.0371 
G01 X-2.4171 Y10.0779 
G00 Z1.0000 
G00 X-2.4171 Y15.1579 
G01 Z-0.1500 F50.00 
G01 X-2.3950 Y15.2112 F75.00 
G01 X-2.3950 Y17.8088 
G01 X-2.4171 Y17.8621 
G01 X-2.4579 Y17.9029 
G01 X-2.5112 Y17.9250 
G01 X-6.4943 Y17.9250 
G01 X-9.0786 Y19.2736 
G01 X-9.1027 Y19.2897 
G01 X-9.1355 Y19.3032 
G01 X-9.1669 Y19.3197 
G01 X-9.1947 Y19.3278 
G01 X-9.2215 Y19.3389 
G01 X-9.2563 Y19.3458 
G01 X-9.2904 Y19.3558 
G01 X-9.3192 Y19.3583 
G01 X-9.3477 Y19.3640 
G01 X-9.3832 Y19.3640 
G01 X-9.4185 Y19.3671 
G01 X-9.4473 Y19.3640 
G01 X-13.2283 Y19.3640 
G01 X-13.2563 Y19.4315 
G01 X-13.3444 Y19.5634 
G01 X-13.4566 Y19.6756 
G01 X-13.5885 Y19.7637 
G01 X-13.7351 Y19.8244 
G01 X-13.8907 Y19.8554 
G01 X-14.0493 Y19.8554 
G01 X-14.2049 Y19.8244 
G01 X-14.3515 Y19.7637 
G01 X-14.4834 Y19.6756 
G01 X-14.5956 Y19.5634 
G01 X-14.6837 Y19.4315 
G01 X-14.7444 Y19.2849 
G01 X-14.7754 Y19.1293 
G01 X-14.7754 Y18.9707 
G01 X-14.7444 Y18.8151 
G01 X-14.6837 Y18.6685 
G01 X-14.5956 Y18.5366 
G01 X-14.4834 Y18.4244 
G01 X-14.4300 Y18.3887 
G01 X-14.4173 Y18.3696 
G01 X-14.3985 Y18.3360 
G01 X-14.3816 Y18.3163 
G01 X-14.3672 Y18.2947 
G01 X-14.3400 Y18.2675 
G01 X-14.3150 Y18.2382 
G01 X-14.2946 Y18.2221 
G01 X-14.2763 Y18.2038 
G01 X-14.2442 Y18.1824 
G01 X-14.2140 Y18.1585 
G01 X-14.1909 Y18.1467 
G01 X-14.1693 Y18.1323 
G01 X-14.1337 Y18.1176 
G01 X-14.0994 Y18.1001 
G01 X-14.0744 Y18.0930 
G01 X-14.0505 Y18.0831 
G01 X-14.0127 Y18.0756 
G01 X-13.9756 Y18.0651 
G01 X-13.9497 Y18.0631 
G01 X-13.9243 Y18.0580 
G01 X-13.8858 Y18.0580 
G01 X-13.8474 Y18.0550 
G01 X-13.8216 Y18.0580 
G01 X-9.5721 Y18.0580 
G01 X-7.7650 Y17.1150 
G01 X-7.7650 Y15.2112 
G01 X-7.7429 Y15.1579 
G01 X-7.7021 Y15.1171 
G01 X-7.6488 Y15.0950 
G01 X-2.5112 Y15.0950 
G01 X-2.4579 Y15.1171 
G01 X-2.4171 Y15.1579 
G00 Z1.0000 
G00 X-2.4171 Y20.2379 
G01 Z-0.1500 F50.00 
G01 X-2.3950 Y20.2912 F75.00 
G01 X-2.3950 Y22.8888 
G01 X-2.4171 Y22.9421 
G01 X-2.4579 Y22.9829 
G01 X-2.5112 Y23.0050 
G01 X-7.6488 Y23.0050 
G01 X-7.7021 Y22.9829 
G01 X-7.7429 Y22.9421 
G01 X-7.7650 Y22.8888 
G01 X-7.7650 Y22.1360 
G01 X-13.3770 Y22.1360 
G01 X-13.4566 Y22.2156 
G01 X-13.5885 Y22.3037 
G01 X-13.7351 Y22.3644 
G01 X-13.8907 Y22.3954 
G01 X-14.0493 Y22.3954 
G01 X-14.2049 Y22.3644 
G01 X-14.3515 Y22.3037 
G01 X-14.4834 Y22.2156 
G01 X-14.5956 Y22.1034 
G01 X-14.6837 Y21.9715 
G01 X-14.7444 Y21.8249 
G01 X-14.7754 Y21.6693 
G01 X-14.7754 Y21.5107 
G01 X-14.7444 Y21.3551 
G01 X-14.6837 Y21.2085 
G01 X-14.5956 Y21.0766 
G01 X-14.4834 Y20.9644 
G01 X-14.3515 Y20.8763 
G01 X-14.2049 Y20.8156 
G01 X-14.0493 Y20.7846 
G01 X-13.8907 Y20.7846 
G01 X-13.7351 Y20.8156 
G01 X-13.7002 Y20.8300 
G01 X-7.7650 Y20.8300 
G01 X-7.7650 Y20.2912 
G01 X-7.7429 Y20.2379 
G01 X-7.7021 Y20.1971 
G01 X-7.6488 Y20.1750 
G01 X-2.5112 Y20.1750 
G01 X-2.4579 Y20.1971 
G01 X-2.4171 Y20.2379 
G00 Z1.0000 
G00 X-2.4171 Y25.3179 
G01 Z-0.1500 F50.00 
G01 X-2.3950 Y25.3712 F75.00 
G01 X-2.3950 Y27.9688 
G01 X-2.4171 Y28.0221 
G01 X-2.4579 Y28.0629 
G01 X-2.5112 Y28.0850 
G01 X-7.6488 Y28.0850 
G01 X-7.7021 Y28.0629 
G01 X-7.7429 Y28.0221 
G01 X-7.7650 Y27.9688 
G01 X-7.7650 Y25.3712 
G01 X-7.7429 Y25.3179 
G01 X-7.7021 Y25.2771 
G01 X-7.6488 Y25.2550 
G01 X-7.4305 Y25.2550 
G01 X-7.7775 Y24.9080 
G01 X-13.7529 Y24.9080 
G01 X-13.8907 Y24.9354 
G01 X-14.0493 Y24.9354 
G01 X-14.2049 Y24.9044 
G01 X-14.3515 Y24.8437 
G01 X-14.4834 Y24.7556 
G01 X-14.5956 Y24.6434 
G01 X-14.6837 Y24.5115 
G01 X-14.7444 Y24.3649 
G01 X-14.7754 Y24.2093 
G01 X-14.7754 Y24.0507 
G01 X-14.7444 Y23.8951 
G01 X-14.6837 Y23.7485 
G01 X-14.5956 Y23.6166 
G01 X-14.4834 Y23.5044 
G01 X-14.3515 Y23.4163 
G01 X-14.2049 Y23.3556 
G01 X-14.0493 Y23.3246 
G01 X-13.8907 Y23.3246 
G01 X-13.7351 Y23.3556 
G01 X-13.5885 Y23.4163 
G01 X-13.4566 Y23.5044 
G01 X-13.3590 Y23.6020 
G01 X-7.4427 Y23.6020 
G01 X-7.3165 Y23.6271 
G01 X-7.1977 Y23.6763 
G01 X-7.0907 Y23.7478 
G01 X-5.5835 Y25.2550 
G01 X-2.5112 Y25.2550 
G01 X-2.4579 Y25.2771 
G01 X-2.4171 Y25.3179 
G00 Z1.0000 
G00 X-2.4171 Y30.3979 
G01 Z-0.1500 F50.00 
G01 X-2.3950 Y30.4512 F75.00 
G01 X-2.3950 Y33.0488 
G01 X-2.4171 Y33.1021 
G01 X-2.4579 Y33.1429 
G01 X-2.5112 Y33.1650 
G01 X-7.6488 Y33.1650 
G01 X-7.7021 Y33.1429 
G01 X-7.7429 Y33.1021 
G01 X-7.7650 Y33.0488 
G01 X-7.7650 Y31.0039 
G01 X-12.3942 Y27.6800 
G01 X-13.8265 Y27.6800 
G01 X-13.8571 Y27.6832 
G01 X-13.8907 Y27.6800 
G01 X-13.9243 Y27.6800 
G01 X-13.9545 Y27.6740 
G01 X-13.9852 Y27.6711 
G01 X-14.0175 Y27.6615 
G01 X-14.0505 Y27.6549 
G01 X-14.0789 Y27.6431 
G01 X-14.1084 Y27.6343 
G01 X-14.1382 Y27.6186 
G01 X-14.1693 Y27.6057 
G01 X-14.1949 Y27.5886 
G01 X-14.2222 Y27.5742 
G01 X-14.2483 Y27.5529 
G01 X-14.2763 Y27.5342 
G01 X-14.2981 Y27.5124 
G01 X-14.3219 Y27.4930 
G01 X-14.3434 Y27.4671 
G01 X-14.3672 Y27.4433 
G01 X-14.3843 Y27.4176 
G01 X-14.4040 Y27.3939 
G01 X-14.4200 Y27.3643 
G01 X-14.4387 Y27.3363 
G01 X-14.4449 Y27.3213 
G01 X-14.4834 Y27.2956 
G01 X-14.5956 Y27.1834 
G01 X-14.6837 Y27.0515 
G01 X-14.7444 Y26.9049 
G01 X-14.7754 Y26.7493 
G01 X-14.7754 Y26.5907 
G01 X-14.7444 Y26.4351 
G01 X-14.6837 Y26.2885 
G01 X-14.5956 Y26.1566 
G01 X-14.4834 Y26.0444 
G01 X-14.3515 Y25.9563 
G01 X-14.2049 Y25.8956 
G01 X-14.0493 Y25.8646 
G01 X-13.8907 Y25.8646 
G01 X-13.7351 Y25.8956 
G01 X-13.5885 Y25.9563 
G01 X-13.4566 Y26.0444 
G01 X-13.3444 Y26.1566 
G01 X-13.2563 Y26.2885 
G01 X-13.2208 Y26.3740 
G01 X-12.2372 Y26.3740 
G01 X-12.2263 Y26.3722 
G01 X-12.1730 Y26.3740 
G01 X-12.1197 Y26.3740 
G01 X-12.1088 Y26.3762 
G01 X-12.0977 Y26.3765 
G01 X-12.0458 Y26.3887 
G01 X-11.9935 Y26.3991 
G01 X-11.9833 Y26.4033 
G01 X-11.9725 Y26.4059 
G01 X-11.9239 Y26.4279 
G01 X-11.8747 Y26.4483 
G01 X-11.8655 Y26.4545 
G01 X-11.8554 Y26.4591 
G01 X-11.8120 Y26.4902 
G01 X-11.7677 Y26.5198 
G01 X-11.7599 Y26.5276 
G01 X-6.4573 Y30.3350 
G01 X-2.5112 Y30.3350 
G01 X-2.4579 Y30.3571 
G01 X-2.4171 Y30.3979 
G00 Z1.0000 
G00 X-2.4171 Y35.4779 
G01 Z-0.1500 F50.00 
G01 X-2.3950 Y35.5312 F75.00 
G01 X-2.3950 Y38.1288 
G01 X-2.4171 Y38.1821 
G01 X-2.4579 Y38.2229 
G01 X-2.5112 Y38.2450 
G01 X-7.6488 Y38.2450 
G01 X-7.7021 Y38.2229 
G01 X-7.7429 Y38.1821 
G01 X-7.7650 Y38.1288 
G01 X-7.7650 Y35.6089 
G01 X-13.8670 Y30.4520 
G01 X-13.9243 Y30.4520 
G01 X-13.9281 Y30.4512 
G01 X-13.9320 Y30.4512 
G01 X-13.9911 Y30.4387 
G01 X-14.0505 Y30.4269 
G01 X-14.0540 Y30.4254 
G01 X-14.0578 Y30.4246 
G01 X-14.1134 Y30.4008 
G01 X-14.1693 Y30.3777 
G01 X-14.1725 Y30.3755 
G01 X-14.1761 Y30.3740 
G01 X-14.2259 Y30.3398 
G01 X-14.2763 Y30.3062 
G01 X-14.2790 Y30.3035 
G01 X-14.2822 Y30.3013 
G01 X-14.3244 Y30.2581 
G01 X-14.3672 Y30.2153 
G01 X-14.3694 Y30.2120 
G01 X-14.3721 Y30.2093 
G01 X-14.4050 Y30.1587 
G01 X-14.4387 Y30.1083 
G01 X-14.4402 Y30.1047 
G01 X-14.4423 Y30.1015 
G01 X-14.4647 Y30.0454 
G01 X-14.4879 Y29.9895 
G01 X-14.4887 Y29.9857 
G01 X-14.4901 Y29.9821 
G01 X-14.5012 Y29.9227 
G01 X-14.5130 Y29.8633 
G01 X-14.5130 Y29.8594 
G01 X-14.5253 Y29.7937 
G01 X-14.5956 Y29.7234 
G01 X-14.6837 Y29.5915 
G01 X-14.7444 Y29.4449 
G01 X-14.7754 Y29.2893 
G01 X-14.7754 Y29.1307 
G01 X-14.7444 Y28.9751 
G01 X-14.6837 Y28.8285 
G01 X-14.5956 Y28.6966 
G01 X-14.4834 Y28.5844 
G01 X-14.3515 Y28.4963 
G01 X-14.2049 Y28.4355 
G01 X-14.0493 Y28.4046 
G01 X-13.8907 Y28.4046 
G01 X-13.7351 Y28.4355 
G01 X-13.5885 Y28.4963 
G01 X-13.4566 Y28.5844 
G01 X-13.3444 Y28.6966 
G01 X-13.2563 Y28.8285 
G01 X-13.1956 Y28.9751 
G01 X-13.1646 Y29.1307 
G01 X-13.1646 Y29.2893 
G01 X-13.1725 Y29.3290 
G01 X-5.9712 Y35.4150 
G01 X-2.5112 Y35.4150 
G01 X-2.4579 Y35.4371 
G01 X-2.4171 Y35.4779 
G00 Z1.0000 
G00 X-2.4171 Y40.5579 
G01 Z-0.1500 F50.00 
G01 X-2.3950 Y40.6112 F75.00 
G01 X-2.3950 Y43.2088 
G01 X-2.4171 Y43.2621 
G01 X-2.4579 Y43.3029 
G01 X-2.5112 Y43.3250 
G01 X-7.6488 Y43.3250 
G01 X-7.7021 Y43.3029 
G01 X-7.7429 Y43.2621 
G01 X-7.7650 Y43.2088 
G01 X-7.7650 Y42.2330 
G01 X-8.1534 Y42.2330 
G01 X-8.1709 Y42.2355 
G01 X-8.2176 Y42.2330 
G01 X-8.2643 Y42.2330 
G01 X-8.2817 Y42.2295 
G01 X-8.2994 Y42.2286 
G01 X-8.3446 Y42.2170 
G01 X-8.3905 Y42.2079 
G01 X-8.4068 Y42.2011 
G01 X-8.4240 Y42.1967 
G01 X-8.4661 Y42.1766 
G01 X-8.5093 Y42.1587 
G01 X-8.5240 Y42.1488 
G01 X-8.5400 Y42.1412 
G01 X-8.5774 Y42.1132 
G01 X-8.6163 Y42.0872 
G01 X-8.6288 Y42.0747 
G01 X-8.6430 Y42.0641 
G01 X-8.6741 Y42.0293 
G01 X-8.7072 Y41.9963 
G01 X-8.7171 Y41.9815 
G01 X-19.6373 Y29.8170 
G01 X-28.6780 Y29.8170 
G01 X-28.6966 Y29.8356 
G01 X-28.8285 Y29.9237 
G01 X-28.9751 Y29.9844 
G01 X-29.1307 Y30.0154 
G01 X-29.2893 Y30.0154 
G01 X-29.4449 Y29.9844 
G01 X-29.5915 Y29.9237 
G01 X-29.7234 Y29.8356 
G01 X-29.8356 Y29.7234 
G01 X-29.9237 Y29.5915 
G01 X-29.9844 Y29.4449 
G01 X-30.0154 Y29.2893 
G01 X-30.0154 Y29.1307 
G01 X-29.9844 Y28.9751 
G01 X-29.9237 Y28.8285 
G01 X-29.8356 Y28.6966 
G01 X-29.7234 Y28.5844 
G01 X-29.5915 Y28.4963 
G01 X-29.4449 Y28.4355 
G01 X-29.2893 Y28.4046 
G01 X-29.1307 Y28.4046 
G01 X-28.9751 Y28.4355 
G01 X-28.8285 Y28.4963 
G01 X-28.8064 Y28.5110 
G01 X-19.3926 Y28.5110 
G01 X-19.3751 Y28.5085 
G01 X-19.3284 Y28.5110 
G01 X-19.2817 Y28.5110 
G01 X-19.2643 Y28.5145 
G01 X-19.2466 Y28.5154 
G01 X-19.2014 Y28.5270 
G01 X-19.1555 Y28.5361 
G01 X-19.1392 Y28.5429 
G01 X-19.1220 Y28.5473 
G01 X-19.0799 Y28.5674 
G01 X-19.0367 Y28.5853 
G01 X-19.0220 Y28.5952 
G01 X-19.0060 Y28.6028 
G01 X-18.9686 Y28.6308 
G01 X-18.9297 Y28.6568 
G01 X-18.9172 Y28.6693 
G01 X-18.9030 Y28.6799 
G01 X-18.8719 Y28.7147 
G01 X-18.8388 Y28.7477 
G01 X-18.8289 Y28.7625 
G01 X-7.9087 Y40.9270 
G01 X-7.7650 Y40.9270 
G01 X-7.7650 Y40.6112 
G01 X-7.7429 Y40.5579 
G01 X-7.7021 Y40.5171 
G01 X-7.6488 Y40.4950 
G01 X-2.5112 Y40.4950 
G01 X-2.4579 Y40.5171 
G01 X-2.4171 Y40.5579 
G00 Z1.0000 
G00 X-2.4171 Y45.6379 
G01 Z-0.1500 F50.00 
G01 X-2.3950 Y45.6912 F75.00 
G01 X-2.3950 Y48.2888 
G01 X-2.4171 Y48.3421 
G01 X-2.4579 Y48.3829 
G01 X-2.5112 Y48.4050 
G01 X-7.6488 Y48.4050 
G01 X-7.7021 Y48.3829 
G01 X-7.7429 Y48.3421 
G01 X-7.7650 Y48.2888 
G01 X-7.7650 Y47.0840 
G01 X-17.3174 Y47.0840 
G01 X-17.3740 Y47.0853 
G01 X-17.3816 Y47.0840 
G01 X-17.3893 Y47.0840 
G01 X-17.4449 Y47.0729 
G01 X-17.5007 Y47.0632 
G01 X-17.5079 Y47.0604 
G01 X-17.5155 Y47.0589 
G01 X-17.5678 Y47.0372 
G01 X-17.6207 Y47.0168 
G01 X-17.6272 Y47.0126 
G01 X-17.6343 Y47.0097 
G01 X-17.6814 Y46.9782 
G01 X-17.7293 Y46.9478 
G01 X-17.7348 Y46.9425 
G01 X-17.7413 Y46.9382 
G01 X-17.7813 Y46.8982 
G01 X-31.5984 Y33.7141 
G01 X-31.6089 Y33.7069 
G01 X-31.6449 Y33.6697 
G01 X-31.6823 Y33.6340 
G01 X-31.6896 Y33.6237 
G01 X-31.6985 Y33.6145 
G01 X-31.7266 Y33.5711 
G01 X-31.7563 Y33.5288 
G01 X-31.7614 Y33.5172 
G01 X-31.7683 Y33.5065 
G01 X-31.7874 Y33.4584 
G01 X-31.8083 Y33.4111 
G01 X-31.8110 Y33.3987 
G01 X-31.8157 Y33.3870 
G01 X-31.8250 Y33.3361 
G01 X-31.8363 Y33.2856 
G01 X-31.8366 Y33.2729 
G01 X-31.8389 Y33.2604 
G01 X-31.8381 Y33.2087 
G01 X-31.8393 Y33.1570 
G01 X-31.8371 Y33.1445 
G01 X-31.7680 Y28.5701 
G01 X-31.7680 Y28.5107 
G01 X-31.7670 Y28.5058 
G01 X-31.7670 Y28.5008 
G01 X-31.7545 Y28.4428 
G01 X-31.7429 Y28.3845 
G01 X-31.7410 Y28.3799 
G01 X-31.7400 Y28.3751 
G01 X-31.7164 Y28.3205 
G01 X-31.6937 Y28.2657 
G01 X-31.6909 Y28.2616 
G01 X-31.6889 Y28.2570 
G01 X-31.6552 Y28.2081 
G01 X-31.6222 Y28.1587 
G01 X-31.6187 Y28.1552 
G01 X-31.6159 Y28.1511 
G01 X-31.5733 Y28.1098 
G01 X-30.0058 Y26.5423 
G01 X-29.9844 Y26.4351 
G01 X-29.9237 Y26.2885 
G01 X-29.8356 Y26.1566 
G01 X-29.7234 Y26.0444 
G01 X-29.5915 Y25.9563 
G01 X-29.4449 Y25.8956 
G01 X-29.2893 Y25.8646 
G01 X-29.1307 Y25.8646 
G01 X-28.9751 Y25.8956 
G01 X-28.8285 Y25.9563 
G01 X-28.6966 Y26.0444 
G01 X-28.5844 Y26.1566 
G01 X-28.4963 Y26.2885 
G01 X-28.4355 Y26.4351 
G01 X-28.4046 Y26.5907 
G01 X-28.4046 Y26.7493 
G01 X-28.4355 Y26.9049 
G01 X-28.4963 Y27.0515 
G01 X-28.5844 Y27.1834 
G01 X-28.6966 Y27.2956 
G01 X-28.8285 Y27.3837 
G01 X-28.9751 Y27.4444 
G01 X-29.0823 Y27.4658 
G01 X-30.4661 Y28.8496 
G01 X-30.5278 Y32.9305 
G01 X-17.0634 Y45.7780 
G01 X-7.7650 Y45.7780 
G01 X-7.7650 Y45.6912 
G01 X-7.7429 Y45.6379 
G01 X-7.7021 Y45.5971 
G01 X-7.6488 Y45.5750 
G01 X-2.5112 Y45.5750 
G01 X-2.4579 Y45.5971 
G01 X-2.4171 Y45.6379 
G00 Z1.0000 
G00 X-2.4171 Y50.7179 
G01 Z-0.1500 F50.00 
G01 X-2.3950 Y50.7712 F75.00 
G01 X-2.3950 Y53.3688 
G01 X-2.4171 Y53.4221 
G01 X-2.4579 Y53.4629 
G01 X-2.5112 Y53.4850 
G01 X-7.6488 Y53.4850 
G01 X-7.7021 Y53.4629 
G01 X-7.7429 Y53.4221 
G01 X-7.7650 Y53.3688 
G01 X-7.7650 Y52.7230 
G01 X-13.9645 Y52.7230 
G01 X-14.0232 Y52.7240 
G01 X-14.0287 Y52.7230 
G01 X-14.0343 Y52.7230 
G01 X-14.0920 Y52.7115 
G01 X-14.1498 Y52.7010 
G01 X-14.1550 Y52.6990 
G01 X-14.1605 Y52.6979 
G01 X-14.2148 Y52.6754 
G01 X-14.2695 Y52.6538 
G01 X-14.2742 Y52.6508 
G01 X-14.2793 Y52.6487 
G01 X-14.3282 Y52.6160 
G01 X-14.3776 Y52.5842 
G01 X-14.3816 Y52.5803 
G01 X-14.3863 Y52.5772 
G01 X-14.4279 Y52.5356 
G01 X-33.4316 Y34.1653 
G01 X-33.4363 Y34.1622 
G01 X-33.4779 Y34.1206 
G01 X-33.5201 Y34.0798 
G01 X-33.5233 Y34.0752 
G01 X-33.5272 Y34.0713 
G01 X-33.5599 Y34.0223 
G01 X-33.5934 Y33.9741 
G01 X-33.5956 Y33.9689 
G01 X-33.5987 Y33.9643 
G01 X-33.6212 Y33.9100 
G01 X-33.6446 Y33.8561 
G01 X-33.6458 Y33.8506 
G01 X-33.6479 Y33.8455 
G01 X-33.6594 Y33.7878 
G01 X-33.6718 Y33.7304 
G01 X-33.6719 Y33.7248 
G01 X-33.6730 Y33.7193 
G01 X-33.6730 Y33.6605 
G01 X-33.6740 Y33.6018 
G01 X-33.6730 Y33.5963 
G01 X-33.6730 Y27.8757 
G01 X-33.6479 Y27.7495 
G01 X-33.5987 Y27.6307 
G01 X-33.5272 Y27.5237 
G01 X-33.4363 Y27.4328 
G01 X-30.0058 Y24.0023 
G01 X-29.9844 Y23.8951 
G01 X-29.9237 Y23.7485 
G01 X-29.8356 Y23.6166 
G01 X-29.7234 Y23.5044 
G01 X-29.5915 Y23.4163 
G01 X-29.4449 Y23.3556 
G01 X-29.2893 Y23.3246 
G01 X-29.1307 Y23.3246 
G01 X-28.9751 Y23.3556 
G01 X-28.8285 Y23.4163 
G01 X-28.6966 Y23.5044 
G01 X-28.5844 Y23.6166 
G01 X-28.4963 Y23.7485 
G01 X-28.4355 Y23.8951 
G01 X-28.4046 Y24.0507 
G01 X-28.4046 Y24.2093 
G01 X-28.4355 Y24.3649 
G01 X-28.4963 Y24.5115 
G01 X-28.5844 Y24.6434 
G01 X-28.6966 Y24.7556 
G01 X-28.8285 Y24.8437 
G01 X-28.9751 Y24.9044 
G01 X-29.0823 Y24.9258 
G01 X-32.3670 Y28.2105 
G01 X-32.3670 Y33.3780 
G01 X-13.7060 Y51.4170 
G01 X-7.7650 Y51.4170 
G01 X-7.7650 Y50.7712 
G01 X-7.7429 Y50.7179 
G01 X-7.7021 Y50.6771 
G01 X-7.6488 Y50.6550 
G01 X-2.5112 Y50.6550 
G01 X-2.4579 Y50.6771 
G01 X-2.4171 Y50.7179 
G00 Z1.0000 
G00 X-2.4171 Y55.7979 
G01 Z-0.1500 F50.00 
G01 X-2.3950 Y55.8512 F75.00 
G01 X-2.3950 Y58.4488 
G01 X-2.4171 Y58.5021 
G01 X-2.4579 Y58.5429 
G01 X-2.5112 Y58.5650 
G01 X-7.6488 Y58.5650 
G01 X-7.7021 Y58.5429 
G01 X-7.7429 Y58.5021 
G01 X-7.7650 Y58.4488 
G01 X-7.7650 Y57.8030 
G01 X-11.4256 Y57.8030 
G01 X-11.4854 Y57.8038 
G01 X-11.4898 Y57.8030 
G01 X-11.4943 Y57.8030 
G01 X-11.5530 Y57.7913 
G01 X-11.6119 Y57.7805 
G01 X-11.6160 Y57.7788 
G01 X-11.6205 Y57.7779 
G01 X-11.6758 Y57.7550 
G01 X-11.7314 Y57.7329 
G01 X-11.7351 Y57.7304 
G01 X-11.7393 Y57.7287 
G01 X-11.7891 Y57.6954 
G01 X-11.8393 Y57.6629 
G01 X-11.8425 Y57.6597 
G01 X-11.8463 Y57.6572 
G01 X-11.8886 Y57.6148 
G01 X-35.3375 Y34.7997 
G01 X-35.3413 Y34.7972 
G01 X-35.3837 Y34.7548 
G01 X-35.4265 Y34.7132 
G01 X-35.4290 Y34.7095 
G01 X-35.4322 Y34.7063 
G01 X-35.4655 Y34.6564 
G01 X-35.4994 Y34.6072 
G01 X-35.5012 Y34.6031 
G01 X-35.5037 Y34.5993 
G01 X-35.5266 Y34.5440 
G01 X-35.5502 Y34.4891 
G01 X-35.5512 Y34.4846 
G01 X-35.5529 Y34.4805 
G01 X-35.5646 Y34.4217 
G01 X-35.5771 Y34.3633 
G01 X-35.5771 Y34.3587 
G01 X-35.5780 Y34.3543 
G01 X-35.5780 Y34.2944 
G01 X-35.5788 Y34.2346 
G01 X-35.5780 Y34.2302 
G01 X-35.5780 Y27.2407 
G01 X-35.5529 Y27.1145 
G01 X-35.5037 Y26.9957 
G01 X-35.4322 Y26.8887 
G01 X-35.3413 Y26.7978 
G01 X-30.0058 Y21.4623 
G01 X-29.9844 Y21.3551 
G01 X-29.9237 Y21.2085 
G01 X-29.8356 Y21.0766 
G01 X-29.7234 Y20.9644 
G01 X-29.5915 Y20.8763 
G01 X-29.4449 Y20.8156 
G01 X-29.2893 Y20.7846 
G01 X-29.1307 Y20.7846 
G01 X-28.9751 Y20.8156 
G01 X-28.8285 Y20.8763 
G01 X-28.6966 Y20.9644 
G01 X-28.5844 Y21.0766 
G01 X-28.4963 Y21.2085 
G01 X-28.4355 Y21.3551 
G01 X-28.4046 Y21.5107 
G01 X-28.4046 Y21.6693 
G01 X-28.4355 Y21.8249 
G01 X-28.4963 Y21.9715 
G01 X-28.5844 Y22.1034 
G01 X-28.6966 Y22.2156 
G01 X-28.8285 Y22.3037 
G01 X-28.9751 Y22.3644 
G01 X-29.0823 Y22.3858 
G01 X-34.2720 Y27.5755 
G01 X-34.2720 Y34.0143 
G01 X-11.1647 Y56.4970 
G01 X-7.7650 Y56.4970 
G01 X-7.7650 Y55.8512 
G01 X-7.7429 Y55.7979 
G01 X-7.7021 Y55.7571 
G01 X-7.6488 Y55.7350 
G01 X-2.5112 Y55.7350 
G01 X-2.4579 Y55.7571 
G01 X-2.4171 Y55.7979 
G00 Z1.0000 
G00 X-2.4171 Y60.8779 
G01 Z-0.1500 F50.00 
G01 X-2.3950 Y60.9312 F75.00 
G01 X-2.3950 Y63.5288 
G01 X-2.4171 Y63.5821 
G01 X-2.4579 Y63.6229 
G01 X-2.5112 Y63.6450 
G01 X-7.6488 Y63.6450 
G01 X-7.7021 Y63.6229 
G01 X-7.7429 Y63.5821 
G01 X-7.7650 Y63.5288 
G01 X-7.7650 Y62.3300 
G01 X-9.7663 Y62.3300 
G01 X-9.8925 Y62.3049 
G01 X-10.0113 Y62.2557 
G01 X-10.1183 Y62.1842 
G01 X-10.2092 Y62.0933 
G01 X-37.2362 Y35.0663 
G01 X-37.3077 Y34.9593 
G01 X-37.3569 Y34.8405 
G01 X-37.3820 Y34.7143 
G01 X-37.3820 Y25.6895 
G01 X-37.3843 Y25.6739 
G01 X-37.3820 Y25.6253 
G01 X-37.3820 Y25.5767 
G01 X-37.3789 Y25.5612 
G01 X-37.3782 Y25.5454 
G01 X-37.3664 Y25.4983 
G01 X-37.3569 Y25.4505 
G01 X-37.3509 Y25.4359 
G01 X-37.3470 Y25.4206 
G01 X-37.3263 Y25.3767 
G01 X-37.3077 Y25.3317 
G01 X-37.2989 Y25.3186 
G01 X-37.2922 Y25.3043 
G01 X-37.2632 Y25.2652 
G01 X-37.2362 Y25.2247 
G01 X-37.2251 Y25.2136 
G01 X-37.2157 Y25.2009 
G01 X-37.1797 Y25.1682 
G01 X-37.1453 Y25.1338 
G01 X-37.1321 Y25.1250 
G01 X-30.2673 Y18.8892 
G01 X-30.2511 Y18.8705 
G01 X-30.2198 Y18.8461 
G01 X-30.1905 Y18.8194 
G01 X-30.1692 Y18.8066 
G01 X-30.1497 Y18.7914 
G01 X-30.1142 Y18.7736 
G01 X-30.0802 Y18.7532 
G01 X-30.0569 Y18.7448 
G01 X-29.9286 Y18.6803 
G01 X-29.9237 Y18.6685 
G01 X-29.8356 Y18.5366 
G01 X-29.7234 Y18.4244 
G01 X-29.5915 Y18.3363 
G01 X-29.4449 Y18.2755 
G01 X-29.2893 Y18.2446 
G01 X-29.1307 Y18.2446 
G01 X-28.9751 Y18.2755 
G01 X-28.8285 Y18.3363 
G01 X-28.6966 Y18.4244 
G01 X-28.5844 Y18.5366 
G01 X-28.4963 Y18.6685 
G01 X-28.4355 Y18.8151 
G01 X-28.4046 Y18.9707 
G01 X-28.4046 Y19.1293 
G01 X-28.4355 Y19.2849 
G01 X-28.4963 Y19.4315 
G01 X-28.5844 Y19.5634 
G01 X-28.6966 Y19.6756 
G01 X-28.8285 Y19.7637 
G01 X-28.9751 Y19.8244 
G01 X-29.1307 Y19.8554 
G01 X-29.2893 Y19.8554 
G01 X-29.3388 Y19.8456 
G01 X-29.4260 Y19.8894 
G01 X-36.0760 Y25.9300 
G01 X-36.0760 Y34.3795 
G01 X-9.4315 Y61.0240 
G01 X-7.7650 Y61.0240 
G01 X-7.7650 Y60.9312 
G01 X-7.7429 Y60.8779 
G01 X-7.7021 Y60.8371 
G01 X-7.6488 Y60.8150 
G01 X-2.5112 Y60.8150 
G01 X-2.4579 Y60.8371 
G01 X-2.4171 Y60.8779 
G00 Z1.0000 
G00 X-2.4171 Y65.9579 
G01 Z-0.1500 F50.00 
G01 X-2.3950 Y66.0112 F75.00 
G01 X-2.3950 Y68.6088 
G01 X-2.4171 Y68.6621 
G01 X-2.4579 Y68.7029 
G01 X-2.5112 Y68.7250 
G01 X-7.6488 Y68.7250 
G01 X-7.7021 Y68.7029 
G01 X-7.7429 Y68.6621 
G01 X-7.7650 Y68.6088 
G01 X-7.7650 Y67.9630 
G01 X-8.1974 Y67.9630 
G01 X-8.2040 Y67.9642 
G01 X-8.2617 Y67.9630 
G01 X-8.3193 Y67.9630 
G01 X-8.3259 Y67.9617 
G01 X-8.3326 Y67.9616 
G01 X-8.3889 Y67.9492 
G01 X-8.4455 Y67.9379 
G01 X-8.4517 Y67.9353 
G01 X-8.4582 Y67.9339 
G01 X-8.5110 Y67.9107 
G01 X-8.5643 Y67.8887 
G01 X-8.5699 Y67.8849 
G01 X-8.5761 Y67.8822 
G01 X-8.6233 Y67.8492 
G01 X-8.6713 Y67.8172 
G01 X-8.6760 Y67.8125 
G01 X-8.6815 Y67.8086 
G01 X-8.7214 Y67.7671 
G01 X-8.7622 Y67.7263 
G01 X-8.7660 Y67.7207 
G01 X-39.2014 Y36.0171 
G01 X-39.2422 Y35.9763 
G01 X-39.2460 Y35.9707 
G01 X-39.2506 Y35.9658 
G01 X-39.2816 Y35.9173 
G01 X-39.3137 Y35.8693 
G01 X-39.3162 Y35.8631 
G01 X-39.3199 Y35.8574 
G01 X-39.3408 Y35.8037 
G01 X-39.3629 Y35.7505 
G01 X-39.3642 Y35.7439 
G01 X-39.3667 Y35.7376 
G01 X-39.3767 Y35.6809 
G01 X-39.3880 Y35.6243 
G01 X-39.3880 Y35.6176 
G01 X-39.3892 Y35.6110 
G01 X-39.3880 Y35.5533 
G01 X-39.3880 Y24.8059 
G01 X-39.3909 Y24.7826 
G01 X-39.3880 Y24.7417 
G01 X-39.3880 Y24.7007 
G01 X-39.3834 Y24.6777 
G01 X-39.3818 Y24.6543 
G01 X-39.3709 Y24.6148 
G01 X-39.3629 Y24.5745 
G01 X-39.3539 Y24.5529 
G01 X-39.3477 Y24.5303 
G01 X-39.3294 Y24.4936 
G01 X-39.3137 Y24.4557 
G01 X-39.3007 Y24.4362 
G01 X-39.2902 Y24.4152 
G01 X-39.2650 Y24.3829 
G01 X-39.2422 Y24.3487 
G01 X-39.2256 Y24.3322 
G01 X-39.2113 Y24.3137 
G01 X-39.1803 Y24.2868 
G01 X-39.1513 Y24.2578 
G01 X-39.1318 Y24.2448 
G01 X-29.9945 Y16.3258 
G01 X-29.9844 Y16.2751 
G01 X-29.9237 Y16.1285 
G01 X-29.8356 Y15.9966 
G01 X-29.7234 Y15.8844 
G01 X-29.5915 Y15.7963 
G01 X-29.4449 Y15.7355 
G01 X-29.2893 Y15.7046 
G01 X-29.1307 Y15.7046 
G01 X-28.9751 Y15.7355 
G01 X-28.8285 Y15.7963 
G01 X-28.6966 Y15.8844 
G01 X-28.5844 Y15.9966 
G01 X-28.4963 Y16.1285 
G01 X-28.4355 Y16.2751 
G01 X-28.4046 Y16.4307 
G01 X-28.4046 Y16.5893 
G01 X-28.4355 Y16.7449 
G01 X-28.4963 Y16.8915 
G01 X-28.5844 Y17.0234 
G01 X-28.6966 Y17.1356 
G01 X-28.8285 Y17.2237 
G01 X-28.9751 Y17.2844 
G01 X-29.1307 Y17.3154 
G01 X-29.1423 Y17.3154 
G01 X-38.0820 Y25.0632 
G01 X-38.0820 Y35.2973 
G01 X-7.9767 Y66.6570 
G01 X-7.7650 Y66.6570 
G01 X-7.7650 Y66.0112 
G01 X-7.7429 Y65.9579 
G01 X-7.7021 Y65.9171 
G01 X-7.6488 Y65.8950 
G01 X-2.5112 Y65.8950 
G01 X-2.4579 Y65.9171 
G01 X-2.4171 Y65.9579 
G00 Z1.0000 
G00 X-2.4171 Y71.0379 
G01 Z-0.1500 F50.00 
G01 X-2.3950 Y71.0912 F75.00 
G01 X-2.3950 Y73.6888 
G01 X-2.4171 Y73.7421 
G01 X-2.4579 Y73.7829 
G01 X-2.5112 Y73.8050 
G01 X-7.6488 Y73.8050 
G01 X-7.7021 Y73.7829 
G01 X-7.7429 Y73.7421 
G01 X-7.7650 Y73.6888 
G01 X-7.7650 Y72.5158 
G01 X-41.1081 Y37.2854 
G01 X-41.1472 Y37.2463 
G01 X-41.1523 Y37.2387 
G01 X-41.1585 Y37.2321 
G01 X-41.1879 Y37.1853 
G01 X-41.2187 Y37.1393 
G01 X-41.2221 Y37.1309 
G01 X-41.2270 Y37.1233 
G01 X-41.2467 Y37.0716 
G01 X-41.2679 Y37.0205 
G01 X-41.2697 Y37.0116 
G01 X-41.2729 Y37.0031 
G01 X-41.2822 Y36.9486 
G01 X-41.2930 Y36.8943 
G01 X-41.2930 Y36.8853 
G01 X-41.2945 Y36.8763 
G01 X-41.2930 Y36.8210 
G01 X-41.2930 Y24.1750 
G01 X-41.2956 Y24.1559 
G01 X-41.2930 Y24.1108 
G01 X-41.2930 Y24.0657 
G01 X-41.2892 Y24.0467 
G01 X-41.2881 Y24.0274 
G01 X-41.2767 Y23.9838 
G01 X-41.2679 Y23.9395 
G01 X-41.2605 Y23.9217 
G01 X-41.2556 Y23.9030 
G01 X-41.2359 Y23.8624 
G01 X-41.2187 Y23.8207 
G01 X-41.2079 Y23.8046 
G01 X-41.1995 Y23.7872 
G01 X-41.1723 Y23.7513 
G01 X-41.1472 Y23.7137 
G01 X-41.1335 Y23.7001 
G01 X-41.1219 Y23.6847 
G01 X-41.0882 Y23.6547 
G01 X-41.0563 Y23.6228 
G01 X-41.0402 Y23.6120 
G01 X-29.9964 Y13.7954 
G01 X-29.9844 Y13.7351 
G01 X-29.9237 Y13.5885 
G01 X-29.8356 Y13.4566 
G01 X-29.7234 Y13.3444 
G01 X-29.5915 Y13.2563 
G01 X-29.4449 Y13.1956 
G01 X-29.2893 Y13.1646 
G01 X-29.1307 Y13.1646 
G01 X-28.9751 Y13.1956 
G01 X-28.8285 Y13.2563 
G01 X-28.6966 Y13.3444 
G01 X-28.5844 Y13.4566 
G01 X-28.4963 Y13.5885 
G01 X-28.4355 Y13.7351 
G01 X-28.4046 Y13.8907 
G01 X-28.4046 Y14.0493 
G01 X-28.4355 Y14.2049 
G01 X-28.4963 Y14.3515 
G01 X-28.5844 Y14.4834 
G01 X-28.6966 Y14.5956 
G01 X-28.8285 Y14.6837 
G01 X-28.9751 Y14.7444 
G01 X-29.1307 Y14.7754 
G01 X-39.9870 Y24.4232 
G01 X-39.9870 Y36.5700 
G01 X-7.4251 Y70.9750 
G01 X-2.5112 Y70.9750 
G01 X-2.4579 Y70.9971 
G01 X-2.4171 Y71.0379 
G00 Z1.0000 
G00 X-2.4171 Y74.8479 
G01 Z-0.1500 F50.00 
G01 X-2.3950 Y74.9012 F75.00 
G01 X-2.3950 Y77.4988 
G01 X-2.4171 Y77.5521 
G01 X-2.4579 Y77.5929 
G01 X-2.5112 Y77.6150 
G01 X-7.6488 Y77.6150 
G01 X-7.7021 Y77.5929 
G01 X-7.7429 Y77.5521 
G01 X-7.7650 Y77.4988 
G01 X-7.7650 Y76.8369 
G01 X-7.8105 Y76.8279 
G01 X-7.8237 Y76.8224 
G01 X-7.8376 Y76.8190 
G01 X-7.8830 Y76.7979 
G01 X-7.9293 Y76.7787 
G01 X-7.9412 Y76.7707 
G01 X-7.9542 Y76.7647 
G01 X-7.9946 Y76.7351 
G01 X-8.0363 Y76.7072 
G01 X-8.0464 Y76.6971 
G01 X-8.0579 Y76.6887 
G01 X-8.0918 Y76.6517 
G01 X-8.1272 Y76.6163 
G01 X-8.1352 Y76.6044 
G01 X-43.0168 Y38.5517 
G01 X-43.0522 Y38.5163 
G01 X-43.0602 Y38.5044 
G01 X-43.0698 Y38.4938 
G01 X-43.0958 Y38.4510 
G01 X-43.1237 Y38.4093 
G01 X-43.1291 Y38.3961 
G01 X-43.1366 Y38.3839 
G01 X-43.1537 Y38.3368 
G01 X-43.1729 Y38.2905 
G01 X-43.1757 Y38.2765 
G01 X-43.1806 Y38.2630 
G01 X-43.1882 Y38.2135 
G01 X-43.1980 Y38.1643 
G01 X-43.1980 Y38.1500 
G01 X-43.2002 Y38.1359 
G01 X-43.1980 Y38.0858 
G01 X-43.1980 Y23.5429 
G01 X-43.2004 Y23.5266 
G01 X-43.1980 Y23.4787 
G01 X-43.1980 Y23.4307 
G01 X-43.1948 Y23.4146 
G01 X-43.1940 Y23.3982 
G01 X-43.1823 Y23.3516 
G01 X-43.1729 Y23.3045 
G01 X-43.1666 Y23.2893 
G01 X-43.1626 Y23.2734 
G01 X-43.1421 Y23.2300 
G01 X-43.1237 Y23.1857 
G01 X-43.1145 Y23.1720 
G01 X-43.1075 Y23.1572 
G01 X-43.0789 Y23.1186 
G01 X-43.0522 Y23.0787 
G01 X-43.0406 Y23.0671 
G01 X-43.0308 Y23.0539 
G01 X-42.9952 Y23.0217 
G01 X-42.9613 Y22.9878 
G01 X-42.9476 Y22.9787 
G01 X-29.9978 Y11.2622 
G01 X-29.9844 Y11.1951 
G01 X-29.9237 Y11.0485 
G01 X-29.8356 Y10.9166 
G01 X-29.7234 Y10.8044 
G01 X-29.5915 Y10.7163 
G01 X-29.4449 Y10.6555 
G01 X-29.2893 Y10.6246 
G01 X-29.1307 Y10.6246 
G01 X-28.9751 Y10.6555 
G01 X-28.8285 Y10.7163 
G01 X-28.6966 Y10.8044 
G01 X-28.5844 Y10.9166 
G01 X-28.4963 Y11.0485 
G01 X-28.4355 Y11.1951 
G01 X-28.4046 Y11.3507 
G01 X-28.4046 Y11.5093 
G01 X-28.4355 Y11.6649 
G01 X-28.4963 Y11.8115 
G01 X-28.5844 Y11.9434 
G01 X-28.6966 Y12.0556 
G01 X-28.8285 Y12.1437 
G01 X-28.9751 Y12.2044 
G01 X-29.1258 Y12.2344 
G01 X-41.8920 Y23.7848 
G01 X-41.8920 Y37.8460 
G01 X-7.7650 Y75.0755 
G01 X-7.7650 Y74.9012 
G01 X-7.7429 Y74.8479 
G01 X-7.7021 Y74.8071 
G01 X-7.6488 Y74.7850 
G01 X-2.5112 Y74.7850 
G01 X-2.4579 Y74.8071 
G01 X-2.4171 Y74.8479 
G00 Z1.0000 
G00 X-13.1900 Y72.3612 
G01 Z-0.1500 F50.00 
G01 X-13.1900 Y77.4988 F75.00 
G01 X-13.2121 Y77.5521 
G01 X-13.2529 Y77.5929 
G01 X-13.3062 Y77.6150 
G01 X-15.9038 Y77.6150 
G01 X-15.9571 Y77.5929 
G01 X-15.9979 Y77.5521 
G01 X-16.0200 Y77.4988 
G01 X-16.0200 Y72.3612 
G01 X-15.9979 Y72.3079 
G01 X-15.9571 Y72.2671 
G01 X-15.9038 Y72.2450 
G01 X-15.6735 Y72.2450 
G01 X-37.7355 Y50.1830 
G01 X-42.0726 Y50.1830 
G01 X-42.1635 Y50.2437 
G01 X-42.3101 Y50.3044 
G01 X-42.4657 Y50.3354 
G01 X-42.6243 Y50.3354 
G01 X-42.7799 Y50.3044 
G01 X-42.9265 Y50.2437 
G01 X-43.0584 Y50.1556 
G01 X-43.1706 Y50.0434 
G01 X-43.2587 Y49.9115 
G01 X-43.3194 Y49.7649 
G01 X-43.3504 Y49.6093 
G01 X-43.3504 Y49.4507 
G01 X-43.3194 Y49.2951 
G01 X-43.2587 Y49.1485 
G01 X-43.1706 Y49.0166 
G01 X-43.0584 Y48.9044 
G01 X-42.9265 Y48.8163 
G01 X-42.7799 Y48.7555 
G01 X-42.6243 Y48.7246 
G01 X-42.4657 Y48.7246 
G01 X-42.3101 Y48.7555 
G01 X-42.1635 Y48.8163 
G01 X-42.0726 Y48.8770 
G01 X-37.4007 Y48.8770 
G01 X-37.2745 Y48.9021 
G01 X-37.1557 Y48.9513 
G01 X-37.0487 Y49.0228 
G01 X-14.1887 Y71.8828 
G01 X-14.0978 Y71.9737 
G01 X-14.0263 Y72.0807 
G01 X-13.9771 Y72.1995 
G01 X-13.9680 Y72.2450 
G01 X-13.3062 Y72.2450 
G01 X-13.2529 Y72.2671 
G01 X-13.2121 Y72.3079 
G01 X-13.1900 Y72.3612 
G00 Z1.0000 
G00 X-17.6350 Y72.3612 
G01 Z-0.1500 F50.00 
G01 X-17.6350 Y77.4988 F75.00 
G01 X-17.6571 Y77.5521 
G01 X-17.6979 Y77.5929 
G01 X-17.7512 Y77.6150 
G01 X-20.3488 Y77.6150 
G01 X-20.4021 Y77.5929 
G01 X-20.4429 Y77.5521 
G01 X-20.4650 Y77.4988 
G01 X-20.4650 Y72.5335 
G01 X-40.2755 Y52.7230 
G01 X-42.0726 Y52.7230 
G01 X-42.1635 Y52.7837 
G01 X-42.3101 Y52.8444 
G01 X-42.4657 Y52.8754 
G01 X-42.6243 Y52.8754 
G01 X-42.7799 Y52.8444 
G01 X-42.9265 Y52.7837 
G01 X-43.0584 Y52.6956 
G01 X-43.1706 Y52.5834 
G01 X-43.2587 Y52.4515 
G01 X-43.3194 Y52.3049 
G01 X-43.3504 Y52.1493 
G01 X-43.3504 Y51.9907 
G01 X-43.3194 Y51.8351 
G01 X-43.2587 Y51.6885 
G01 X-43.1706 Y51.5566 
G01 X-43.0584 Y51.4444 
G01 X-42.9265 Y51.3563 
G01 X-42.7799 Y51.2955 
G01 X-42.6243 Y51.2646 
G01 X-42.4657 Y51.2646 
G01 X-42.3101 Y51.2955 
G01 X-42.1635 Y51.3563 
G01 X-42.0726 Y51.4170 
G01 X-39.9407 Y51.4170 
G01 X-39.8145 Y51.4421 
G01 X-39.6957 Y51.4913 
G01 X-39.5887 Y51.5628 
G01 X-18.9065 Y72.2450 
G01 X-17.7512 Y72.2450 
G01 X-17.6979 Y72.2671 
G01 X-17.6571 Y72.3079 
G01 X-17.6350 Y72.3612 
G00 Z1.0000 
G00 X-22.0800 Y72.3612 
G01 Z-0.1500 F50.00 
G01 X-22.0800 Y77.4988 F75.00 
G01 X-22.1021 Y77.5521 
G01 X-22.1429 Y77.5929 
G01 X-22.1962 Y77.6150 
G01 X-24.7938 Y77.6150 
G01 X-24.8471 Y77.5929 
G01 X-24.8879 Y77.5521 
G01 X-24.9100 Y77.4988 
G01 X-24.9100 Y72.3612 
G01 X-24.8879 Y72.3079 
G01 X-24.8471 Y72.2671 
G01 X-24.7938 Y72.2450 
G01 X-24.1480 Y72.2450 
G01 X-24.1480 Y71.3905 
G01 X-40.2755 Y55.2630 
G01 X-42.0726 Y55.2630 
G01 X-42.1635 Y55.3237 
G01 X-42.3101 Y55.3844 
G01 X-42.4657 Y55.4154 
G01 X-42.6243 Y55.4154 
G01 X-42.7799 Y55.3844 
G01 X-42.9265 Y55.3237 
G01 X-43.0584 Y55.2356 
G01 X-43.1706 Y55.1234 
G01 X-43.2587 Y54.9915 
G01 X-43.3194 Y54.8449 
G01 X-43.3504 Y54.6893 
G01 X-43.3504 Y54.5307 
G01 X-43.3194 Y54.3751 
G01 X-43.2587 Y54.2285 
G01 X-43.1706 Y54.0966 
G01 X-43.0584 Y53.9844 
G01 X-42.9265 Y53.8963 
G01 X-42.7799 Y53.8355 
G01 X-42.6243 Y53.8046 
G01 X-42.4657 Y53.8046 
G01 X-42.3101 Y53.8355 
G01 X-42.1635 Y53.8963 
G01 X-42.0726 Y53.9570 
G01 X-39.9407 Y53.9570 
G01 X-39.8145 Y53.9821 
G01 X-39.6957 Y54.0313 
G01 X-39.5887 Y54.1028 
G01 X-23.0787 Y70.6128 
G01 X-22.9878 Y70.7037 
G01 X-22.9163 Y70.8107 
G01 X-22.8671 Y70.9295 
G01 X-22.8420 Y71.0557 
G01 X-22.8420 Y72.2450 
G01 X-22.1962 Y72.2450 
G01 X-22.1429 Y72.2671 
G01 X-22.1021 Y72.3079 
G01 X-22.0800 Y72.3612 
G00 Z1.0000 
G00 X-26.5250 Y72.3612 
G01 Z-0.1500 F50.00 
G01 X-26.5250 Y77.4988 F75.00 
G01 X-26.5471 Y77.5521 
G01 X-26.5879 Y77.5929 
G01 X-26.6412 Y77.6150 
G01 X-29.2388 Y77.6150 
G01 X-29.2921 Y77.5929 
G01 X-29.3329 Y77.5521 
G01 X-29.3550 Y77.4988 
G01 X-29.3550 Y72.3612 
G01 X-29.3329 Y72.3079 
G01 X-29.2921 Y72.2671 
G01 X-29.2388 Y72.2450 
G01 X-28.5930 Y72.2450 
G01 X-28.5930 Y69.4855 
G01 X-40.2755 Y57.8030 
G01 X-42.0726 Y57.8030 
G01 X-42.1635 Y57.8637 
G01 X-42.3101 Y57.9244 
G01 X-42.4657 Y57.9554 
G01 X-42.6243 Y57.9554 
G01 X-42.7799 Y57.9244 
G01 X-42.9265 Y57.8637 
G01 X-43.0584 Y57.7756 
G01 X-43.1706 Y57.6634 
G01 X-43.2587 Y57.5315 
G01 X-43.3194 Y57.3849 
G01 X-43.3504 Y57.2293 
G01 X-43.3504 Y57.0707 
G01 X-43.3194 Y56.9151 
G01 X-43.2587 Y56.7685 
G01 X-43.1706 Y56.6366 
G01 X-43.0584 Y56.5244 
G01 X-42.9265 Y56.4363 
G01 X-42.7799 Y56.3755 
G01 X-42.6243 Y56.3446 
G01 X-42.4657 Y56.3446 
G01 X-42.3101 Y56.3755 
G01 X-42.1635 Y56.4363 
G01 X-42.0726 Y56.4970 
G01 X-39.9407 Y56.4970 
G01 X-39.8145 Y56.5221 
G01 X-39.6957 Y56.5713 
G01 X-39.5887 Y56.6428 
G01 X-27.5237 Y68.7078 
G01 X-27.4328 Y68.7987 
G01 X-27.3613 Y68.9057 
G01 X-27.3121 Y69.0245 
G01 X-27.2870 Y69.1507 
G01 X-27.2870 Y72.2450 
G01 X-26.6412 Y72.2450 
G01 X-26.5879 Y72.2671 
G01 X-26.5471 Y72.3079 
G01 X-26.5250 Y72.3612 
G00 Z1.0000 
G00 X-30.9700 Y72.3612 
G01 Z-0.1500 F50.00 
G01 X-30.9700 Y77.4988 F75.00 
G01 X-30.9921 Y77.5521 
G01 X-31.0329 Y77.5929 
G01 X-31.0862 Y77.6150 
G01 X-33.6838 Y77.6150 
G01 X-33.7371 Y77.5929 
G01 X-33.7779 Y77.5521 
G01 X-33.8000 Y77.4988 
G01 X-33.8000 Y72.3612 
G01 X-33.7779 Y72.3079 
G01 X-33.7371 Y72.2671 
G01 X-33.6838 Y72.2450 
G01 X-33.0380 Y72.2450 
G01 X-33.0380 Y67.5805 
G01 X-40.2755 Y60.3430 
G01 X-42.0726 Y60.3430 
G01 X-42.1635 Y60.4037 
G01 X-42.3101 Y60.4644 
G01 X-42.4657 Y60.4954 
G01 X-42.6243 Y60.4954 
G01 X-42.7799 Y60.4644 
G01 X-42.9265 Y60.4037 
G01 X-43.0584 Y60.3156 
G01 X-43.1706 Y60.2034 
G01 X-43.2587 Y60.0715 
G01 X-43.3194 Y59.9249 
G01 X-43.3504 Y59.7693 
G01 X-43.3504 Y59.6107 
G01 X-43.3194 Y59.4551 
G01 X-43.2587 Y59.3085 
G01 X-43.1706 Y59.1766 
G01 X-43.0584 Y59.0644 
G01 X-42.9265 Y58.9763 
G01 X-42.7799 Y58.9156 
G01 X-42.6243 Y58.8846 
G01 X-42.4657 Y58.8846 
G01 X-42.3101 Y58.9156 
G01 X-42.1635 Y58.9763 
G01 X-42.0726 Y59.0370 
G01 X-39.9407 Y59.0370 
G01 X-39.8145 Y59.0621 
G01 X-39.6957 Y59.1113 
G01 X-39.5887 Y59.1828 
G01 X-31.9687 Y66.8028 
G01 X-31.8778 Y66.8937 
G01 X-31.8063 Y67.0007 
G01 X-31.7571 Y67.1195 
G01 X-31.7320 Y67.2457 
G01 X-31.7320 Y72.2450 
G01 X-31.0862 Y72.2450 
G01 X-31.0329 Y72.2671 
G01 X-30.9921 Y72.3079 
G01 X-30.9700 Y72.3612 
G00 Z1.0000 
G00 X-35.4150 Y72.3612 
G01 Z-0.1500 F50.00 
G01 X-35.4150 Y77.4988 F75.00 
G01 X-35.4371 Y77.5521 
G01 X-35.4779 Y77.5929 
G01 X-35.5312 Y77.6150 
G01 X-38.1288 Y77.6150 
G01 X-38.1821 Y77.5929 
G01 X-38.2229 Y77.5521 
G01 X-38.2450 Y77.4988 
G01 X-38.2450 Y72.3612 
G01 X-38.2229 Y72.3079 
G01 X-38.1821 Y72.2671 
G01 X-38.1288 Y72.2450 
G01 X-37.4830 Y72.2450 
G01 X-37.4830 Y65.6755 
G01 X-40.2755 Y62.8830 
G01 X-42.0726 Y62.8830 
G01 X-42.1635 Y62.9437 
G01 X-42.3101 Y63.0044 
G01 X-42.4657 Y63.0354 
G01 X-42.6243 Y63.0354 
G01 X-42.7799 Y63.0044 
G01 X-42.9265 Y62.9437 
G01 X-43.0584 Y62.8556 
G01 X-43.1706 Y62.7434 
G01 X-43.2587 Y62.6115 
G01 X-43.3194 Y62.4649 
G01 X-43.3504 Y62.3093 
G01 X-43.3504 Y62.1507 
G01 X-43.3194 Y61.9951 
G01 X-43.2587 Y61.8485 
G01 X-43.1706 Y61.7166 
G01 X-43.0584 Y61.6044 
G01 X-42.9265 Y61.5163 
G01 X-42.7799 Y61.4556 
G01 X-42.6243 Y61.4246 
G01 X-42.4657 Y61.4246 
G01 X-42.3101 Y61.4556 
G01 X-42.1635 Y61.5163 
G01 X-42.0726 Y61.5770 
G01 X-39.9407 Y61.5770 
G01 X-39.8145 Y61.6021 
G01 X-39.6957 Y61.6513 
G01 X-39.5887 Y61.7228 
G01 X-36.4137 Y64.8978 
G01 X-36.3228 Y64.9887 
G01 X-36.2513 Y65.0957 
G01 X-36.2021 Y65.2145 
G01 X-36.1770 Y65.3407 
G01 X-36.1770 Y72.2450 
G01 X-35.5312 Y72.2450 
G01 X-35.4779 Y72.2671 
G01 X-35.4371 Y72.3079 
G01 X-35.4150 Y72.3612 
G00 Z1.0000 
G00 X-39.8600 Y72.3612 
G01 Z-0.1500 F50.00 
G01 X-39.8600 Y77.4988 F75.00 
G01 X-39.8821 Y77.5521 
G01 X-39.9229 Y77.5929 
G01 X-39.9762 Y77.6150 
G01 X-42.5738 Y77.6150 
G01 X-42.6271 Y77.5929 
G01 X-42.6679 Y77.5521 
G01 X-42.6900 Y77.4988 
G01 X-42.6900 Y72.3612 
G01 X-42.6679 Y72.3079 
G01 X-42.6271 Y72.2671 
G01 X-42.5738 Y72.2450 
G01 X-41.2930 Y72.2450 
G01 X-41.2930 Y66.3105 
G01 X-42.1373 Y65.4662 
G01 X-42.1635 Y65.4837 
G01 X-42.3101 Y65.5444 
G01 X-42.4657 Y65.5754 
G01 X-42.6243 Y65.5754 
G01 X-42.7799 Y65.5444 
G01 X-42.9265 Y65.4837 
G01 X-43.0584 Y65.3956 
G01 X-43.1706 Y65.2834 
G01 X-43.2587 Y65.1515 
G01 X-43.3194 Y65.0049 
G01 X-43.3504 Y64.8493 
G01 X-43.3504 Y64.6907 
G01 X-43.3194 Y64.5351 
G01 X-43.2587 Y64.3885 
G01 X-43.1706 Y64.2566 
G01 X-43.0584 Y64.1444 
G01 X-42.9265 Y64.0563 
G01 X-42.7799 Y63.9956 
G01 X-42.6243 Y63.9646 
G01 X-42.4657 Y63.9646 
G01 X-42.3101 Y63.9956 
G01 X-42.1635 Y64.0563 
G01 X-42.0726 Y64.1170 
G01 X-41.8457 Y64.1170 
G01 X-41.7195 Y64.1421 
G01 X-41.6007 Y64.1913 
G01 X-41.4937 Y64.2628 
G01 X-40.1328 Y65.6237 
G01 X-40.0613 Y65.7307 
G01 X-40.0121 Y65.8495 
G01 X-39.9870 Y65.9757 
G01 X-39.9870 Y72.2450 
G01 X-39.9762 Y72.2450 
G01 X-39.9229 Y72.2671 
G01 X-39.8821 Y72.3079 
G01 X-39.8600 Y72.3612 
G00 Z1.0000 
G00 X-42.0316 Y70.4756 
G01 Z-0.1500 F50.00 
G01 X-42.1635 Y70.5637 F75.00 
G01 X-42.3101 Y70.6244 
G01 X-42.4657 Y70.6554 
G01 X-42.6243 Y70.6554 
G01 X-42.7799 Y70.6244 
G01 X-42.9265 Y70.5637 
G01 X-43.0584 Y70.4756 
G01 X-43.1706 Y70.3634 
G01 X-43.2587 Y70.2315 
G01 X-43.3194 Y70.0849 
G01 X-43.3504 Y69.9293 
G01 X-43.3504 Y69.7707 
G01 X-43.3194 Y69.6151 
G01 X-43.2587 Y69.4685 
G01 X-43.1706 Y69.3366 
G01 X-43.0584 Y69.2244 
G01 X-42.9265 Y69.1363 
G01 X-42.7799 Y69.0756 
G01 X-42.6243 Y69.0446 
G01 X-42.4657 Y69.0446 
G01 X-42.3101 Y69.0756 
G01 X-42.1635 Y69.1363 
G01 X-42.0316 Y69.2244 
G01 X-41.9194 Y69.3366 
G01 X-41.8313 Y69.4685 
G01 X-41.7706 Y69.6151 
G01 X-41.7396 Y69.7707 
G01 X-41.7396 Y69.9293 
G01 X-41.7706 Y70.0849 
G01 X-41.8313 Y70.2315 
G01 X-41.9194 Y70.3634 
G01 X-42.0316 Y70.4756 
G00 Z1.0000 
G00 X-42.0316 Y67.9356 
G01 Z-0.1500 F50.00 
G01 X-42.1635 Y68.0237 F75.00 
G01 X-42.3101 Y68.0844 
G01 X-42.4657 Y68.1154 
G01 X-42.6243 Y68.1154 
G01 X-42.7799 Y68.0844 
G01 X-42.9265 Y68.0237 
G01 X-43.0174 Y67.9630 
G01 X-44.1795 Y67.9630 
G01 X-45.0670 Y68.8505 
G01 X-45.0670 Y72.2450 
G01 X-44.4212 Y72.2450 
G01 X-44.3679 Y72.2671 
G01 X-44.3271 Y72.3079 
G01 X-44.3050 Y72.3612 
G01 X-44.3050 Y77.4988 
G01 X-44.3271 Y77.5521 
G01 X-44.3679 Y77.5929 
G01 X-44.4212 Y77.6150 
G01 X-47.0188 Y77.6150 
G01 X-47.0721 Y77.5929 
G01 X-47.1129 Y77.5521 
G01 X-47.1350 Y77.4988 
G01 X-47.1350 Y72.3612 
G01 X-47.1129 Y72.3079 
G01 X-47.0721 Y72.2671 
G01 X-47.0188 Y72.2450 
G01 X-46.3730 Y72.2450 
G01 X-46.3730 Y68.5157 
G01 X-46.3479 Y68.3895 
G01 X-46.2987 Y68.2707 
G01 X-46.2272 Y68.1637 
G01 X-46.1363 Y68.0728 
G01 X-44.8663 Y66.8028 
G01 X-44.7593 Y66.7313 
G01 X-44.6405 Y66.6821 
G01 X-44.5143 Y66.6570 
G01 X-43.0174 Y66.6570 
G01 X-42.9265 Y66.5963 
G01 X-42.7799 Y66.5356 
G01 X-42.6243 Y66.5046 
G01 X-42.4657 Y66.5046 
G01 X-42.3101 Y66.5356 
G01 X-42.1635 Y66.5963 
G01 X-42.0316 Y66.6844 
G01 X-41.9194 Y66.7966 
G01 X-41.8313 Y66.9285 
G01 X-41.7706 Y67.0751 
G01 X-41.7396 Y67.2307 
G01 X-41.7396 Y67.3893 
G01 X-41.7706 Y67.5449 
G01 X-41.8313 Y67.6915 
G01 X-41.9194 Y67.8234 
G01 X-42.0316 Y67.9356 
G00 Z1.0000 
G00 X-54.1028 Y68.1637 
G01 Z-0.1500 F50.00 
G01 X-54.0313 Y68.2707 F75.00 
G01 X-53.9821 Y68.3895 
G01 X-53.9570 Y68.5157 
G01 X-53.9570 Y72.2450 
G01 X-53.3112 Y72.2450 
G01 X-53.2579 Y72.2671 
G01 X-53.2171 Y72.3079 
G01 X-53.1950 Y72.3612 
G01 X-53.1950 Y77.4988 
G01 X-53.2171 Y77.5521 
G01 X-53.2579 Y77.5929 
G01 X-53.3112 Y77.6150 
G01 X-55.9088 Y77.6150 
G01 X-55.9621 Y77.5929 
G01 X-56.0029 Y77.5521 
G01 X-56.0250 Y77.4988 
G01 X-56.0250 Y72.3612 
G01 X-56.0029 Y72.3079 
G01 X-55.9621 Y72.2671 
G01 X-55.9088 Y72.2450 
G01 X-55.2630 Y72.2450 
G01 X-55.2630 Y68.8505 
G01 X-56.1505 Y67.9630 
G01 X-57.3126 Y67.9630 
G01 X-57.4035 Y68.0237 
G01 X-57.5501 Y68.0844 
G01 X-57.7057 Y68.1154 
G01 X-57.8643 Y68.1154 
G01 X-58.0199 Y68.0844 
G01 X-58.1665 Y68.0237 
G01 X-58.2984 Y67.9356 
G01 X-58.4106 Y67.8234 
G01 X-58.4987 Y67.6915 
G01 X-58.5594 Y67.5449 
G01 X-58.5904 Y67.3893 
G01 X-58.5904 Y67.2307 
G01 X-58.5594 Y67.0751 
G01 X-58.4987 Y66.9285 
G01 X-58.4106 Y66.7966 
G01 X-58.2984 Y66.6844 
G01 X-58.1665 Y66.5963 
G01 X-58.0199 Y66.5356 
G01 X-57.8643 Y66.5046 
G01 X-57.7057 Y66.5046 
G01 X-57.5501 Y66.5356 
G01 X-57.4035 Y66.5963 
G01 X-57.3126 Y66.6570 
G01 X-55.8157 Y66.6570 
G01 X-55.6895 Y66.6821 
G01 X-55.5707 Y66.7313 
G01 X-55.4637 Y66.8028 
G01 X-54.1937 Y68.0728 
G01 X-54.1028 Y68.1637 
G00 Z1.0000 
G00 X-57.1594 Y69.3366 
G01 Z-0.1500 F50.00 
G01 X-57.0713 Y69.4685 F75.00 
G01 X-57.0106 Y69.6151 
G01 X-56.9796 Y69.7707 
G01 X-56.9796 Y69.9293 
G01 X-57.0106 Y70.0849 
G01 X-57.0713 Y70.2315 
G01 X-57.1594 Y70.3634 
G01 X-57.2716 Y70.4756 
G01 X-57.4035 Y70.5637 
G01 X-57.5501 Y70.6244 
G01 X-57.7057 Y70.6554 
G01 X-57.8643 Y70.6554 
G01 X-58.0199 Y70.6244 
G01 X-58.1665 Y70.5637 
G01 X-58.2984 Y70.4756 
G01 X-58.4106 Y70.3634 
G01 X-58.4987 Y70.2315 
G01 X-58.5594 Y70.0849 
G01 X-58.5904 Y69.9293 
G01 X-58.5904 Y69.7707 
G01 X-58.5594 Y69.6151 
G01 X-58.4987 Y69.4685 
G01 X-58.4106 Y69.3366 
G01 X-58.2984 Y69.2244 
G01 X-58.1665 Y69.1363 
G01 X-58.0199 Y69.0756 
G01 X-57.8643 Y69.0446 
G01 X-57.7057 Y69.0446 
G01 X-57.5501 Y69.0756 
G01 X-57.4035 Y69.1363 
G01 X-57.2716 Y69.2244 
G01 X-57.1594 Y69.3366 
G00 Z1.0000 
G00 X-57.6621 Y72.3079 
G01 Z-0.1500 F50.00 
G01 X-57.6400 Y72.3612 F75.00 
G01 X-57.6400 Y77.4988 
G01 X-57.6621 Y77.5521 
G01 X-57.7029 Y77.5929 
G01 X-57.7562 Y77.6150 
G01 X-60.3538 Y77.6150 
G01 X-60.4071 Y77.5929 
G01 X-60.4479 Y77.5521 
G01 X-60.4700 Y77.4988 
G01 X-60.4700 Y72.3612 
G01 X-60.4479 Y72.3079 
G01 X-60.4071 Y72.2671 
G01 X-60.3538 Y72.2450 
G01 X-60.3430 Y72.2450 
G01 X-60.3430 Y65.9757 
G01 X-60.3179 Y65.8495 
G01 X-60.2687 Y65.7307 
G01 X-60.1972 Y65.6237 
G01 X-60.1063 Y65.5328 
G01 X-58.8363 Y64.2628 
G01 X-58.7293 Y64.1913 
G01 X-58.6105 Y64.1421 
G01 X-58.4843 Y64.1170 
G01 X-58.2574 Y64.1170 
G01 X-58.1665 Y64.0563 
G01 X-58.0199 Y63.9956 
G01 X-57.8643 Y63.9646 
G01 X-57.7057 Y63.9646 
G01 X-57.5501 Y63.9956 
G01 X-57.4035 Y64.0563 
G01 X-57.2716 Y64.1444 
G01 X-57.1594 Y64.2566 
G01 X-57.0713 Y64.3885 
G01 X-57.0106 Y64.5351 
G01 X-56.9796 Y64.6907 
G01 X-56.9796 Y64.8493 
G01 X-57.0106 Y65.0049 
G01 X-57.0713 Y65.1515 
G01 X-57.1594 Y65.2834 
G01 X-57.2716 Y65.3956 
G01 X-57.4035 Y65.4837 
G01 X-57.5501 Y65.5444 
G01 X-57.7057 Y65.5754 
G01 X-57.8643 Y65.5754 
G01 X-58.0199 Y65.5444 
G01 X-58.1665 Y65.4837 
G01 X-58.1927 Y65.4662 
G01 X-59.0370 Y66.3105 
G01 X-59.0370 Y72.2450 
G01 X-57.7562 Y72.2450 
G01 X-57.7029 Y72.2671 
G01 X-57.6621 Y72.3079 
G00 Z1.0000 
G00 X-62.1071 Y72.3079 
G01 Z-0.1500 F50.00 
G01 X-62.0850 Y72.3612 F75.00 
G01 X-62.0850 Y77.4988 
G01 X-62.1071 Y77.5521 
G01 X-62.1479 Y77.5929 
G01 X-62.2012 Y77.6150 
G01 X-64.7988 Y77.6150 
G01 X-64.8521 Y77.5929 
G01 X-64.8929 Y77.5521 
G01 X-64.9150 Y77.4988 
G01 X-64.9150 Y72.3612 
G01 X-64.8929 Y72.3079 
G01 X-64.8521 Y72.2671 
G01 X-64.7988 Y72.2450 
G01 X-64.1530 Y72.2450 
G01 X-64.1530 Y65.3407 
G01 X-64.1279 Y65.2145 
G01 X-64.0787 Y65.0957 
G01 X-64.0072 Y64.9887 
G01 X-63.9163 Y64.8978 
G01 X-60.7413 Y61.7228 
G01 X-60.6343 Y61.6513 
G01 X-60.5155 Y61.6021 
G01 X-60.3893 Y61.5770 
G01 X-58.2574 Y61.5770 
G01 X-58.1665 Y61.5163 
G01 X-58.0199 Y61.4556 
G01 X-57.8643 Y61.4246 
G01 X-57.7057 Y61.4246 
G01 X-57.5501 Y61.4556 
G01 X-57.4035 Y61.5163 
G01 X-57.2716 Y61.6044 
G01 X-57.1594 Y61.7166 
G01 X-57.0713 Y61.8485 
G01 X-57.0106 Y61.9951 
G01 X-56.9796 Y62.1507 
G01 X-56.9796 Y62.3093 
G01 X-57.0106 Y62.4649 
G01 X-57.0713 Y62.6115 
G01 X-57.1594 Y62.7434 
G01 X-57.2716 Y62.8556 
G01 X-57.4035 Y62.9437 
G01 X-57.5501 Y63.0044 
G01 X-57.7057 Y63.0354 
G01 X-57.8643 Y63.0354 
G01 X-58.0199 Y63.0044 
G01 X-58.1665 Y62.9437 
G01 X-58.2574 Y62.8830 
G01 X-60.0545 Y62.8830 
G01 X-62.8470 Y65.6755 
G01 X-62.8470 Y72.2450 
G01 X-62.2012 Y72.2450 
G01 X-62.1479 Y72.2671 
G01 X-62.1071 Y72.3079 
G00 Z1.0000 
G00 X-66.5521 Y72.3079 
G01 Z-0.1500 F50.00 
G01 X-66.5300 Y72.3612 F75.00 
G01 X-66.5300 Y77.4988 
G01 X-66.5521 Y77.5521 
G01 X-66.5929 Y77.5929 
G01 X-66.6462 Y77.6150 
G01 X-69.2438 Y77.6150 
G01 X-69.2971 Y77.5929 
G01 X-69.3379 Y77.5521 
G01 X-69.3600 Y77.4988 
G01 X-69.3600 Y72.3612 
G01 X-69.3379 Y72.3079 
G01 X-69.2971 Y72.2671 
G01 X-69.2438 Y72.2450 
G01 X-68.5980 Y72.2450 
G01 X-68.5980 Y67.2457 
G01 X-68.5729 Y67.1195 
G01 X-68.5237 Y67.0007 
G01 X-68.4522 Y66.8937 
G01 X-68.3613 Y66.8028 
G01 X-60.7413 Y59.1828 
G01 X-60.6343 Y59.1113 
G01 X-60.5155 Y59.0621 
G01 X-60.3893 Y59.0370 
G01 X-58.2574 Y59.0370 
G01 X-58.1665 Y58.9763 
G01 X-58.0199 Y58.9156 
G01 X-57.8643 Y58.8846 
G01 X-57.7057 Y58.8846 
G01 X-57.5501 Y58.9156 
G01 X-57.4035 Y58.9763 
G01 X-57.2716 Y59.0644 
G01 X-57.1594 Y59.1766 
G01 X-57.0713 Y59.3085 
G01 X-57.0106 Y59.4551 
G01 X-56.9796 Y59.6107 
G01 X-56.9796 Y59.7693 
G01 X-57.0106 Y59.9249 
G01 X-57.0713 Y60.0715 
G01 X-57.1594 Y60.2034 
G01 X-57.2716 Y60.3156 
G01 X-57.4035 Y60.4037 
G01 X-57.5501 Y60.4644 
G01 X-57.7057 Y60.4954 
G01 X-57.8643 Y60.4954 
G01 X-58.0199 Y60.4644 
G01 X-58.1665 Y60.4037 
G01 X-58.2574 Y60.3430 
G01 X-60.0545 Y60.3430 
G01 X-67.2920 Y67.5805 
G01 X-67.2920 Y72.2450 
G01 X-66.6462 Y72.2450 
G01 X-66.5929 Y72.2671 
G01 X-66.5521 Y72.3079 
G00 Z1.0000 
G00 X-70.9971 Y72.3079 
G01 Z-0.1500 F50.00 
G01 X-70.9750 Y72.3612 F75.00 
G01 X-70.9750 Y77.4988 
G01 X-70.9971 Y77.5521 
G01 X-71.0379 Y77.5929 
G01 X-71.0912 Y77.6150 
G01 X-73.6888 Y77.6150 
G01 X-73.7421 Y77.5929 
G01 X-73.7829 Y77.5521 
G01 X-73.8050 Y77.4988 
G01 X-73.8050 Y72.3612 
G01 X-73.7829 Y72.3079 
G01 X-73.7421 Y72.2671 
G01 X-73.6888 Y72.2450 
G01 X-73.0430 Y72.2450 
G01 X-73.0430 Y69.1507 
G01 X-73.0179 Y69.0245 
G01 X-72.9687 Y68.9057 
G01 X-72.8972 Y68.7987 
G01 X-72.8063 Y68.7078 
G01 X-60.7413 Y56.6428 
G01 X-60.6343 Y56.5713 
G01 X-60.5155 Y56.5221 
G01 X-60.3893 Y56.4970 
G01 X-58.2574 Y56.4970 
G01 X-58.1665 Y56.4363 
G01 X-58.0199 Y56.3755 
G01 X-57.8643 Y56.3446 
G01 X-57.7057 Y56.3446 
G01 X-57.5501 Y56.3755 
G01 X-57.4035 Y56.4363 
G01 X-57.2716 Y56.5244 
G01 X-57.1594 Y56.6366 
G01 X-57.0713 Y56.7685 
G01 X-57.0106 Y56.9151 
G01 X-56.9796 Y57.0707 
G01 X-56.9796 Y57.2293 
G01 X-57.0106 Y57.3849 
G01 X-57.0713 Y57.5315 
G01 X-57.1594 Y57.6634 
G01 X-57.2716 Y57.7756 
G01 X-57.4035 Y57.8637 
G01 X-57.5501 Y57.9244 
G01 X-57.7057 Y57.9554 
G01 X-57.8643 Y57.9554 
G01 X-58.0199 Y57.9244 
G01 X-58.1665 Y57.8637 
G01 X-58.2574 Y57.8030 
G01 X-60.0545 Y57.8030 
G01 X-71.7370 Y69.4855 
G01 X-71.7370 Y72.2450 
G01 X-71.0912 Y72.2450 
G01 X-71.0379 Y72.2671 
G01 X-70.9971 Y72.3079 
G00 Z1.0000 
G00 X-75.4421 Y72.3079 
G01 Z-0.1500 F50.00 
G01 X-75.4200 Y72.3612 F75.00 
G01 X-75.4200 Y77.4988 
G01 X-75.4421 Y77.5521 
G01 X-75.4829 Y77.5929 
G01 X-75.5362 Y77.6150 
G01 X-78.1338 Y77.6150 
G01 X-78.1871 Y77.5929 
G01 X-78.2279 Y77.5521 
G01 X-78.2500 Y77.4988 
G01 X-78.2500 Y72.3612 
G01 X-78.2279 Y72.3079 
G01 X-78.1871 Y72.2671 
G01 X-78.1338 Y72.2450 
G01 X-77.4880 Y72.2450 
G01 X-77.4880 Y71.0557 
G01 X-77.4629 Y70.9295 
G01 X-77.4137 Y70.8107 
G01 X-77.3422 Y70.7037 
G01 X-77.2513 Y70.6128 
G01 X-60.7413 Y54.1028 
G01 X-60.6343 Y54.0313 
G01 X-60.5155 Y53.9821 
G01 X-60.3893 Y53.9570 
G01 X-58.2574 Y53.9570 
G01 X-58.1665 Y53.8963 
G01 X-58.0199 Y53.8355 
G01 X-57.8643 Y53.8046 
G01 X-57.7057 Y53.8046 
G01 X-57.5501 Y53.8355 
G01 X-57.4035 Y53.8963 
G01 X-57.2716 Y53.9844 
G01 X-57.1594 Y54.0966 
G01 X-57.0713 Y54.2285 
G01 X-57.0106 Y54.3751 
G01 X-56.9796 Y54.5307 
G01 X-56.9796 Y54.6893 
G01 X-57.0106 Y54.8449 
G01 X-57.0713 Y54.9915 
G01 X-57.1594 Y55.1234 
G01 X-57.2716 Y55.2356 
G01 X-57.4035 Y55.3237 
G01 X-57.5501 Y55.3844 
G01 X-57.7057 Y55.4154 
G01 X-57.8643 Y55.4154 
G01 X-58.0199 Y55.3844 
G01 X-58.1665 Y55.3237 
G01 X-58.2574 Y55.2630 
G01 X-60.0545 Y55.2630 
G01 X-76.1820 Y71.3905 
G01 X-76.1820 Y72.2450 
G01 X-75.5362 Y72.2450 
G01 X-75.4829 Y72.2671 
G01 X-75.4421 Y72.3079 
G00 Z1.0000 
G00 X-79.8650 Y72.5335 
G01 Z-0.1500 F50.00 
G01 X-79.8650 Y77.4988 F75.00 
G01 X-79.8871 Y77.5521 
G01 X-79.9279 Y77.5929 
G01 X-79.9812 Y77.6150 
G01 X-82.5788 Y77.6150 
G01 X-82.6321 Y77.5929 
G01 X-82.6729 Y77.5521 
G01 X-82.6950 Y77.4988 
G01 X-82.6950 Y72.3612 
G01 X-82.6729 Y72.3079 
G01 X-82.6321 Y72.2671 
G01 X-82.5788 Y72.2450 
G01 X-81.4235 Y72.2450 
G01 X-60.7413 Y51.5628 
G01 X-60.6343 Y51.4913 
G01 X-60.5155 Y51.4421 
G01 X-60.3893 Y51.4170 
G01 X-58.2574 Y51.4170 
G01 X-58.1665 Y51.3563 
G01 X-58.0199 Y51.2955 
G01 X-57.8643 Y51.2646 
G01 X-57.7057 Y51.2646 
G01 X-57.5501 Y51.2955 
G01 X-57.4035 Y51.3563 
G01 X-57.2716 Y51.4444 
G01 X-57.1594 Y51.5566 
G01 X-57.0713 Y51.6885 
G01 X-57.0106 Y51.8351 
G01 X-56.9796 Y51.9907 
G01 X-56.9796 Y52.1493 
G01 X-57.0106 Y52.3049 
G01 X-57.0713 Y52.4515 
G01 X-57.1594 Y52.5834 
G01 X-57.2716 Y52.6956 
G01 X-57.4035 Y52.7837 
G01 X-57.5501 Y52.8444 
G01 X-57.7057 Y52.8754 
G01 X-57.8643 Y52.8754 
G01 X-58.0199 Y52.8444 
G01 X-58.1665 Y52.7837 
G01 X-58.2574 Y52.7230 
G01 X-60.0545 Y52.7230 
G01 X-79.8650 Y72.5335 
G00 Z1.0000 
G00 X-84.3100 Y72.5335 
G01 Z-0.1500 F50.00 
G01 X-84.3100 Y77.4988 F75.00 
G01 X-84.3321 Y77.5521 
G01 X-84.3729 Y77.5929 
G01 X-84.4262 Y77.6150 
G01 X-87.0238 Y77.6150 
G01 X-87.0771 Y77.5929 
G01 X-87.1179 Y77.5521 
G01 X-87.1400 Y77.4988 
G01 X-87.1400 Y72.3612 
G01 X-87.1179 Y72.3079 
G01 X-87.0771 Y72.2671 
G01 X-87.0238 Y72.2450 
G01 X-85.8685 Y72.2450 
G01 X-62.6463 Y49.0228 
G01 X-62.5393 Y48.9513 
G01 X-62.4205 Y48.9021 
G01 X-62.2943 Y48.8770 
G01 X-58.2574 Y48.8770 
G01 X-58.1665 Y48.8163 
G01 X-58.0199 Y48.7555 
G01 X-57.8643 Y48.7246 
G01 X-57.7057 Y48.7246 
G01 X-57.5501 Y48.7555 
G01 X-57.4035 Y48.8163 
G01 X-57.2716 Y48.9044 
G01 X-57.1594 Y49.0166 
G01 X-57.0713 Y49.1485 
G01 X-57.0106 Y49.2951 
G01 X-56.9796 Y49.4507 
G01 X-56.9796 Y49.6093 
G01 X-57.0106 Y49.7649 
G01 X-57.0713 Y49.9115 
G01 X-57.1594 Y50.0434 
G01 X-57.2716 Y50.1556 
G01 X-57.4035 Y50.2437 
G01 X-57.5501 Y50.3044 
G01 X-57.7057 Y50.3354 
G01 X-57.8643 Y50.3354 
G01 X-58.0199 Y50.3044 
G01 X-58.1665 Y50.2437 
G01 X-58.2574 Y50.1830 
G01 X-61.9595 Y50.1830 
G01 X-84.3100 Y72.5335 
G00 Z1.0000 
G00 X-90.9991 Y70.9709 
G01 Z-0.1500 F50.00 
G01 X-91.0122 Y70.9807 F75.00 
G01 X-92.5650 Y72.5335 
G01 X-92.5650 Y73.6888 
G01 X-92.5871 Y73.7421 
G01 X-92.6279 Y73.7829 
G01 X-92.6812 Y73.8050 
G01 X-97.8188 Y73.8050 
G01 X-97.8721 Y73.7829 
G01 X-97.9129 Y73.7421 
G01 X-97.9350 Y73.6888 
G01 X-97.9350 Y71.0912 
G01 X-97.9129 Y71.0379 
G01 X-97.8721 Y70.9971 
G01 X-97.8188 Y70.9750 
G01 X-92.8535 Y70.9750 
G01 X-91.9132 Y70.0347 
G01 X-61.6370 Y36.5933 
G01 X-61.6370 Y22.4465 
G01 X-69.4273 Y14.6562 
G01 X-69.4685 Y14.6837 
G01 X-69.6151 Y14.7444 
G01 X-69.7707 Y14.7754 
G01 X-69.9293 Y14.7754 
G01 X-70.0849 Y14.7444 
G01 X-70.2315 Y14.6837 
G01 X-70.3634 Y14.5956 
G01 X-70.4756 Y14.4834 
G01 X-70.5637 Y14.3515 
G01 X-70.6244 Y14.2049 
G01 X-70.6554 Y14.0493 
G01 X-70.6554 Y13.8907 
G01 X-70.6244 Y13.7351 
G01 X-70.5637 Y13.5885 
G01 X-70.4756 Y13.4566 
G01 X-70.3634 Y13.3444 
G01 X-70.2315 Y13.2563 
G01 X-70.0849 Y13.1956 
G01 X-69.9293 Y13.1646 
G01 X-69.7707 Y13.1646 
G01 X-69.6151 Y13.1956 
G01 X-69.5149 Y13.2370 
G01 X-69.4908 Y13.2322 
G01 X-69.4265 Y13.2194 
G01 X-69.3650 Y13.2071 
G01 X-69.2994 Y13.2070 
G01 X-69.2364 Y13.2069 
G01 X-69.1715 Y13.2198 
G01 X-69.1102 Y13.2319 
G01 X-69.0492 Y13.2571 
G01 X-68.9913 Y13.2810 
G01 X-68.9367 Y13.3174 
G01 X-68.8843 Y13.3523 
G01 X-68.8381 Y13.3984 
G01 X-68.7932 Y13.4432 
G01 X-60.5677 Y21.6688 
G01 X-60.4768 Y21.7597 
G01 X-60.4053 Y21.8667 
G01 X-60.3561 Y21.9855 
G01 X-60.3310 Y22.1117 
G01 X-60.3310 Y36.8288 
G01 X-60.3286 Y36.8768 
G01 X-60.3310 Y36.8930 
G01 X-60.3310 Y36.9093 
G01 X-60.3404 Y36.9565 
G01 X-60.3474 Y37.0041 
G01 X-60.3529 Y37.0194 
G01 X-60.3561 Y37.0355 
G01 X-60.3745 Y37.0799 
G01 X-60.3907 Y37.1252 
G01 X-60.3991 Y37.1392 
G01 X-60.4053 Y37.1543 
G01 X-60.4320 Y37.1943 
G01 X-60.4568 Y37.2356 
G01 X-60.4677 Y37.2477 
G01 X-60.4768 Y37.2613 
G01 X-60.5108 Y37.2953 
G01 X-90.9237 Y70.8877 
G01 X-90.9328 Y70.9013 
G01 X-90.9668 Y70.9353 
G01 X-90.9991 Y70.9709 
G00 Z1.0000 
G00 X-92.6279 Y68.7029 
G01 Z-0.1500 F50.00 
G01 X-92.6812 Y68.7250 F75.00 
G01 X-97.8188 Y68.7250 
G01 X-97.8721 Y68.7029 
G01 X-97.9129 Y68.6621 
G01 X-97.9350 Y68.6088 
G01 X-97.9350 Y66.0112 
G01 X-97.9129 Y65.9579 
G01 X-97.8721 Y65.9171 
G01 X-97.8188 Y65.8950 
G01 X-93.8455 Y65.8950 
G01 X-63.0230 Y35.0725 
G01 X-63.0230 Y23.8325 
G01 X-69.5839 Y17.2715 
G01 X-69.6151 Y17.2844 
G01 X-69.7707 Y17.3154 
G01 X-69.9293 Y17.3154 
G01 X-70.0849 Y17.2844 
G01 X-70.2315 Y17.2237 
G01 X-70.3634 Y17.1356 
G01 X-70.4756 Y17.0234 
G01 X-70.5637 Y16.8915 
G01 X-70.6244 Y16.7449 
G01 X-70.6554 Y16.5893 
G01 X-70.6554 Y16.4307 
G01 X-70.6244 Y16.2751 
G01 X-70.5637 Y16.1285 
G01 X-70.4756 Y15.9966 
G01 X-70.3634 Y15.8844 
G01 X-70.2315 Y15.7963 
G01 X-70.0849 Y15.7355 
G01 X-69.9293 Y15.7046 
G01 X-69.7707 Y15.7046 
G01 X-69.6151 Y15.7355 
G01 X-69.4685 Y15.7963 
G01 X-69.3366 Y15.8844 
G01 X-69.2459 Y15.9751 
G01 X-69.1656 Y15.9929 
G01 X-69.1095 Y16.0041 
G01 X-69.1029 Y16.0069 
G01 X-69.0958 Y16.0084 
G01 X-69.0434 Y16.0315 
G01 X-68.9907 Y16.0533 
G01 X-68.9847 Y16.0573 
G01 X-68.9781 Y16.0602 
G01 X-68.9312 Y16.0931 
G01 X-68.8837 Y16.1248 
G01 X-68.8786 Y16.1299 
G01 X-68.8727 Y16.1340 
G01 X-68.8332 Y16.1753 
G01 X-61.9537 Y23.0548 
G01 X-61.8628 Y23.1457 
G01 X-61.7913 Y23.2527 
G01 X-61.7421 Y23.3715 
G01 X-61.7170 Y23.4977 
G01 X-61.7170 Y35.4073 
G01 X-61.7421 Y35.5335 
G01 X-61.7913 Y35.6523 
G01 X-61.8628 Y35.7593 
G01 X-92.5650 Y66.4615 
G01 X-92.5650 Y68.6088 
G01 X-92.5871 Y68.6621 
G01 X-92.6279 Y68.7029 
G00 Z1.0000 
G00 X-92.6279 Y63.6229 
G01 Z-0.1500 F50.00 
G01 X-92.6812 Y63.6450 F75.00 
G01 X-97.8188 Y63.6450 
G01 X-97.8721 Y63.6229 
G01 X-97.9129 Y63.5821 
G01 X-97.9350 Y63.5288 
G01 X-97.9350 Y60.9312 
G01 X-97.9129 Y60.8779 
G01 X-97.8721 Y60.8371 
G01 X-97.8188 Y60.8150 
G01 X-92.6812 Y60.8150 
G01 X-92.6279 Y60.8371 
G01 X-92.5871 Y60.8779 
G01 X-92.5650 Y60.9312 
G01 X-92.5650 Y61.0240 
G01 X-91.0535 Y61.0240 
G01 X-64.4090 Y34.3795 
G01 X-64.4090 Y25.2185 
G01 X-69.7123 Y19.9152 
G01 X-69.8052 Y19.8554 
G01 X-69.9293 Y19.8554 
G01 X-70.0849 Y19.8244 
G01 X-70.2315 Y19.7637 
G01 X-70.3634 Y19.6756 
G01 X-70.4756 Y19.5634 
G01 X-70.5637 Y19.4315 
G01 X-70.6244 Y19.2849 
G01 X-70.6554 Y19.1293 
G01 X-70.6554 Y18.9707 
G01 X-70.6244 Y18.8151 
G01 X-70.5637 Y18.6685 
G01 X-70.4756 Y18.5366 
G01 X-70.3634 Y18.4244 
G01 X-70.2315 Y18.3363 
G01 X-70.0849 Y18.2755 
G01 X-69.9293 Y18.2446 
G01 X-69.7707 Y18.2446 
G01 X-69.6151 Y18.2755 
G01 X-69.4685 Y18.3363 
G01 X-69.3366 Y18.4244 
G01 X-69.2244 Y18.5366 
G01 X-69.1363 Y18.6685 
G01 X-69.0999 Y18.7562 
G01 X-68.9959 Y18.8232 
G01 X-68.9907 Y18.8253 
G01 X-68.9419 Y18.8579 
G01 X-68.8925 Y18.8897 
G01 X-68.8884 Y18.8936 
G01 X-68.8837 Y18.8968 
G01 X-68.8422 Y18.9383 
G01 X-68.8000 Y18.9791 
G01 X-68.7968 Y18.9837 
G01 X-63.3397 Y24.4408 
G01 X-63.2488 Y24.5317 
G01 X-63.1773 Y24.6387 
G01 X-63.1281 Y24.7575 
G01 X-63.1030 Y24.8837 
G01 X-63.1030 Y34.7143 
G01 X-63.1281 Y34.8405 
G01 X-63.1773 Y34.9593 
G01 X-63.2488 Y35.0663 
G01 X-90.2758 Y62.0933 
G01 X-90.3667 Y62.1842 
G01 X-90.4737 Y62.2557 
G01 X-90.5925 Y62.3049 
G01 X-90.7187 Y62.3300 
G01 X-92.5650 Y62.3300 
G01 X-92.5650 Y63.5288 
G01 X-92.5871 Y63.5821 
G01 X-92.6279 Y63.6229 
G00 Z1.0000 
G00 X-92.6279 Y58.5429 
G01 Z-0.1500 F50.00 
G01 X-92.6812 Y58.5650 F75.00 
G01 X-97.8188 Y58.5650 
G01 X-97.8721 Y58.5429 
G01 X-97.9129 Y58.5021 
G01 X-97.9350 Y58.4488 
G01 X-97.9350 Y55.8512 
G01 X-97.9129 Y55.7979 
G01 X-97.8721 Y55.7571 
G01 X-97.8188 Y55.7350 
G01 X-92.6812 Y55.7350 
G01 X-92.6279 Y55.7571 
G01 X-92.5871 Y55.7979 
G01 X-92.5650 Y55.8512 
G01 X-92.5650 Y56.1730 
G01 X-88.2815 Y56.1730 
G01 X-65.7950 Y33.6865 
G01 X-65.7950 Y25.9115 
G01 X-69.4291 Y22.2774 
G01 X-69.4685 Y22.3037 
G01 X-69.6151 Y22.3644 
G01 X-69.7707 Y22.3954 
G01 X-69.9293 Y22.3954 
G01 X-70.0849 Y22.3644 
G01 X-70.2315 Y22.3037 
G01 X-70.3634 Y22.2156 
G01 X-70.4756 Y22.1034 
G01 X-70.5637 Y21.9715 
G01 X-70.6244 Y21.8249 
G01 X-70.6554 Y21.6693 
G01 X-70.6554 Y21.5107 
G01 X-70.6244 Y21.3551 
G01 X-70.5637 Y21.2085 
G01 X-70.4756 Y21.0766 
G01 X-70.3634 Y20.9644 
G01 X-70.2315 Y20.8763 
G01 X-70.0849 Y20.8156 
G01 X-69.9293 Y20.7846 
G01 X-69.7707 Y20.7846 
G01 X-69.6151 Y20.8156 
G01 X-69.5108 Y20.8588 
G01 X-69.4259 Y20.8422 
G01 X-69.3643 Y20.8300 
G01 X-69.3616 Y20.8297 
G01 X-69.2983 Y20.8300 
G01 X-69.2357 Y20.8300 
G01 X-69.2329 Y20.8303 
G01 X-69.1711 Y20.8428 
G01 X-69.1095 Y20.8551 
G01 X-69.1069 Y20.8559 
G01 X-69.0489 Y20.8802 
G01 X-68.9907 Y20.9043 
G01 X-68.9360 Y20.9409 
G01 X-68.8837 Y20.9758 
G01 X-68.8372 Y21.0223 
G01 X-64.7257 Y25.1338 
G01 X-64.6348 Y25.2247 
G01 X-64.5633 Y25.3317 
G01 X-64.5141 Y25.4505 
G01 X-64.4890 Y25.5767 
G01 X-64.4890 Y34.0213 
G01 X-64.5141 Y34.1475 
G01 X-64.5633 Y34.2663 
G01 X-64.6348 Y34.3733 
G01 X-87.5038 Y57.2423 
G01 X-87.5947 Y57.3332 
G01 X-87.7017 Y57.4047 
G01 X-87.8205 Y57.4539 
G01 X-87.9467 Y57.4790 
G01 X-92.5650 Y57.4790 
G01 X-92.5650 Y58.4488 
G01 X-92.5871 Y58.5021 
G01 X-92.6279 Y58.5429 
G00 Z1.0000 
G00 X-92.6279 Y53.4629 
G01 Z-0.1500 F50.00 
G01 X-92.6812 Y53.4850 F75.00 
G01 X-97.8188 Y53.4850 
G01 X-97.8721 Y53.4629 
G01 X-97.9129 Y53.4221 
G01 X-97.9350 Y53.3688 
G01 X-97.9350 Y50.7712 
G01 X-97.9129 Y50.7179 
G01 X-97.8721 Y50.6771 
G01 X-97.8188 Y50.6550 
G01 X-92.6812 Y50.6550 
G01 X-92.6279 Y50.6771 
G01 X-92.5871 Y50.7179 
G01 X-92.5650 Y50.7712 
G01 X-92.5650 Y51.3220 
G01 X-85.5095 Y51.3220 
G01 X-67.1810 Y32.9935 
G01 X-67.1810 Y27.2975 
G01 X-69.5861 Y24.8924 
G01 X-69.6151 Y24.9044 
G01 X-69.7707 Y24.9354 
G01 X-69.9293 Y24.9354 
G01 X-70.0849 Y24.9044 
G01 X-70.2315 Y24.8437 
G01 X-70.3634 Y24.7556 
G01 X-70.4756 Y24.6434 
G01 X-70.5637 Y24.5115 
G01 X-70.6244 Y24.3649 
G01 X-70.6554 Y24.2093 
G01 X-70.6554 Y24.0507 
G01 X-70.6244 Y23.8951 
G01 X-70.5637 Y23.7485 
G01 X-70.4756 Y23.6166 
G01 X-70.3634 Y23.5044 
G01 X-70.2315 Y23.4163 
G01 X-70.0849 Y23.3556 
G01 X-69.9293 Y23.3246 
G01 X-69.7707 Y23.3246 
G01 X-69.6151 Y23.3556 
G01 X-69.4685 Y23.4163 
G01 X-69.3366 Y23.5044 
G01 X-69.2426 Y23.5984 
G01 X-69.1639 Y23.6163 
G01 X-69.1095 Y23.6271 
G01 X-69.1013 Y23.6305 
G01 X-69.0926 Y23.6325 
G01 X-69.0419 Y23.6551 
G01 X-68.9907 Y23.6763 
G01 X-68.9833 Y23.6813 
G01 X-68.9751 Y23.6849 
G01 X-68.9299 Y23.7169 
G01 X-68.8837 Y23.7478 
G01 X-68.8774 Y23.7541 
G01 X-68.8701 Y23.7593 
G01 X-68.8321 Y23.7995 
G01 X-66.1117 Y26.5198 
G01 X-66.0208 Y26.6107 
G01 X-65.9493 Y26.7177 
G01 X-65.9001 Y26.8365 
G01 X-65.8750 Y26.9627 
G01 X-65.8750 Y33.3283 
G01 X-65.9001 Y33.4545 
G01 X-65.9493 Y33.5733 
G01 X-66.0208 Y33.6803 
G01 X-66.1117 Y33.7712 
G01 X-84.7318 Y52.3913 
G01 X-84.8227 Y52.4822 
G01 X-84.9297 Y52.5537 
G01 X-85.0485 Y52.6029 
G01 X-85.1747 Y52.6280 
G01 X-92.5650 Y52.6280 
G01 X-92.5650 Y53.3688 
G01 X-92.5871 Y53.4221 
G01 X-92.6279 Y53.4629 
G00 Z1.0000 
G00 X-92.6279 Y48.3829 
G01 Z-0.1500 F50.00 
G01 X-92.6812 Y48.4050 F75.00 
G01 X-97.8188 Y48.4050 
G01 X-97.8721 Y48.3829 
G01 X-97.9129 Y48.3421 
G01 X-97.9350 Y48.2888 
G01 X-97.9350 Y45.6912 
G01 X-97.9129 Y45.6379 
G01 X-97.8721 Y45.5971 
G01 X-97.8188 Y45.5750 
G01 X-92.6812 Y45.5750 
G01 X-92.6279 Y45.5971 
G01 X-92.5871 Y45.6379 
G01 X-92.5650 Y45.6912 
G01 X-92.5650 Y45.7780 
G01 X-82.0445 Y45.7780 
G01 X-68.5670 Y32.3005 
G01 X-68.5670 Y28.6835 
G01 X-69.7132 Y27.5373 
G01 X-69.8086 Y27.4754 
G01 X-69.9293 Y27.4754 
G01 X-70.0849 Y27.4444 
G01 X-70.2315 Y27.3837 
G01 X-70.3634 Y27.2956 
G01 X-70.4756 Y27.1834 
G01 X-70.5637 Y27.0515 
G01 X-70.6244 Y26.9049 
G01 X-70.6554 Y26.7493 
G01 X-70.6554 Y26.5907 
G01 X-70.6244 Y26.4351 
G01 X-70.5637 Y26.2885 
G01 X-70.4756 Y26.1566 
G01 X-70.3634 Y26.0444 
G01 X-70.2315 Y25.9563 
G01 X-70.0849 Y25.8956 
G01 X-69.9293 Y25.8646 
G01 X-69.7707 Y25.8646 
G01 X-69.6151 Y25.8956 
G01 X-69.4685 Y25.9563 
G01 X-69.3366 Y26.0444 
G01 X-69.2244 Y26.1566 
G01 X-69.1363 Y26.2885 
G01 X-69.0987 Y26.3792 
G01 X-68.9947 Y26.4466 
G01 X-68.9907 Y26.4483 
G01 X-68.9408 Y26.4816 
G01 X-68.8905 Y26.5143 
G01 X-68.8874 Y26.5173 
G01 X-68.8837 Y26.5198 
G01 X-68.8413 Y26.5622 
G01 X-68.7984 Y26.6040 
G01 X-68.7959 Y26.6076 
G01 X-67.4977 Y27.9058 
G01 X-67.4068 Y27.9967 
G01 X-67.3353 Y28.1037 
G01 X-67.2861 Y28.2225 
G01 X-67.2610 Y28.3487 
G01 X-67.2610 Y32.6353 
G01 X-67.2861 Y32.7615 
G01 X-67.3353 Y32.8803 
G01 X-67.4068 Y32.9873 
G01 X-81.2668 Y46.8473 
G01 X-81.3577 Y46.9382 
G01 X-81.4647 Y47.0097 
G01 X-81.5835 Y47.0589 
G01 X-81.7097 Y47.0840 
G01 X-92.5650 Y47.0840 
G01 X-92.5650 Y48.2888 
G01 X-92.5871 Y48.3421 
G01 X-92.6279 Y48.3829 
G00 Z1.0000 
G00 X-92.6279 Y43.3029 
G01 Z-0.1500 F50.00 
G01 X-92.6812 Y43.3250 F75.00 
G01 X-97.8188 Y43.3250 
G01 X-97.8721 Y43.3029 
G01 X-97.9129 Y43.2621 
G01 X-97.9350 Y43.2088 
G01 X-97.9350 Y40.6112 
G01 X-97.9129 Y40.5579 
G01 X-97.8721 Y40.5171 
G01 X-97.8188 Y40.4950 
G01 X-92.6812 Y40.4950 
G01 X-92.6279 Y40.5171 
G01 X-92.5871 Y40.5579 
G01 X-92.5650 Y40.6112 
G01 X-92.5650 Y40.9270 
G01 X-92.4395 Y40.9270 
G01 X-80.8043 Y29.2918 
G01 X-80.6973 Y29.2203 
G01 X-80.5785 Y29.1711 
G01 X-80.4523 Y29.1460 
G01 X-70.6554 Y29.1460 
G01 X-70.6554 Y29.1307 
G01 X-70.6244 Y28.9751 
G01 X-70.5637 Y28.8285 
G01 X-70.4756 Y28.6966 
G01 X-70.3634 Y28.5844 
G01 X-70.2315 Y28.4963 
G01 X-70.0849 Y28.4355 
G01 X-69.9293 Y28.4046 
G01 X-69.7707 Y28.4046 
G01 X-69.6151 Y28.4355 
G01 X-69.4685 Y28.4963 
G01 X-69.3366 Y28.5844 
G01 X-69.2244 Y28.6966 
G01 X-69.1363 Y28.8285 
G01 X-69.0756 Y28.9751 
G01 X-69.0446 Y29.1307 
G01 X-69.0446 Y29.2893 
G01 X-69.0756 Y29.4449 
G01 X-69.1363 Y29.5915 
G01 X-69.2244 Y29.7234 
G01 X-69.3278 Y29.8268 
G01 X-69.3552 Y29.9397 
G01 X-69.3651 Y29.9895 
G01 X-69.3704 Y30.0022 
G01 X-69.3736 Y30.0156 
G01 X-69.3949 Y30.0615 
G01 X-69.4143 Y30.1083 
G01 X-69.4220 Y30.1198 
G01 X-69.4278 Y30.1322 
G01 X-69.4576 Y30.1731 
G01 X-69.4858 Y30.2153 
G01 X-69.4955 Y30.2250 
G01 X-69.5036 Y30.2361 
G01 X-69.5409 Y30.2704 
G01 X-69.5767 Y30.3062 
G01 X-69.5882 Y30.3139 
G01 X-69.5983 Y30.3232 
G01 X-69.6416 Y30.3495 
G01 X-69.6837 Y30.3777 
G01 X-69.6964 Y30.3829 
G01 X-69.7082 Y30.3901 
G01 X-69.7557 Y30.4075 
G01 X-69.8025 Y30.4269 
G01 X-69.8160 Y30.4296 
G01 X-69.8289 Y30.4343 
G01 X-69.8790 Y30.4421 
G01 X-69.9287 Y30.4520 
G01 X-69.9424 Y30.4520 
G01 X-69.9560 Y30.4541 
G01 X-70.0067 Y30.4520 
G01 X-80.1175 Y30.4520 
G01 X-91.6618 Y41.9963 
G01 X-91.7527 Y42.0872 
G01 X-91.8597 Y42.1587 
G01 X-91.9785 Y42.2079 
G01 X-92.1047 Y42.2330 
G01 X-92.5650 Y42.2330 
G01 X-92.5650 Y43.2088 
G01 X-92.5871 Y43.2621 
G01 X-92.6279 Y43.3029 
G00 Z1.0000 
G00 X-92.6279 Y38.2229 
G01 Z-0.1500 F50.00 
G01 X-92.6812 Y38.2450 F75.00 
G01 X-97.8188 Y38.2450 
G01 X-97.8721 Y38.2229 
G01 X-97.9129 Y38.1821 
G01 X-97.9350 Y38.1288 
G01 X-97.9350 Y35.5312 
G01 X-97.9129 Y35.4779 
G01 X-97.8721 Y35.4371 
G01 X-97.8188 Y35.4150 
G01 X-94.5505 Y35.4150 
G01 X-88.4273 Y29.2918 
G01 X-88.3203 Y29.2203 
G01 X-88.2015 Y29.1711 
G01 X-88.0753 Y29.1460 
G01 X-85.8954 Y29.1460 
G01 X-85.8954 Y29.1307 
G01 X-85.8644 Y28.9751 
G01 X-85.8037 Y28.8285 
G01 X-85.7156 Y28.6966 
G01 X-85.6034 Y28.5844 
G01 X-85.4715 Y28.4963 
G01 X-85.3249 Y28.4355 
G01 X-85.1693 Y28.4046 
G01 X-85.0107 Y28.4046 
G01 X-84.8551 Y28.4355 
G01 X-84.7085 Y28.4963 
G01 X-84.5766 Y28.5844 
G01 X-84.4644 Y28.6966 
G01 X-84.3763 Y28.8285 
G01 X-84.3156 Y28.9751 
G01 X-84.2846 Y29.1307 
G01 X-84.2846 Y29.2893 
G01 X-84.3156 Y29.4449 
G01 X-84.3763 Y29.5915 
G01 X-84.4644 Y29.7234 
G01 X-84.5740 Y29.8331 
G01 X-84.6018 Y29.9428 
G01 X-84.6111 Y29.9895 
G01 X-84.6176 Y30.0051 
G01 X-84.6217 Y30.0215 
G01 X-84.6421 Y30.0644 
G01 X-84.6603 Y30.1083 
G01 X-84.6697 Y30.1224 
G01 X-84.6770 Y30.1376 
G01 X-84.7054 Y30.1758 
G01 X-84.7318 Y30.2153 
G01 X-84.7437 Y30.2272 
G01 X-84.7538 Y30.2408 
G01 X-84.7891 Y30.2726 
G01 X-84.8227 Y30.3062 
G01 X-84.8368 Y30.3156 
G01 X-84.8494 Y30.3269 
G01 X-84.8902 Y30.3513 
G01 X-84.9297 Y30.3777 
G01 X-84.9453 Y30.3841 
G01 X-84.9598 Y30.3928 
G01 X-85.0046 Y30.4087 
G01 X-85.0485 Y30.4269 
G01 X-85.0651 Y30.4302 
G01 X-85.0811 Y30.4359 
G01 X-85.1281 Y30.4427 
G01 X-85.1747 Y30.4520 
G01 X-85.1916 Y30.4520 
G01 X-85.2083 Y30.4544 
G01 X-85.2558 Y30.4520 
G01 X-87.7405 Y30.4520 
G01 X-92.7035 Y35.4150 
G01 X-92.6812 Y35.4150 
G01 X-92.6279 Y35.4371 
G01 X-92.5871 Y35.4779 
G01 X-92.5650 Y35.5312 
G01 X-92.5650 Y38.1288 
G01 X-92.5871 Y38.1821 
G01 X-92.6279 Y38.2229 
G00 Z1.0000 
G00 X-92.6279 Y33.1429 
G01 Z-0.1500 F50.00 
G01 X-92.6812 Y33.1650 F75.00 
G01 X-97.8188 Y33.1650 
G01 X-97.8721 Y33.1429 
G01 X-97.9129 Y33.1021 
G01 X-97.9350 Y33.0488 
G01 X-97.9350 Y30.4512 
G01 X-97.9129 Y30.3979 
G01 X-97.8721 Y30.3571 
G01 X-97.8188 Y30.3350 
G01 X-94.3215 Y30.3350 
G01 X-90.5063 Y26.5198 
G01 X-90.3993 Y26.4483 
G01 X-90.2805 Y26.3991 
G01 X-90.1543 Y26.3740 
G01 X-85.8392 Y26.3740 
G01 X-85.8037 Y26.2885 
G01 X-85.7156 Y26.1566 
G01 X-85.6034 Y26.0444 
G01 X-85.4715 Y25.9563 
G01 X-85.3249 Y25.8956 
G01 X-85.1693 Y25.8646 
G01 X-85.0107 Y25.8646 
G01 X-84.8551 Y25.8956 
G01 X-84.7085 Y25.9563 
G01 X-84.5766 Y26.0444 
G01 X-84.4644 Y26.1566 
G01 X-84.3763 Y26.2885 
G01 X-84.3156 Y26.4351 
G01 X-84.2846 Y26.5907 
G01 X-84.2846 Y26.7493 
G01 X-84.3156 Y26.9049 
G01 X-84.3763 Y27.0515 
G01 X-84.4644 Y27.1834 
G01 X-84.5766 Y27.2956 
G01 X-84.6785 Y27.3637 
G01 X-84.6963 Y27.3902 
G01 X-84.7318 Y27.4433 
G01 X-84.7776 Y27.4891 
G01 X-84.8227 Y27.5342 
G01 X-84.8774 Y27.5707 
G01 X-84.9297 Y27.6057 
G01 X-84.9903 Y27.6308 
G01 X-85.0485 Y27.6549 
G01 X-85.1127 Y27.6677 
G01 X-85.1747 Y27.6800 
G01 X-85.2402 Y27.6800 
G01 X-89.8195 Y27.6800 
G01 X-92.5725 Y30.4330 
G01 X-92.5650 Y30.4512 
G01 X-92.5650 Y33.0488 
G01 X-92.5871 Y33.1021 
G01 X-92.6279 Y33.1429 
G00 Z1.0000 
G00 X-92.6279 Y28.0629 
G01 Z-0.1500 F50.00 
G01 X-92.6812 Y28.0850 F75.00 
G01 X-97.8188 Y28.0850 
G01 X-97.8721 Y28.0629 
G01 X-97.9129 Y28.0221 
G01 X-97.9350 Y27.9688 
G01 X-97.9350 Y25.3712 
G01 X-97.9129 Y25.3179 
G01 X-97.8721 Y25.2771 
G01 X-97.8188 Y25.2550 
G01 X-94.7855 Y25.2550 
G01 X-93.2783 Y23.7478 
G01 X-93.1713 Y23.6763 
G01 X-93.0525 Y23.6271 
G01 X-92.9263 Y23.6020 
G01 X-85.7010 Y23.6020 
G01 X-85.6034 Y23.5044 
G01 X-85.4715 Y23.4163 
G01 X-85.3249 Y23.3556 
G01 X-85.1693 Y23.3246 
G01 X-85.0107 Y23.3246 
G01 X-84.8551 Y23.3556 
G01 X-84.7085 Y23.4163 
G01 X-84.5766 Y23.5044 
G01 X-84.4644 Y23.6166 
G01 X-84.3763 Y23.7485 
G01 X-84.3156 Y23.8951 
G01 X-84.2846 Y24.0507 
G01 X-84.2846 Y24.2093 
G01 X-84.3156 Y24.3649 
G01 X-84.3763 Y24.5115 
G01 X-84.4644 Y24.6434 
G01 X-84.5766 Y24.7556 
G01 X-84.7085 Y24.8437 
G01 X-84.8551 Y24.9044 
G01 X-85.0107 Y24.9354 
G01 X-85.1693 Y24.9354 
G01 X-85.3071 Y24.9080 
G01 X-92.5915 Y24.9080 
G01 X-92.9385 Y25.2550 
G01 X-92.6812 Y25.2550 
G01 X-92.6279 Y25.2771 
G01 X-92.5871 Y25.3179 
G01 X-92.5650 Y25.3712 
G01 X-92.5650 Y27.9688 
G01 X-92.5871 Y28.0221 
G01 X-92.6279 Y28.0629 
G00 Z1.0000 
G00 X-92.6279 Y22.9829 
G01 Z-0.1500 F50.00 
G01 X-92.6812 Y23.0050 F75.00 
G01 X-97.8188 Y23.0050 
G01 X-97.8721 Y22.9829 
G01 X-97.9129 Y22.9421 
G01 X-97.9350 Y22.8888 
G01 X-97.9350 Y20.2912 
G01 X-97.9129 Y20.2379 
G01 X-97.8721 Y20.1971 
G01 X-97.8188 Y20.1750 
G01 X-92.6812 Y20.1750 
G01 X-92.6279 Y20.1971 
G01 X-92.5871 Y20.2379 
G01 X-92.5650 Y20.2912 
G01 X-92.5650 Y20.8300 
G01 X-85.3598 Y20.8300 
G01 X-85.3249 Y20.8156 
G01 X-85.1693 Y20.7846 
G01 X-85.0107 Y20.7846 
G01 X-84.8551 Y20.8156 
G01 X-84.7085 Y20.8763 
G01 X-84.5766 Y20.9644 
G01 X-84.4644 Y21.0766 
G01 X-84.3763 Y21.2085 
G01 X-84.3156 Y21.3551 
G01 X-84.2846 Y21.5107 
G01 X-84.2846 Y21.6693 
G01 X-84.3156 Y21.8249 
G01 X-84.3763 Y21.9715 
G01 X-84.4644 Y22.1034 
G01 X-84.5766 Y22.2156 
G01 X-84.7085 Y22.3037 
G01 X-84.8551 Y22.3644 
G01 X-85.0107 Y22.3954 
G01 X-85.1693 Y22.3954 
G01 X-85.3249 Y22.3644 
G01 X-85.4715 Y22.3037 
G01 X-85.6034 Y22.2156 
G01 X-85.6830 Y22.1360 
G01 X-92.5650 Y22.1360 
G01 X-92.5650 Y22.8888 
G01 X-92.5871 Y22.9421 
G01 X-92.6279 Y22.9829 
G00 Z1.0000 
G00 X-92.9263 Y19.3640 
G01 Z-0.1500 F50.00 
G01 X-93.0525 Y19.3389 F75.00 
G01 X-93.1713 Y19.2897 
G01 X-93.2783 Y19.2182 
G01 X-94.5715 Y17.9250 
G01 X-97.8188 Y17.9250 
G01 X-97.8721 Y17.9029 
G01 X-97.9129 Y17.8621 
G01 X-97.9350 Y17.8088 
G01 X-97.9350 Y15.2112 
G01 X-97.9129 Y15.1579 
G01 X-97.8721 Y15.1171 
G01 X-97.8188 Y15.0950 
G01 X-92.6812 Y15.0950 
G01 X-92.6279 Y15.1171 
G01 X-92.5871 Y15.1579 
G01 X-92.5650 Y15.2112 
G01 X-92.5650 Y17.8088 
G01 X-92.5871 Y17.8621 
G01 X-92.6279 Y17.9029 
G01 X-92.6812 Y17.9250 
G01 X-92.7245 Y17.9250 
G01 X-92.5915 Y18.0580 
G01 X-85.2460 Y18.0580 
G01 X-85.1887 Y18.0568 
G01 X-85.1817 Y18.0580 
G01 X-85.1747 Y18.0580 
G01 X-85.1185 Y18.0692 
G01 X-85.0620 Y18.0792 
G01 X-85.0554 Y18.0817 
G01 X-85.0485 Y18.0831 
G01 X-84.9956 Y18.1050 
G01 X-84.9421 Y18.1258 
G01 X-84.9362 Y18.1296 
G01 X-84.9297 Y18.1323 
G01 X-84.8821 Y18.1641 
G01 X-84.8337 Y18.1950 
G01 X-84.8286 Y18.1999 
G01 X-84.8227 Y18.2038 
G01 X-84.7822 Y18.2443 
G01 X-84.7408 Y18.2840 
G01 X-84.7368 Y18.2897 
G01 X-84.7318 Y18.2947 
G01 X-84.7004 Y18.3417 
G01 X-84.5766 Y18.4244 
G01 X-84.4644 Y18.5366 
G01 X-84.3763 Y18.6685 
G01 X-84.3156 Y18.8151 
G01 X-84.2846 Y18.9707 
G01 X-84.2846 Y19.1293 
G01 X-84.3156 Y19.2849 
G01 X-84.3763 Y19.4315 
G01 X-84.4644 Y19.5634 
G01 X-84.5766 Y19.6756 
G01 X-84.7085 Y19.7637 
G01 X-84.8551 Y19.8244 
G01 X-85.0107 Y19.8554 
G01 X-85.1693 Y19.8554 
G01 X-85.3249 Y19.8244 
G01 X-85.4715 Y19.7637 
G01 X-85.6034 Y19.6756 
G01 X-85.7156 Y19.5634 
G01 X-85.8037 Y19.4315 
G01 X-85.8317 Y19.3640 
G01 X-92.9263 Y19.3640 
G00 Z1.0000 
G00 X-90.5063 Y16.4462 
G01 Z-0.1500 F50.00 
G01 X-94.1075 Y12.8450 F75.00 
G01 X-97.8188 Y12.8450 
G01 X-97.8721 Y12.8229 
G01 X-97.9129 Y12.7821 
G01 X-97.9350 Y12.7288 
G01 X-97.9350 Y10.1312 
G01 X-97.9129 Y10.0779 
G01 X-97.8721 Y10.0371 
G01 X-97.8188 Y10.0150 
G01 X-92.6812 Y10.0150 
G01 X-92.6279 Y10.0371 
G01 X-92.5871 Y10.0779 
G01 X-92.5650 Y10.1312 
G01 X-92.5650 Y12.5405 
G01 X-89.8195 Y15.2860 
G01 X-85.2582 Y15.2860 
G01 X-85.2132 Y15.2833 
G01 X-85.1941 Y15.2860 
G01 X-85.1747 Y15.2860 
G01 X-85.1305 Y15.2948 
G01 X-85.0858 Y15.3010 
G01 X-85.0675 Y15.3073 
G01 X-85.0485 Y15.3111 
G01 X-85.0069 Y15.3283 
G01 X-84.9643 Y15.3431 
G01 X-84.9476 Y15.3529 
G01 X-84.9297 Y15.3603 
G01 X-84.8922 Y15.3854 
G01 X-84.8533 Y15.4082 
G01 X-84.8389 Y15.4210 
G01 X-84.8227 Y15.4318 
G01 X-84.7908 Y15.4637 
G01 X-84.7572 Y15.4936 
G01 X-84.7455 Y15.5090 
G01 X-84.7318 Y15.5227 
G01 X-84.7067 Y15.5602 
G01 X-84.6795 Y15.5962 
G01 X-84.6711 Y15.6136 
G01 X-84.6603 Y15.6297 
G01 X-84.6431 Y15.6714 
G01 X-84.6234 Y15.7119 
G01 X-84.6185 Y15.7306 
G01 X-84.6111 Y15.7485 
G01 X-84.6023 Y15.7928 
G01 X-84.5788 Y15.8830 
G01 X-84.4644 Y15.9966 
G01 X-84.3763 Y16.1285 
G01 X-84.3156 Y16.2751 
G01 X-84.2846 Y16.4307 
G01 X-84.2846 Y16.5893 
G01 X-84.3156 Y16.7449 
G01 X-84.3763 Y16.8915 
G01 X-84.4644 Y17.0234 
G01 X-84.5766 Y17.1356 
G01 X-84.7085 Y17.2237 
G01 X-84.8551 Y17.2844 
G01 X-85.0107 Y17.3154 
G01 X-85.1693 Y17.3154 
G01 X-85.3249 Y17.2844 
G01 X-85.4715 Y17.2237 
G01 X-85.6034 Y17.1356 
G01 X-85.7156 Y17.0234 
G01 X-85.8037 Y16.8915 
G01 X-85.8644 Y16.7449 
G01 X-85.8949 Y16.5920 
G01 X-90.1543 Y16.5920 
G01 X-90.2805 Y16.5669 
G01 X-90.3993 Y16.5177 
G01 X-90.5063 Y16.4462 
G00 Z1.0000 
G00 X-87.7343 Y14.3672 
G01 Z-0.1500 F50.00 
G01 X-94.3365 Y7.7650 F75.00 
G01 X-97.8188 Y7.7650 
G01 X-97.8721 Y7.7429 
G01 X-97.9129 Y7.7021 
G01 X-97.9350 Y7.6488 
G01 X-97.9350 Y5.0512 
G01 X-97.9129 Y4.9979 
G01 X-97.8721 Y4.9571 
G01 X-97.8188 Y4.9350 
G01 X-92.6812 Y4.9350 
G01 X-92.6279 Y4.9571 
G01 X-92.5871 Y4.9979 
G01 X-92.5650 Y5.0512 
G01 X-92.5650 Y7.6488 
G01 X-92.5769 Y7.6776 
G01 X-87.0475 Y13.2070 
G01 X-85.3526 Y13.2070 
G01 X-85.3249 Y13.1956 
G01 X-85.1693 Y13.1646 
G01 X-85.0107 Y13.1646 
G01 X-84.8551 Y13.1956 
G01 X-84.7085 Y13.2563 
G01 X-84.5766 Y13.3444 
G01 X-84.4644 Y13.4566 
G01 X-84.3763 Y13.5885 
G01 X-84.3156 Y13.7351 
G01 X-84.2846 Y13.8907 
G01 X-84.2846 Y14.0493 
G01 X-84.3156 Y14.2049 
G01 X-84.3763 Y14.3515 
G01 X-84.4644 Y14.4834 
G01 X-84.5766 Y14.5956 
G01 X-84.7085 Y14.6837 
G01 X-84.8551 Y14.7444 
G01 X-85.0107 Y14.7754 
G01 X-85.1693 Y14.7754 
G01 X-85.3249 Y14.7444 
G01 X-85.4715 Y14.6837 
G01 X-85.6034 Y14.5956 
G01 X-85.6860 Y14.5130 
G01 X-87.3823 Y14.5130 
G01 X-87.5085 Y14.4879 
G01 X-87.6273 Y14.4387 
G01 X-87.7343 Y14.3672 
G00 Z1.0000 
G00 X-85.7156 Y11.9434 
G01 Z-0.1500 F50.00 
G01 X-85.8037 Y11.8115 F75.00 
G01 X-85.8644 Y11.6649 
G01 X-85.8954 Y11.5093 
G01 X-85.8954 Y11.3551 
G01 X-93.2955 Y3.9550 
G01 X-97.8188 Y3.9550 
G01 X-97.8721 Y3.9329 
G01 X-97.9129 Y3.8921 
G01 X-97.9350 Y3.8388 
G01 X-97.9350 Y1.2412 
G01 X-97.9129 Y1.1879 
G01 X-97.8721 Y1.1471 
G01 X-97.8188 Y1.1250 
G01 X-92.6812 Y1.1250 
G01 X-92.6279 Y1.1471 
G01 X-92.5871 Y1.1879 
G01 X-92.5650 Y1.2412 
G01 X-92.5650 Y2.8385 
G01 X-84.7814 Y10.6221 
G01 X-84.7394 Y10.6626 
G01 X-84.7360 Y10.6675 
G01 X-84.7318 Y10.6717 
G01 X-84.6993 Y10.7203 
G01 X-84.6966 Y10.7242 
G01 X-84.5766 Y10.8044 
G01 X-84.4644 Y10.9166 
G01 X-84.3763 Y11.0485 
G01 X-84.3156 Y11.1951 
G01 X-84.2846 Y11.3507 
G01 X-84.2846 Y11.5093 
G01 X-84.3156 Y11.6649 
G01 X-84.3763 Y11.8115 
G01 X-84.4644 Y11.9434 
G01 X-84.5766 Y12.0556 
G01 X-84.7085 Y12.1437 
G01 X-84.8551 Y12.2044 
G01 X-85.0107 Y12.2354 
G01 X-85.1693 Y12.2354 
G01 X-85.3249 Y12.2044 
G01 X-85.4715 Y12.1437 
G01 X-85.6034 Y12.0556 
G01 X-85.7156 Y11.9434 
G00 Z1.0000 
G00 X-85.7156 Y9.4034 
G01 Z-0.1500 F50.00 
G01 X-85.8037 Y9.2715 F75.00 
G01 X-85.8644 Y9.1249 
G01 X-85.8954 Y8.9693 
G01 X-85.8954 Y8.8107 
G01 X-85.8644 Y8.6551 
G01 X-85.8037 Y8.5085 
G01 X-85.7156 Y8.3766 
G01 X-85.6034 Y8.2644 
G01 X-85.4715 Y8.1763 
G01 X-85.3249 Y8.1156 
G01 X-85.1693 Y8.0846 
G01 X-85.0107 Y8.0846 
G01 X-84.8551 Y8.1156 
G01 X-84.8218 Y8.1293 
G01 X-84.0986 Y7.4062 
G01 X-84.0338 Y7.3414 
G01 X-83.9544 Y7.2955 
G01 X-83.8658 Y7.2718 
G01 X-69.1692 Y7.2718 
G01 X-69.0806 Y7.2955 
G01 X-69.0012 Y7.3414 
G01 X-67.8008 Y8.5418 
G01 X-29.9375 Y8.5418 
G01 X-29.9237 Y8.5085 
G01 X-29.8356 Y8.3766 
G01 X-29.7234 Y8.2644 
G01 X-29.5915 Y8.1763 
G01 X-29.4449 Y8.1156 
G01 X-29.2893 Y8.0846 
G01 X-29.1307 Y8.0846 
G01 X-28.9751 Y8.1156 
G01 X-28.8285 Y8.1763 
G01 X-28.6966 Y8.2644 
G01 X-28.5844 Y8.3766 
G01 X-28.4963 Y8.5085 
G01 X-28.4355 Y8.6551 
G01 X-28.4046 Y8.8107 
G01 X-28.4046 Y8.9693 
G01 X-28.4355 Y9.1249 
G01 X-28.4963 Y9.2715 
G01 X-28.5844 Y9.4034 
G01 X-28.6966 Y9.5156 
G01 X-28.8285 Y9.6037 
G01 X-28.9751 Y9.6644 
G01 X-29.1307 Y9.6954 
G01 X-29.2893 Y9.6954 
G01 X-29.4449 Y9.6644 
G01 X-29.5915 Y9.6037 
G01 X-29.7234 Y9.5156 
G01 X-29.8356 Y9.4034 
G01 X-29.9237 Y9.2715 
G01 X-29.9375 Y9.2382 
G01 X-67.9908 Y9.2382 
G01 X-68.0794 Y9.2145 
G01 X-68.1588 Y9.1686 
G01 X-68.2236 Y9.1038 
G01 X-69.3592 Y7.9682 
G01 X-83.6758 Y7.9682 
G01 X-84.3293 Y8.6218 
G01 X-84.3156 Y8.6551 
G01 X-84.2846 Y8.8107 
G01 X-84.2846 Y8.9693 
G01 X-84.3156 Y9.1249 
G01 X-84.3763 Y9.2715 
G01 X-84.4644 Y9.4034 
G01 X-84.5766 Y9.5156 
G01 X-84.7085 Y9.6037 
G01 X-84.8551 Y9.6644 
G01 X-85.0107 Y9.6954 
G01 X-85.1693 Y9.6954 
G01 X-85.3249 Y9.6644 
G01 X-85.4715 Y9.6037 
G01 X-85.6034 Y9.5156 
G01 X-85.7156 Y9.4034 
G00 Z1.0000 
G00 X-85.7156 Y6.8634 
G01 Z-0.1500 F50.00 
G01 X-85.8037 Y6.7315 F75.00 
G01 X-85.8644 Y6.5849 
G01 X-85.8954 Y6.4293 
G01 X-85.8954 Y6.2707 
G01 X-85.8644 Y6.1151 
G01 X-85.8037 Y5.9685 
G01 X-85.7156 Y5.8366 
G01 X-85.6034 Y5.7244 
G01 X-85.4715 Y5.6363 
G01 X-85.3249 Y5.5755 
G01 X-85.1693 Y5.5446 
G01 X-85.0107 Y5.5446 
G01 X-84.8551 Y5.5755 
G01 X-84.8218 Y5.5893 
G01 X-84.0338 Y4.8014 
G01 X-83.9544 Y4.7555 
G01 X-83.8658 Y4.7318 
G01 X-69.1692 Y4.7318 
G01 X-69.0806 Y4.7555 
G01 X-69.0012 Y4.8014 
G01 X-68.9364 Y4.8662 
G01 X-67.8008 Y6.0018 
G01 X-29.9375 Y6.0018 
G01 X-29.9237 Y5.9685 
G01 X-29.8356 Y5.8366 
G01 X-29.7234 Y5.7244 
G01 X-29.5915 Y5.6363 
G01 X-29.4449 Y5.5755 
G01 X-29.2893 Y5.5446 
G01 X-29.1307 Y5.5446 
G01 X-28.9751 Y5.5755 
G01 X-28.8285 Y5.6363 
G01 X-28.6966 Y5.7244 
G01 X-28.5844 Y5.8366 
G01 X-28.4963 Y5.9685 
G01 X-28.4355 Y6.1151 
G01 X-28.4046 Y6.2707 
G01 X-28.4046 Y6.4293 
G01 X-28.4355 Y6.5849 
G01 X-28.4963 Y6.7315 
G01 X-28.5844 Y6.8634 
G01 X-28.6966 Y6.9756 
G01 X-28.8285 Y7.0637 
G01 X-28.9751 Y7.1244 
G01 X-29.1307 Y7.1554 
G01 X-29.2893 Y7.1554 
G01 X-29.4449 Y7.1244 
G01 X-29.5915 Y7.0637 
G01 X-29.7234 Y6.9756 
G01 X-29.8356 Y6.8634 
G01 X-29.9237 Y6.7315 
G01 X-29.9375 Y6.6982 
G01 X-67.9908 Y6.6982 
G01 X-68.0794 Y6.6745 
G01 X-68.1588 Y6.6286 
G01 X-69.3592 Y5.4282 
G01 X-83.6758 Y5.4282 
G01 X-84.3293 Y6.0818 
G01 X-84.3156 Y6.1151 
G01 X-84.2846 Y6.2707 
G01 X-84.2846 Y6.4293 
G01 X-84.3156 Y6.5849 
G01 X-84.3763 Y6.7315 
G01 X-84.4644 Y6.8634 
G01 X-84.5766 Y6.9756 
G01 X-84.7085 Y7.0637 
G01 X-84.8551 Y7.1244 
G01 X-85.0107 Y7.1554 
G01 X-85.1693 Y7.1554 
G01 X-85.3249 Y7.1244 
G01 X-85.4715 Y7.0637 
G01 X-85.6034 Y6.9756 
G01 X-85.7156 Y6.8634 
G00 Z1.0000 
G00 X-85.7156 Y4.3234 
G01 Z-0.1500 F50.00 
G01 X-85.8037 Y4.1915 F75.00 
G01 X-85.8644 Y4.0449 
G01 X-85.8954 Y3.8893 
G01 X-85.8954 Y3.7307 
G01 X-85.8644 Y3.5751 
G01 X-85.8037 Y3.4285 
G01 X-85.7156 Y3.2966 
G01 X-85.6034 Y3.1844 
G01 X-85.4715 Y3.0963 
G01 X-85.3249 Y3.0356 
G01 X-85.1693 Y3.0046 
G01 X-85.0107 Y3.0046 
G01 X-84.8551 Y3.0356 
G01 X-84.8218 Y3.0493 
G01 X-84.0986 Y2.3262 
G01 X-84.0338 Y2.2614 
G01 X-83.9544 Y2.2155 
G01 X-83.8658 Y2.1918 
G01 X-69.1692 Y2.1918 
G01 X-69.0806 Y2.2155 
G01 X-69.0012 Y2.2614 
G01 X-67.8008 Y3.4618 
G01 X-29.9375 Y3.4618 
G01 X-29.9237 Y3.4285 
G01 X-29.8356 Y3.2966 
G01 X-29.7234 Y3.1844 
G01 X-29.5915 Y3.0963 
G01 X-29.4449 Y3.0356 
G01 X-29.2893 Y3.0046 
G01 X-29.1307 Y3.0046 
G01 X-28.9751 Y3.0356 
G01 X-28.8285 Y3.0963 
G01 X-28.6966 Y3.1844 
G01 X-28.5844 Y3.2966 
G01 X-28.4963 Y3.4285 
G01 X-28.4355 Y3.5751 
G01 X-28.4046 Y3.7307 
G01 X-28.4046 Y3.8893 
G01 X-28.4355 Y4.0449 
G01 X-28.4963 Y4.1915 
G01 X-28.5844 Y4.3234 
G01 X-28.6966 Y4.4356 
G01 X-28.8285 Y4.5237 
G01 X-28.9751 Y4.5844 
G01 X-29.1307 Y4.6154 
G01 X-29.2893 Y4.6154 
G01 X-29.4449 Y4.5844 
G01 X-29.5915 Y4.5237 
G01 X-29.7234 Y4.4356 
G01 X-29.8356 Y4.3234 
G01 X-29.9237 Y4.1915 
G01 X-29.9375 Y4.1582 
G01 X-67.9908 Y4.1582 
G01 X-68.0794 Y4.1345 
G01 X-68.1588 Y4.0886 
G01 X-68.2236 Y4.0238 
G01 X-69.3592 Y2.8882 
G01 X-83.6758 Y2.8882 
G01 X-84.3293 Y3.5418 
G01 X-84.3156 Y3.5751 
G01 X-84.2846 Y3.7307 
G01 X-84.2846 Y3.8893 
G01 X-84.3156 Y4.0449 
G01 X-84.3763 Y4.1915 
G01 X-84.4644 Y4.3234 
G01 X-84.5766 Y4.4356 
G01 X-84.7085 Y4.5237 
G01 X-84.8551 Y4.5844 
G01 X-85.0107 Y4.6154 
G01 X-85.1693 Y4.6154 
G01 X-85.3249 Y4.5844 
G01 X-85.4715 Y4.5237 
G01 X-85.6034 Y4.4356 
G01 X-85.7156 Y4.3234 
G00 Z1.0000 
G00 X-70.4756 Y4.3234 
G01 Z-0.1500 F50.00 
G01 X-70.5637 Y4.1915 F75.00 
G01 X-70.6244 Y4.0449 
G01 X-70.6554 Y3.8893 
G01 X-70.6554 Y3.7307 
G01 X-70.6244 Y3.5751 
G01 X-70.5637 Y3.4285 
G01 X-70.4756 Y3.2966 
G01 X-70.3634 Y3.1844 
G01 X-70.2315 Y3.0963 
G01 X-70.0849 Y3.0356 
G01 X-69.9293 Y3.0046 
G01 X-69.7707 Y3.0046 
G01 X-69.6151 Y3.0356 
G01 X-69.4685 Y3.0963 
G01 X-69.3366 Y3.1844 
G01 X-69.2244 Y3.2966 
G01 X-69.1363 Y3.4285 
G01 X-69.1166 Y3.4759 
G01 X-69.0806 Y3.4855 
G01 X-69.0012 Y3.5314 
G01 X-68.9364 Y3.5962 
G01 X-67.8008 Y4.7318 
G01 X-28.0842 Y4.7318 
G01 X-27.2043 Y3.8519 
G01 X-27.1249 Y3.8060 
G01 X-27.0363 Y3.7823 
G01 X-14.7754 Y3.7823 
G01 X-14.7754 Y3.7307 
G01 X-14.7444 Y3.5751 
G01 X-14.6837 Y3.4285 
G01 X-14.5956 Y3.2966 
G01 X-14.4834 Y3.1844 
G01 X-14.3515 Y3.0963 
G01 X-14.2049 Y3.0356 
G01 X-14.0493 Y3.0046 
G01 X-13.8907 Y3.0046 
G01 X-13.7351 Y3.0356 
G01 X-13.5885 Y3.0963 
G01 X-13.4566 Y3.1844 
G01 X-13.3444 Y3.2966 
G01 X-13.2563 Y3.4285 
G01 X-13.1956 Y3.5751 
G01 X-13.1646 Y3.7307 
G01 X-13.1646 Y3.8893 
G01 X-13.1956 Y4.0449 
G01 X-13.2563 Y4.1915 
G01 X-13.3444 Y4.3234 
G01 X-13.4566 Y4.4356 
G01 X-13.5885 Y4.5237 
G01 X-13.7351 Y4.5844 
G01 X-13.8907 Y4.6154 
G01 X-14.0493 Y4.6154 
G01 X-14.2049 Y4.5844 
G01 X-14.3515 Y4.5237 
G01 X-14.4189 Y4.4787 
G01 X-26.8463 Y4.4787 
G01 X-27.6614 Y5.2938 
G01 X-27.7262 Y5.3586 
G01 X-27.8056 Y5.4045 
G01 X-27.8942 Y5.4282 
G01 X-67.9908 Y5.4282 
G01 X-68.0794 Y5.4045 
G01 X-68.1588 Y5.3586 
G01 X-69.2122 Y4.3052 
G01 X-69.2244 Y4.3234 
G01 X-69.3366 Y4.4356 
G01 X-69.4685 Y4.5237 
G01 X-69.6151 Y4.5844 
G01 X-69.7707 Y4.6154 
G01 X-69.9293 Y4.6154 
G01 X-70.0849 Y4.5844 
G01 X-70.2315 Y4.5237 
G01 X-70.3634 Y4.4356 
G01 X-70.4756 Y4.3234 
G00 Z1.0000 
G00 X-70.3634 Y5.7244 
G01 Z-0.1500 F50.00 
G01 X-70.2315 Y5.6363 F75.00 
G01 X-70.0849 Y5.5755 
G01 X-69.9293 Y5.5446 
G01 X-69.7707 Y5.5446 
G01 X-69.6151 Y5.5755 
G01 X-69.4685 Y5.6363 
G01 X-69.3366 Y5.7244 
G01 X-69.2244 Y5.8366 
G01 X-69.1363 Y5.9685 
G01 X-69.1166 Y6.0159 
G01 X-69.0806 Y6.0255 
G01 X-69.0012 Y6.0714 
G01 X-67.8008 Y7.2718 
G01 X-27.4492 Y7.2718 
G01 X-26.3136 Y6.1362 
G01 X-26.2488 Y6.0714 
G01 X-26.1694 Y6.0255 
G01 X-26.0808 Y6.0018 
G01 X-14.6975 Y6.0018 
G01 X-14.6837 Y5.9685 
G01 X-14.5956 Y5.8366 
G01 X-14.4834 Y5.7244 
G01 X-14.3515 Y5.6363 
G01 X-14.2049 Y5.5755 
G01 X-14.0493 Y5.5446 
G01 X-13.8907 Y5.5446 
G01 X-13.7351 Y5.5755 
G01 X-13.5885 Y5.6363 
G01 X-13.4566 Y5.7244 
G01 X-13.3444 Y5.8366 
G01 X-13.2563 Y5.9685 
G01 X-13.1956 Y6.1151 
G01 X-13.1646 Y6.2707 
G01 X-13.1646 Y6.4293 
G01 X-13.1956 Y6.5849 
G01 X-13.2563 Y6.7315 
G01 X-13.3444 Y6.8634 
G01 X-13.4566 Y6.9756 
G01 X-13.5885 Y7.0637 
G01 X-13.7351 Y7.1244 
G01 X-13.8907 Y7.1554 
G01 X-14.0493 Y7.1554 
G01 X-14.2049 Y7.1244 
G01 X-14.3515 Y7.0637 
G01 X-14.4834 Y6.9756 
G01 X-14.5956 Y6.8634 
G01 X-14.6837 Y6.7315 
G01 X-14.6975 Y6.6982 
G01 X-25.8908 Y6.6982 
G01 X-27.0912 Y7.8986 
G01 X-27.1706 Y7.9445 
G01 X-27.2592 Y7.9682 
G01 X-67.9908 Y7.9682 
G01 X-68.0794 Y7.9445 
G01 X-68.1588 Y7.8986 
G01 X-68.2236 Y7.8338 
G01 X-69.2122 Y6.8452 
G01 X-69.2244 Y6.8634 
G01 X-69.3366 Y6.9756 
G01 X-69.4685 Y7.0637 
G01 X-69.6151 Y7.1244 
G01 X-69.7707 Y7.1554 
G01 X-69.9293 Y7.1554 
G01 X-70.0849 Y7.1244 
G01 X-70.2315 Y7.0637 
G01 X-70.3634 Y6.9756 
G01 X-70.4756 Y6.8634 
G01 X-70.5637 Y6.7315 
G01 X-70.6244 Y6.5849 
G01 X-70.6554 Y6.4293 
G01 X-70.6554 Y6.2707 
G01 X-70.6244 Y6.1151 
G01 X-70.5637 Y5.9685 
G01 X-70.4756 Y5.8366 
G01 X-70.3634 Y5.7244 
G00 Z1.0000 
G00 X-70.3634 Y8.2644 
G01 Z-0.1500 F50.00 
G01 X-70.2315 Y8.1763 F75.00 
G01 X-70.0849 Y8.1156 
G01 X-69.9293 Y8.0846 
G01 X-69.7707 Y8.0846 
G01 X-69.6151 Y8.1156 
G01 X-69.4685 Y8.1763 
G01 X-69.3366 Y8.2644 
G01 X-69.2244 Y8.3766 
G01 X-69.1363 Y8.5085 
G01 X-69.0756 Y8.6551 
G01 X-69.0446 Y8.8107 
G01 X-69.0446 Y8.9693 
G01 X-69.0756 Y9.1249 
G01 X-69.0893 Y9.1582 
G01 X-68.4358 Y9.8118 
G01 X-46.9077 Y9.8118 
G01 X-46.8622 Y9.7437 
G01 X-46.7713 Y9.6528 
G01 X-46.6643 Y9.5813 
G01 X-46.5455 Y9.5321 
G01 X-46.4193 Y9.5070 
G01 X-45.0207 Y9.5070 
G01 X-44.8945 Y9.5321 
G01 X-44.7757 Y9.5813 
G01 X-44.6687 Y9.6528 
G01 X-44.5778 Y9.7437 
G01 X-44.5323 Y9.8118 
G01 X-27.4492 Y9.8118 
G01 X-26.2488 Y8.6114 
G01 X-26.1694 Y8.5655 
G01 X-26.0808 Y8.5418 
G01 X-14.6975 Y8.5418 
G01 X-14.6837 Y8.5085 
G01 X-14.5956 Y8.3766 
G01 X-14.4834 Y8.2644 
G01 X-14.3515 Y8.1763 
G01 X-14.2049 Y8.1156 
G01 X-14.0493 Y8.0846 
G01 X-13.8907 Y8.0846 
G01 X-13.7351 Y8.1156 
G01 X-13.5885 Y8.1763 
G01 X-13.4566 Y8.2644 
G01 X-13.3444 Y8.3766 
G01 X-13.2563 Y8.5085 
G01 X-13.1956 Y8.6551 
G01 X-13.1646 Y8.8107 
G01 X-13.1646 Y8.9693 
G01 X-13.1956 Y9.1249 
G01 X-13.2563 Y9.2715 
G01 X-13.3444 Y9.4034 
G01 X-13.4566 Y9.5156 
G01 X-13.5885 Y9.6037 
G01 X-13.7351 Y9.6644 
G01 X-13.8907 Y9.6954 
G01 X-14.0493 Y9.6954 
G01 X-14.2049 Y9.6644 
G01 X-14.3515 Y9.6037 
G01 X-14.4834 Y9.5156 
G01 X-14.5956 Y9.4034 
G01 X-14.6837 Y9.2715 
G01 X-14.6975 Y9.2382 
G01 X-25.8908 Y9.2382 
G01 X-27.0264 Y10.3738 
G01 X-27.0912 Y10.4386 
G01 X-27.1706 Y10.4845 
G01 X-27.2592 Y10.5082 
G01 X-44.5323 Y10.5082 
G01 X-44.5778 Y10.5763 
G01 X-44.6687 Y10.6672 
G01 X-45.0670 Y11.0655 
G01 X-45.0670 Y45.4495 
G01 X-44.1795 Y46.3370 
G01 X-43.0174 Y46.3370 
G01 X-42.9265 Y46.2763 
G01 X-42.7799 Y46.2156 
G01 X-42.6243 Y46.1846 
G01 X-42.4657 Y46.1846 
G01 X-42.3101 Y46.2156 
G01 X-42.1635 Y46.2763 
G01 X-42.0316 Y46.3644 
G01 X-41.9194 Y46.4766 
G01 X-41.8313 Y46.6085 
G01 X-41.7706 Y46.7551 
G01 X-41.7396 Y46.9107 
G01 X-41.7396 Y47.0693 
G01 X-41.7706 Y47.2249 
G01 X-41.8313 Y47.3715 
G01 X-41.9194 Y47.5034 
G01 X-42.0316 Y47.6156 
G01 X-42.1635 Y47.7037 
G01 X-42.3101 Y47.7644 
G01 X-42.4657 Y47.7954 
G01 X-42.6243 Y47.7954 
G01 X-42.7799 Y47.7644 
G01 X-42.9265 Y47.7037 
G01 X-43.0174 Y47.6430 
G01 X-44.5143 Y47.6430 
G01 X-44.6405 Y47.6179 
G01 X-44.7593 Y47.5687 
G01 X-44.8663 Y47.4972 
G01 X-46.1363 Y46.2272 
G01 X-46.2272 Y46.1363 
G01 X-46.2987 Y46.0293 
G01 X-46.3479 Y45.9105 
G01 X-46.3730 Y45.7843 
G01 X-46.3730 Y11.0655 
G01 X-46.8622 Y10.5763 
G01 X-46.9077 Y10.5082 
G01 X-68.6258 Y10.5082 
G01 X-68.7144 Y10.4845 
G01 X-68.7938 Y10.4386 
G01 X-69.5818 Y9.6507 
G01 X-69.6151 Y9.6644 
G01 X-69.7707 Y9.6954 
G01 X-69.9293 Y9.6954 
G01 X-70.0849 Y9.6644 
G01 X-70.2315 Y9.6037 
G01 X-70.3634 Y9.5156 
G01 X-70.4756 Y9.4034 
G01 X-70.5637 Y9.2715 
G01 X-70.6244 Y9.1249 
G01 X-70.6554 Y8.9693 
G01 X-70.6554 Y8.8107 
G01 X-70.6244 Y8.6551 
G01 X-70.5637 Y8.5085 
G01 X-70.4756 Y8.3766 
G01 X-70.3634 Y8.2644 
G00 Z1.0000 
G00 X-70.3634 Y10.8044 
G01 Z-0.1500 F50.00 
G01 X-70.2315 Y10.7163 F75.00 
G01 X-70.0849 Y10.6555 
G01 X-69.9293 Y10.6246 
G01 X-69.7707 Y10.6246 
G01 X-69.6151 Y10.6555 
G01 X-69.4685 Y10.7163 
G01 X-69.3366 Y10.8044 
G01 X-69.2244 Y10.9166 
G01 X-69.1363 Y11.0485 
G01 X-69.1012 Y11.1333 
G01 X-68.9971 Y11.1997 
G01 X-68.9907 Y11.2023 
G01 X-68.9430 Y11.2342 
G01 X-68.8945 Y11.2651 
G01 X-68.8895 Y11.2699 
G01 X-68.8837 Y11.2738 
G01 X-68.8431 Y11.3144 
G01 X-68.8016 Y11.3542 
G01 X-68.7977 Y11.3598 
G01 X-59.1817 Y20.9758 
G01 X-59.0908 Y21.0667 
G01 X-59.0193 Y21.1737 
G01 X-58.9701 Y21.2925 
G01 X-58.9450 Y21.4187 
G01 X-58.9450 Y38.4453 
G01 X-58.9425 Y38.4919 
G01 X-58.9450 Y38.5095 
G01 X-58.9450 Y38.5273 
G01 X-58.9541 Y38.5731 
G01 X-58.9607 Y38.6192 
G01 X-58.9666 Y38.6360 
G01 X-58.9701 Y38.6535 
G01 X-58.9879 Y38.6966 
G01 X-59.0034 Y38.7406 
G01 X-59.0125 Y38.7559 
G01 X-59.0193 Y38.7723 
G01 X-59.0452 Y38.8111 
G01 X-59.0690 Y38.8512 
G01 X-59.0809 Y38.8645 
G01 X-59.0908 Y38.8793 
G01 X-59.1238 Y38.9122 
G01 X-92.3449 Y75.9385 
G01 X-92.3548 Y75.9533 
G01 X-92.3878 Y75.9862 
G01 X-92.4189 Y76.0210 
G01 X-92.4332 Y76.0316 
G01 X-92.4457 Y76.0442 
G01 X-92.4845 Y76.0701 
G01 X-92.5218 Y76.0981 
G01 X-92.5379 Y76.1058 
G01 X-92.5527 Y76.1157 
G01 X-92.5650 Y76.1208 
G01 X-92.5650 Y77.4988 
G01 X-92.5871 Y77.5521 
G01 X-92.6279 Y77.5929 
G01 X-92.6812 Y77.6150 
G01 X-97.8188 Y77.6150 
G01 X-97.8721 Y77.5929 
G01 X-97.9129 Y77.5521 
G01 X-97.9350 Y77.4988 
G01 X-97.9350 Y74.9012 
G01 X-97.9129 Y74.8479 
G01 X-97.8721 Y74.8071 
G01 X-97.8188 Y74.7850 
G01 X-93.0646 Y74.7850 
G01 X-60.2510 Y38.2130 
G01 X-60.2510 Y21.7535 
G01 X-69.7114 Y12.2931 
G01 X-69.8018 Y12.2354 
G01 X-69.9293 Y12.2354 
G01 X-70.0849 Y12.2044 
G01 X-70.2315 Y12.1437 
G01 X-70.3634 Y12.0556 
G01 X-70.4756 Y11.9434 
G01 X-70.5637 Y11.8115 
G01 X-70.6244 Y11.6649 
G01 X-70.6554 Y11.5093 
G01 X-70.6554 Y11.3507 
G01 X-70.6244 Y11.1951 
G01 X-70.5637 Y11.0485 
G01 X-70.4756 Y10.9166 
G01 X-70.3634 Y10.8044 
G00 Z1.0000 
G00 X-70.3634 Y31.1244 
G01 Z-0.1500 F50.00 
G01 X-70.2315 Y31.0363 F75.00 
G01 X-70.0849 Y30.9755 
G01 X-69.9293 Y30.9446 
G01 X-69.7707 Y30.9446 
G01 X-69.6151 Y30.9755 
G01 X-69.4685 Y31.0363 
G01 X-69.3366 Y31.1244 
G01 X-69.2244 Y31.2366 
G01 X-69.1363 Y31.3685 
G01 X-69.0756 Y31.5151 
G01 X-69.0446 Y31.6707 
G01 X-69.0446 Y31.8293 
G01 X-69.0756 Y31.9849 
G01 X-69.1363 Y32.1315 
G01 X-69.2244 Y32.2634 
G01 X-69.3366 Y32.3756 
G01 X-69.4685 Y32.4637 
G01 X-69.6151 Y32.5244 
G01 X-69.7707 Y32.5554 
G01 X-69.9293 Y32.5554 
G01 X-70.0849 Y32.5244 
G01 X-70.2315 Y32.4637 
G01 X-70.3634 Y32.3756 
G01 X-70.4756 Y32.2634 
G01 X-70.5637 Y32.1315 
G01 X-70.6244 Y31.9849 
G01 X-70.6554 Y31.8293 
G01 X-70.6554 Y31.6707 
G01 X-70.6244 Y31.5151 
G01 X-70.5637 Y31.3685 
G01 X-70.4756 Y31.2366 
G01 X-70.3634 Y31.1244 
G00 Z1.0000 
G00 X-84.4644 Y31.2366 
G01 Z-0.1500 F50.00 
G01 X-84.3763 Y31.3685 F75.00 
G01 X-84.3156 Y31.5151 
G01 X-84.2846 Y31.6707 
G01 X-84.2846 Y31.8293 
G01 X-84.3156 Y31.9849 
G01 X-84.3763 Y32.1315 
G01 X-84.4644 Y32.2634 
G01 X-84.5766 Y32.3756 
G01 X-84.7085 Y32.4637 
G01 X-84.8551 Y32.5244 
G01 X-85.0107 Y32.5554 
G01 X-85.1693 Y32.5554 
G01 X-85.3249 Y32.5244 
G01 X-85.4715 Y32.4637 
G01 X-85.6034 Y32.3756 
G01 X-85.7156 Y32.2634 
G01 X-85.8037 Y32.1315 
G01 X-85.8644 Y31.9849 
G01 X-85.8954 Y31.8293 
G01 X-85.8954 Y31.6707 
G01 X-85.8644 Y31.5151 
G01 X-85.8037 Y31.3685 
G01 X-85.7156 Y31.2366 
G01 X-85.6034 Y31.1244 
G01 X-85.4715 Y31.0363 
G01 X-85.3249 Y30.9755 
G01 X-85.1693 Y30.9446 
G01 X-85.0107 Y30.9446 
G01 X-84.8551 Y30.9755 
G01 X-84.7085 Y31.0363 
G01 X-84.5766 Y31.1244 
G01 X-84.4644 Y31.2366 
G00 Z1.0000 
G00 X-58.2984 Y41.2844 
G01 Z-0.1500 F50.00 
G01 X-58.1665 Y41.1963 F75.00 
G01 X-58.0199 Y41.1356 
G01 X-57.8643 Y41.1046 
G01 X-57.7057 Y41.1046 
G01 X-57.5501 Y41.1356 
G01 X-57.4035 Y41.1963 
G01 X-57.2716 Y41.2844 
G01 X-57.1594 Y41.3966 
G01 X-57.0713 Y41.5285 
G01 X-57.0106 Y41.6751 
G01 X-56.9796 Y41.8307 
G01 X-56.9796 Y41.9893 
G01 X-57.0106 Y42.1449 
G01 X-57.0713 Y42.2915 
G01 X-57.1594 Y42.4234 
G01 X-57.2716 Y42.5356 
G01 X-57.4035 Y42.6237 
G01 X-57.5501 Y42.6844 
G01 X-57.7057 Y42.7154 
G01 X-57.8643 Y42.7154 
G01 X-58.0199 Y42.6844 
G01 X-58.1665 Y42.6237 
G01 X-58.2984 Y42.5356 
G01 X-58.4106 Y42.4234 
G01 X-58.4987 Y42.2915 
G01 X-58.5594 Y42.1449 
G01 X-58.5904 Y41.9893 
G01 X-58.5904 Y41.8307 
G01 X-58.5594 Y41.6751 
G01 X-58.4987 Y41.5285 
G01 X-58.4106 Y41.3966 
G01 X-58.2984 Y41.2844 
G00 Z1.0000 
G00 X-58.2984 Y43.8244 
G01 Z-0.1500 F50.00 
G01 X-58.1665 Y43.7363 F75.00 
G01 X-58.0199 Y43.6756 
G01 X-57.8643 Y43.6446 
G01 X-57.7057 Y43.6446 
G01 X-57.5501 Y43.6756 
G01 X-57.4035 Y43.7363 
G01 X-57.2716 Y43.8244 
G01 X-57.1594 Y43.9366 
G01 X-57.0713 Y44.0685 
G01 X-57.0106 Y44.2151 
G01 X-56.9796 Y44.3707 
G01 X-56.9796 Y44.5293 
G01 X-57.0106 Y44.6849 
G01 X-57.0713 Y44.8315 
G01 X-57.1594 Y44.9634 
G01 X-57.2716 Y45.0756 
G01 X-57.4035 Y45.1637 
G01 X-57.5501 Y45.2244 
G01 X-57.7057 Y45.2554 
G01 X-57.8643 Y45.2554 
G01 X-58.0199 Y45.2244 
G01 X-58.1665 Y45.1637 
G01 X-58.2984 Y45.0756 
G01 X-58.4106 Y44.9634 
G01 X-58.4987 Y44.8315 
G01 X-58.5594 Y44.6849 
G01 X-58.5904 Y44.5293 
G01 X-58.5904 Y44.3707 
G01 X-58.5594 Y44.2151 
G01 X-58.4987 Y44.0685 
G01 X-58.4106 Y43.9366 
G01 X-58.2984 Y43.8244 
G00 Z1.0000 
G00 X-58.2984 Y46.3644 
G01 Z-0.1500 F50.00 
G01 X-58.1665 Y46.2763 F75.00 
G01 X-58.0199 Y46.2156 
G01 X-57.8643 Y46.1846 
G01 X-57.7057 Y46.1846 
G01 X-57.5501 Y46.2156 
G01 X-57.4035 Y46.2763 
G01 X-57.2716 Y46.3644 
G01 X-57.1594 Y46.4766 
G01 X-57.0713 Y46.6085 
G01 X-57.0106 Y46.7551 
G01 X-56.9796 Y46.9107 
G01 X-56.9796 Y47.0693 
G01 X-57.0106 Y47.2249 
G01 X-57.0713 Y47.3715 
G01 X-57.1594 Y47.5034 
G01 X-57.2716 Y47.6156 
G01 X-57.4035 Y47.7037 
G01 X-57.5501 Y47.7644 
G01 X-57.7057 Y47.7954 
G01 X-57.8643 Y47.7954 
G01 X-58.0199 Y47.7644 
G01 X-58.1665 Y47.7037 
G01 X-58.2984 Y47.6156 
G01 X-58.4106 Y47.5034 
G01 X-58.4987 Y47.3715 
G01 X-58.5594 Y47.2249 
G01 X-58.5904 Y47.0693 
G01 X-58.5904 Y46.9107 
G01 X-58.5594 Y46.7551 
G01 X-58.4987 Y46.6085 
G01 X-58.4106 Y46.4766 
G01 X-58.2984 Y46.3644 
G00 Z1.0000 
G00 X-43.1706 Y44.9634 
G01 Z-0.1500 F50.00 
G01 X-43.2587 Y44.8315 F75.00 
G01 X-43.3194 Y44.6849 
G01 X-43.3504 Y44.5293 
G01 X-43.3504 Y44.3707 
G01 X-43.3194 Y44.2151 
G01 X-43.2587 Y44.0685 
G01 X-43.1706 Y43.9366 
G01 X-43.0584 Y43.8244 
G01 X-42.9265 Y43.7363 
G01 X-42.7799 Y43.6756 
G01 X-42.6243 Y43.6446 
G01 X-42.4657 Y43.6446 
G01 X-42.3101 Y43.6756 
G01 X-42.1635 Y43.7363 
G01 X-42.0316 Y43.8244 
G01 X-41.9194 Y43.9366 
G01 X-41.8313 Y44.0685 
G01 X-41.7706 Y44.2151 
G01 X-41.7396 Y44.3707 
G01 X-41.7396 Y44.5293 
G01 X-41.7706 Y44.6849 
G01 X-41.8313 Y44.8315 
G01 X-41.9194 Y44.9634 
G01 X-42.0316 Y45.0756 
G01 X-42.1635 Y45.1637 
G01 X-42.3101 Y45.2244 
G01 X-42.4657 Y45.2554 
G01 X-42.6243 Y45.2554 
G01 X-42.7799 Y45.2244 
G01 X-42.9265 Y45.1637 
G01 X-43.0584 Y45.0756 
G01 X-43.1706 Y44.9634 
G00 Z1.0000 
G00 X-43.1706 Y42.4234 
G01 Z-0.1500 F50.00 
G01 X-43.2587 Y42.2915 F75.00 
G01 X-43.3194 Y42.1449 
G01 X-43.3504 Y41.9893 
G01 X-43.3504 Y41.8307 
G01 X-43.3194 Y41.6751 
G01 X-43.2587 Y41.5285 
G01 X-43.1706 Y41.3966 
G01 X-43.0584 Y41.2844 
G01 X-42.9265 Y41.1963 
G01 X-42.7799 Y41.1356 
G01 X-42.6243 Y41.1046 
G01 X-42.4657 Y41.1046 
G01 X-42.3101 Y41.1356 
G01 X-42.1635 Y41.1963 
G01 X-42.0316 Y41.2844 
G01 X-41.9194 Y41.3966 
G01 X-41.8313 Y41.5285 
G01 X-41.7706 Y41.6751 
G01 X-41.7396 Y41.8307 
G01 X-41.7396 Y41.9893 
G01 X-41.7706 Y42.1449 
G01 X-41.8313 Y42.2915 
G01 X-41.9194 Y42.4234 
G01 X-42.0316 Y42.5356 
G01 X-42.1635 Y42.6237 
G01 X-42.3101 Y42.6844 
G01 X-42.4657 Y42.7154 
G01 X-42.6243 Y42.7154 
G01 X-42.7799 Y42.6844 
G01 X-42.9265 Y42.6237 
G01 X-43.0584 Y42.5356 
G01 X-43.1706 Y42.4234 
G00 Z1.0000 
G00 X-29.8356 Y32.2634 
G01 Z-0.1500 F50.00 
G01 X-29.9237 Y32.1315 F75.00 
G01 X-29.9844 Y31.9849 
G01 X-30.0154 Y31.8293 
G01 X-30.0154 Y31.6707 
G01 X-29.9844 Y31.5151 
G01 X-29.9237 Y31.3685 
G01 X-29.8356 Y31.2366 
G01 X-29.7234 Y31.1244 
G01 X-29.5915 Y31.0363 
G01 X-29.4449 Y30.9755 
G01 X-29.2893 Y30.9446 
G01 X-29.1307 Y30.9446 
G01 X-28.9751 Y30.9755 
G01 X-28.8285 Y31.0363 
G01 X-28.6966 Y31.1244 
G01 X-28.5844 Y31.2366 
G01 X-28.4963 Y31.3685 
G01 X-28.4355 Y31.5151 
G01 X-28.4046 Y31.6707 
G01 X-28.4046 Y31.8293 
G01 X-28.4355 Y31.9849 
G01 X-28.4963 Y32.1315 
G01 X-28.5844 Y32.2634 
G01 X-28.6966 Y32.3756 
G01 X-28.8285 Y32.4637 
G01 X-28.9751 Y32.5244 
G01 X-29.1307 Y32.5554 
G01 X-29.2893 Y32.5554 
G01 X-29.4449 Y32.5244 
G01 X-29.5915 Y32.4637 
G01 X-29.7234 Y32.3756 
G01 X-29.8356 Y32.2634 
G00 Z1.0000 
G00 X-14.5956 Y32.2634 
G01 Z-0.1500 F50.00 
G01 X-14.6837 Y32.1315 F75.00 
G01 X-14.7444 Y31.9849 
G01 X-14.7754 Y31.8293 
G01 X-14.7754 Y31.6707 
G01 X-14.7444 Y31.5151 
G01 X-14.6837 Y31.3685 
G01 X-14.5956 Y31.2366 
G01 X-14.4834 Y31.1244 
G01 X-14.3515 Y31.0363 
G01 X-14.2049 Y30.9755 
G01 X-14.0493 Y30.9446 
G01 X-13.8907 Y30.9446 
G01 X-13.7351 Y30.9755 
G01 X-13.5885 Y31.0363 
G01 X-13.4566 Y31.1244 
G01 X-13.3444 Y31.2366 
G01 X-13.2563 Y31.3685 
G01 X-13.1956 Y31.5151 
G01 X-13.1646 Y31.6707 
G01 X-13.1646 Y31.8293 
G01 X-13.1956 Y31.9849 
G01 X-13.2563 Y32.1315 
G01 X-13.3444 Y32.2634 
G01 X-13.4566 Y32.3756 
G01 X-13.5885 Y32.4637 
G01 X-13.7351 Y32.5244 
G01 X-13.8907 Y32.5554 
G01 X-14.0493 Y32.5554 
G01 X-14.2049 Y32.5244 
G01 X-14.3515 Y32.4637 
G01 X-14.4834 Y32.3756 
G01 X-14.5956 Y32.2634 
G00 Z1.0000 
G00 X-2.3323 Y1.1312 
G01 Z-0.1500 F50.00 
G01 X-2.2950 Y1.2213 F75.00 
G01 X-2.2950 Y3.8587 
G01 X-2.3323 Y3.9488 
G01 X-2.4012 Y4.0177 
G01 X-2.4913 Y4.0550 
G01 X-7.6687 Y4.0550 
G01 X-7.7588 Y4.0177 
G01 X-7.7972 Y3.9793 
G01 X-11.4053 Y9.8896 
G01 X-11.4239 Y9.9268 
G01 X-11.4439 Y9.9527 
G01 X-11.4609 Y9.9807 
G01 X-11.4892 Y10.0113 
G01 X-11.5146 Y10.0442 
G01 X-11.5393 Y10.0657 
G01 X-11.5614 Y10.0898 
G01 X-11.5951 Y10.1143 
G01 X-13.0646 Y11.3939 
G01 X-13.0646 Y11.5192 
G01 X-13.0994 Y11.6941 
G01 X-13.1676 Y11.8589 
G01 X-13.2667 Y12.0072 
G01 X-13.3928 Y12.1333 
G01 X-13.5411 Y12.2324 
G01 X-13.7059 Y12.3006 
G01 X-13.8808 Y12.3354 
G01 X-14.0592 Y12.3354 
G01 X-14.2341 Y12.3006 
G01 X-14.3989 Y12.2324 
G01 X-14.5472 Y12.1333 
G01 X-14.6733 Y12.0072 
G01 X-14.7724 Y11.8589 
G01 X-14.8406 Y11.6941 
G01 X-14.8754 Y11.5192 
G01 X-14.8754 Y11.3408 
G01 X-14.8406 Y11.1659 
G01 X-14.7724 Y11.0011 
G01 X-14.6733 Y10.8528 
G01 X-14.5472 Y10.7267 
G01 X-14.5084 Y10.7009 
G01 X-14.5011 Y10.6862 
G01 X-14.4905 Y10.6724 
G01 X-14.4820 Y10.6572 
G01 X-14.4452 Y10.6138 
G01 X-14.4104 Y10.5688 
G01 X-14.3973 Y10.5574 
G01 X-14.3860 Y10.5441 
G01 X-14.3414 Y10.5088 
G01 X-12.6471 Y9.0334 
G01 X-8.7542 Y2.6566 
G01 X-8.7456 Y2.6369 
G01 X-8.7156 Y2.5935 
G01 X-8.6881 Y2.5483 
G01 X-8.6735 Y2.5325 
G01 X-8.6613 Y2.5149 
G01 X-8.6234 Y2.4781 
G01 X-8.5876 Y2.4392 
G01 X-8.5702 Y2.4266 
G01 X-8.5548 Y2.4117 
G01 X-8.5104 Y2.3830 
G01 X-8.4677 Y2.3519 
G01 X-8.4482 Y2.3428 
G01 X-8.4302 Y2.3312 
G01 X-8.3810 Y2.3117 
G01 X-8.3331 Y2.2895 
G01 X-8.3122 Y2.2845 
G01 X-8.2923 Y2.2766 
G01 X-8.2403 Y2.2671 
G01 X-8.1889 Y2.2547 
G01 X-8.1675 Y2.2538 
G01 X-7.8650 Y2.1985 
G01 X-7.8650 Y1.2213 
G01 X-7.8277 Y1.1312 
G01 X-7.7588 Y1.0623 
G01 X-7.6687 Y1.0250 
G01 X-2.4913 Y1.0250 
G01 X-2.4012 Y1.0623 
G01 X-2.3323 Y1.1312 
G00 Z1.0000 
G00 X-2.3323 Y4.9412 
G01 Z-0.1500 F50.00 
G01 X-2.2950 Y5.0313 F75.00 
G01 X-2.2950 Y7.6687 
G01 X-2.3323 Y7.7588 
G01 X-2.4012 Y7.8277 
G01 X-2.4913 Y7.8650 
G01 X-6.0815 Y7.8650 
G01 X-13.1642 Y14.4031 
G01 X-13.1831 Y14.4220 
G01 X-13.2667 Y14.5472 
G01 X-13.3928 Y14.6733 
G01 X-13.5411 Y14.7724 
G01 X-13.7059 Y14.8406 
G01 X-13.8808 Y14.8754 
G01 X-14.0592 Y14.8754 
G01 X-14.2341 Y14.8406 
G01 X-14.3989 Y14.7724 
