(.../software/eagle/pcbgcode/pcb-gcode.ulp)
(Copyright 2005 - 2012 by John Johnson)
(See readme.txt for licensing terms.)
(This file generated from the board:)
(.../midicontroller/pcb/midicontroller.brd)
(Current profile is .../pcbgcode/profiles/generic.pp  )
(This file generated 17-03-15 20:06)
(Z Axis Settings)
(  High     Up        Down     Drill)
(10.0000 	1.0000 	-0.1500 	-1.9000 )
M06 (Contoleer je files en maten in LinuxCNC.)
( Tool|       Size       |  Min Sub |  Max Sub |   Count )
( T02  0.800mm 0.0315in 0.0315in 0.0320in )
G21
(Absolute Coordinates)
G90
S20000
G00 Z10.0000 
G00 X0.0000 Y0.0000 
M03
G04 P3.000000
M05
G00 Z35.0000 
M06 T02  ; 0.8000 
G00 Z1.0000 
M03
G04 P3.000000
G00 Z1.000000
G00 X-13.9700 Y3.8100 
G01 Z-1.9000 F75.00 
G01 Z1.000000
(R1.0000  P0.500000)
G00 X-13.9700 Y6.3500 
G01 Z-1.900000
G01 Z1.000000
G00 X-13.9700 Y8.8900 
G01 Z-1.900000
G01 Z1.000000
G00 X-13.9700 Y11.4300 
G01 Z-1.900000
G01 Z1.000000
G00 X-13.9700 Y13.9700 
G01 Z-1.900000
G01 Z1.000000
G00 X-13.9700 Y16.5100 
G01 Z-1.900000
G01 Z1.000000
G00 X-13.9700 Y19.0500 
G01 Z-1.900000
G01 Z1.000000
G00 X-13.9700 Y21.5900 
G01 Z-1.900000
G01 Z1.000000
G00 X-13.9700 Y24.1300 
G01 Z-1.900000
G01 Z1.000000
G00 X-13.9700 Y26.6700 
G01 Z-1.900000
G01 Z1.000000
G00 X-13.9700 Y29.2100 
G01 Z-1.900000
G01 Z1.000000
G00 X-13.9700 Y31.7500 
G01 Z-1.900000
G01 Z1.000000
G00 X-29.2100 Y31.7500 
G01 Z-1.900000
G01 Z1.000000
G00 X-29.2100 Y29.2100 
G01 Z-1.900000
G01 Z1.000000
G00 X-29.2100 Y26.6700 
G01 Z-1.900000
G01 Z1.000000
G00 X-29.2100 Y24.1300 
G01 Z-1.900000
G01 Z1.000000
G00 X-29.2100 Y21.5900 
G01 Z-1.900000
G01 Z1.000000
G00 X-29.2100 Y19.0500 
G01 Z-1.900000
G01 Z1.000000
G00 X-29.2100 Y16.5100 
G01 Z-1.900000
G01 Z1.000000
G00 X-29.2100 Y13.9700 
G01 Z-1.900000
G01 Z1.000000
G00 X-29.2100 Y11.4300 
G01 Z-1.900000
G01 Z1.000000
G00 X-29.2100 Y8.8900 
G01 Z-1.900000
G01 Z1.000000
G00 X-29.2100 Y6.3500 
G01 Z-1.900000
G01 Z1.000000
G00 X-29.2100 Y3.8100 
G01 Z-1.900000
G01 Z1.000000
G00 X-42.5450 Y41.9100 
G01 Z-1.900000
G01 Z1.000000
G00 X-42.5450 Y44.4500 
G01 Z-1.900000
G01 Z1.000000
G00 X-42.5450 Y46.9900 
G01 Z-1.900000
G01 Z1.000000
G00 X-42.5450 Y49.5300 
G01 Z-1.900000
G01 Z1.000000
G00 X-42.5450 Y52.0700 
G01 Z-1.900000
G01 Z1.000000
G00 X-42.5450 Y54.6100 
G01 Z-1.900000
G01 Z1.000000
G00 X-42.5450 Y57.1500 
G01 Z-1.900000
G01 Z1.000000
G00 X-42.5450 Y59.6900 
G01 Z-1.900000
G01 Z1.000000
G00 X-42.5450 Y62.2300 
G01 Z-1.900000
G01 Z1.000000
G00 X-42.5450 Y64.7700 
G01 Z-1.900000
G01 Z1.000000
G00 X-42.5450 Y67.3100 
G01 Z-1.900000
G01 Z1.000000
G00 X-42.5450 Y69.8500 
G01 Z-1.900000
G01 Z1.000000
G00 X-57.7850 Y69.8500 
G01 Z-1.900000
G01 Z1.000000
G00 X-57.7850 Y67.3100 
G01 Z-1.900000
G01 Z1.000000
G00 X-57.7850 Y64.7700 
G01 Z-1.900000
G01 Z1.000000
G00 X-57.7850 Y62.2300 
G01 Z-1.900000
G01 Z1.000000
G00 X-57.7850 Y59.6900 
G01 Z-1.900000
G01 Z1.000000
G00 X-57.7850 Y57.1500 
G01 Z-1.900000
G01 Z1.000000
G00 X-57.7850 Y54.6100 
G01 Z-1.900000
G01 Z1.000000
G00 X-57.7850 Y52.0700 
G01 Z-1.900000
G01 Z1.000000
G00 X-57.7850 Y49.5300 
G01 Z-1.900000
G01 Z1.000000
G00 X-57.7850 Y46.9900 
G01 Z-1.900000
G01 Z1.000000
G00 X-57.7850 Y44.4500 
G01 Z-1.900000
G01 Z1.000000
G00 X-57.7850 Y41.9100 
G01 Z-1.900000
G01 Z1.000000
G00 X-69.8500 Y31.7500 
G01 Z-1.900000
G01 Z1.000000
G00 X-69.8500 Y29.2100 
G01 Z-1.900000
G01 Z1.000000
G00 X-69.8500 Y26.6700 
G01 Z-1.900000
G01 Z1.000000
G00 X-69.8500 Y24.1300 
G01 Z-1.900000
G01 Z1.000000
G00 X-69.8500 Y21.5900 
G01 Z-1.900000
G01 Z1.000000
G00 X-69.8500 Y19.0500 
G01 Z-1.900000
G01 Z1.000000
G00 X-69.8500 Y16.5100 
G01 Z-1.900000
G01 Z1.000000
G00 X-69.8500 Y13.9700 
G01 Z-1.900000
G01 Z1.000000
G00 X-69.8500 Y11.4300 
G01 Z-1.900000
G01 Z1.000000
G00 X-69.8500 Y8.8900 
G01 Z-1.900000
G01 Z1.000000
G00 X-69.8500 Y6.3500 
G01 Z-1.900000
G01 Z1.000000
G00 X-69.8500 Y3.8100 
G01 Z-1.900000
G01 Z1.000000
G00 X-85.0900 Y3.8100 
G01 Z-1.900000
G01 Z1.000000
G00 X-85.0900 Y6.3500 
G01 Z-1.900000
G01 Z1.000000
G00 X-85.0900 Y8.8900 
G01 Z-1.900000
G01 Z1.000000
G00 X-85.0900 Y11.4300 
G01 Z-1.900000
G01 Z1.000000
G00 X-85.0900 Y13.9700 
G01 Z-1.900000
G01 Z1.000000
G00 X-85.0900 Y16.5100 
G01 Z-1.900000
G01 Z1.000000
G00 X-85.0900 Y19.0500 
G01 Z-1.900000
G01 Z1.000000
G00 X-85.0900 Y21.5900 
G01 Z-1.900000
G01 Z1.000000
G00 X-85.0900 Y24.1300 
G01 Z-1.900000
G01 Z1.000000
G00 X-85.0900 Y26.6700 
G01 Z-1.900000
G01 Z1.000000
G00 X-85.0900 Y29.2100 
G01 Z-1.900000
G01 Z1.000000
G00 X-85.0900 Y31.7500 
G01 Z-1.900000
G01 Z1.000000
T01 
G00 Z10.0000 
M05
M02
