(.../software/eagle/pcbgcode/pcb-gcode.ulp)
(Copyright 2005 - 2012 by John Johnson)
(See readme.txt for licensing terms.)
(This file generated from the board:)
(.../midicontroller/pcb/main/midicontroller.brd)
(Current profile is .../pcbgcode/profiles/generic.pp  )
(This file generated 24-03-15 20:16)
(Z Axis Settings)
(  High     Up        Down     Drill)
(10.0000 	1.0000 	-0.1000 	-2.0000 )
M06 (Contoleer je files en maten in LinuxCNC.)
( Tool|       Size       |  Min Sub |  Max Sub |   Count )
( T02  0.800mm 0.0315in 0.0315in 0.0320in )
( T03  1.000mm 0.0394in 0.0354in 0.0394in )
( T04  1.500mm 0.0591in 0.0591in 0.0630in )
( T05  2.500mm 0.0984in 0.0984in 0.1004in )
G21
(Absolute Coordinates)
G90
S20000
G00 Z10.0000 
G00 X0.0000 Y0.0000 
M03
G04 P3.000000
M05
G00 Z35.0000 
M06 T02  ; 0.8000 
G00 Z1.0000 
M03
G04 P3.000000
G00 Z1.000000
G00 X-4.7625 Y4.7625 
G01 Z-2.0000 F75.00 
G01 Z1.000000
(R1.0000  P0.500000)
G00 X-26.3525 Y5.0800 
G01 Z-2.000000
G01 Z1.000000
G00 X-26.3525 Y7.6200 
G01 Z-2.000000
G01 Z1.000000
G00 X-29.2100 Y7.6200 
G01 Z-2.000000
G01 Z1.000000
G00 X-29.2100 Y5.0800 
G01 Z-2.000000
G01 Z1.000000
G00 X-29.2100 Y2.5400 
G01 Z-2.000000
G01 Z1.000000
G00 X-29.2100 Y10.1600 
G01 Z-2.000000
G01 Z1.000000
G00 X-29.2100 Y12.7000 
G01 Z-2.000000
G01 Z1.000000
G00 X-29.2100 Y15.2400 
G01 Z-2.000000
G01 Z1.000000
G00 X-29.2100 Y17.7800 
G01 Z-2.000000
G01 Z1.000000
G00 X-29.2100 Y20.3200 
G01 Z-2.000000
G01 Z1.000000
G00 X-29.2100 Y22.8600 
G01 Z-2.000000
G01 Z1.000000
G00 X-29.2100 Y25.4000 
G01 Z-2.000000
G01 Z1.000000
G00 X-29.2100 Y27.9400 
G01 Z-2.000000
G01 Z1.000000
G00 X-29.2100 Y30.4800 
G01 Z-2.000000
G01 Z1.000000
G00 X-26.3525 Y30.4800 
G01 Z-2.000000
G01 Z1.000000
G00 X-26.3525 Y48.2600 
G01 Z-2.000000
G01 Z1.000000
G00 X-26.3525 Y50.8000 
G01 Z-2.000000
G01 Z1.000000
G00 X-26.3525 Y53.3400 
G01 Z-2.000000
G01 Z1.000000
G00 X-29.2100 Y53.3400 
G01 Z-2.000000
G01 Z1.000000
G00 X-29.2100 Y55.8800 
G01 Z-2.000000
G01 Z1.000000
G00 X-29.2100 Y58.4200 
G01 Z-2.000000
G01 Z1.000000
G00 X-29.2100 Y60.9600 
G01 Z-2.000000
G01 Z1.000000
G00 X-29.2100 Y63.5000 
G01 Z-2.000000
G01 Z1.000000
G00 X-29.2100 Y66.0400 
G01 Z-2.000000
G01 Z1.000000
G00 X-29.2100 Y68.5800 
G01 Z-2.000000
G01 Z1.000000
G00 X-29.2100 Y71.1200 
G01 Z-2.000000
G01 Z1.000000
G00 X-29.2100 Y73.6600 
G01 Z-2.000000
G01 Z1.000000
G00 X-29.2100 Y76.2000 
G01 Z-2.000000
G01 Z1.000000
G00 X-26.3525 Y76.2000 
G01 Z-2.000000
G01 Z1.000000
G00 X-23.4950 Y76.2000 
G01 Z-2.000000
G01 Z1.000000
G00 X-20.6375 Y76.2000 
G01 Z-2.000000
G01 Z1.000000
G00 X-17.7800 Y76.2000 
G01 Z-2.000000
G01 Z1.000000
G00 X-44.4500 Y76.2000 
G01 Z-2.000000
G01 Z1.000000
G00 X-44.4500 Y73.6600 
G01 Z-2.000000
G01 Z1.000000
G00 X-44.4500 Y71.1200 
G01 Z-2.000000
G01 Z1.000000
G00 X-44.4500 Y68.5800 
G01 Z-2.000000
G01 Z1.000000
G00 X-44.4500 Y66.0400 
G01 Z-2.000000
G01 Z1.000000
G00 X-44.4500 Y63.5000 
G01 Z-2.000000
G01 Z1.000000
G00 X-44.4500 Y60.9600 
G01 Z-2.000000
G01 Z1.000000
G00 X-44.4500 Y58.4200 
G01 Z-2.000000
G01 Z1.000000
G00 X-44.4500 Y55.8800 
G01 Z-2.000000
G01 Z1.000000
G00 X-44.4500 Y53.3400 
G01 Z-2.000000
G01 Z1.000000
G00 X-44.4500 Y50.8000 
G01 Z-2.000000
G01 Z1.000000
G00 X-44.4500 Y48.2600 
G01 Z-2.000000
G01 Z1.000000
G00 X-47.3075 Y48.2600 
G01 Z-2.000000
G01 Z1.000000
G00 X-47.3075 Y50.8000 
G01 Z-2.000000
G01 Z1.000000
G00 X-53.0225 Y51.7525 
G01 Z-2.000000
G01 Z1.000000
G00 X-55.8800 Y51.7525 
G01 Z-2.000000
G01 Z1.000000
G00 X-55.8800 Y49.2125 
G01 Z-2.000000
G01 Z1.000000
G00 X-55.8800 Y46.6725 
G01 Z-2.000000
G01 Z1.000000
G00 X-55.8800 Y44.1325 
G01 Z-2.000000
G01 Z1.000000
G00 X-55.8800 Y41.5925 
G01 Z-2.000000
G01 Z1.000000
G00 X-55.8800 Y39.0525 
G01 Z-2.000000
G01 Z1.000000
G00 X-55.8800 Y36.5125 
G01 Z-2.000000
G01 Z1.000000
G00 X-55.8800 Y33.9725 
G01 Z-2.000000
G01 Z1.000000
G00 X-55.8800 Y31.4325 
G01 Z-2.000000
G01 Z1.000000
G00 X-55.8800 Y28.8925 
G01 Z-2.000000
G01 Z1.000000
G00 X-55.8800 Y26.3525 
G01 Z-2.000000
G01 Z1.000000
G00 X-55.8800 Y23.8125 
G01 Z-2.000000
G01 Z1.000000
G00 X-53.0225 Y26.3525 
G01 Z-2.000000
G01 Z1.000000
G00 X-53.0225 Y28.8925 
G01 Z-2.000000
G01 Z1.000000
G00 X-44.4500 Y27.9400 
G01 Z-2.000000
G01 Z1.000000
G00 X-44.4500 Y30.4800 
G01 Z-2.000000
G01 Z1.000000
G00 X-44.4500 Y25.4000 
G01 Z-2.000000
G01 Z1.000000
G00 X-44.4500 Y22.8600 
G01 Z-2.000000
G01 Z1.000000
G00 X-44.4500 Y20.3200 
G01 Z-2.000000
G01 Z1.000000
G00 X-44.4500 Y17.7800 
G01 Z-2.000000
G01 Z1.000000
G00 X-44.4500 Y15.2400 
G01 Z-2.000000
G01 Z1.000000
G00 X-44.4500 Y12.7000 
G01 Z-2.000000
G01 Z1.000000
G00 X-44.4500 Y10.1600 
G01 Z-2.000000
G01 Z1.000000
G00 X-44.4500 Y7.6200 
G01 Z-2.000000
G01 Z1.000000
G00 X-44.4500 Y5.0800 
G01 Z-2.000000
G01 Z1.000000
G00 X-44.4500 Y2.5400 
G01 Z-2.000000
G01 Z1.000000
G00 X-47.3075 Y2.5400 
G01 Z-2.000000
G01 Z1.000000
G00 X-47.3075 Y5.0800 
G01 Z-2.000000
G01 Z1.000000
G00 X-71.1200 Y23.8125 
G01 Z-2.000000
G01 Z1.000000
G00 X-71.1200 Y26.3525 
G01 Z-2.000000
G01 Z1.000000
G00 X-71.1200 Y28.8925 
G01 Z-2.000000
G01 Z1.000000
G00 X-71.1200 Y31.4325 
G01 Z-2.000000
G01 Z1.000000
G00 X-71.1200 Y33.9725 
G01 Z-2.000000
G01 Z1.000000
G00 X-71.1200 Y36.5125 
G01 Z-2.000000
G01 Z1.000000
G00 X-71.1200 Y39.0525 
G01 Z-2.000000
G01 Z1.000000
G00 X-71.1200 Y41.5925 
G01 Z-2.000000
G01 Z1.000000
G00 X-71.1200 Y44.1325 
G01 Z-2.000000
G01 Z1.000000
G00 X-71.1200 Y46.6725 
G01 Z-2.000000
G01 Z1.000000
G00 X-71.1200 Y49.2125 
G01 Z-2.000000
G01 Z1.000000
G00 X-71.1200 Y51.7525 
G01 Z-2.000000
G01 Z1.000000
G00 X-95.2500 Y52.3875 
G01 Z-2.000000
G01 Z1.000000
G00 X-73.9775 Y26.3525 
G01 Z-2.000000
G01 Z1.000000
G00 X-73.9775 Y23.8125 
G01 Z-2.000000
G01 Z1.000000
G00 X-95.2500 Y4.7625 
G01 Z-2.000000
G01 Z1.000000
G00 X-29.2100 Y48.2600 
G01 Z-2.000000
G01 Z1.000000
G00 X-29.2100 Y50.8000 
G01 Z-2.000000
G01 Z1.000000
G00 X-4.7625 Y52.3875 
G01 Z-2.000000
G01 Z1.000000
G00 X-47.3075 Y76.2000 
G01 Z-2.000000
G01 Z1.000000
M05
G00 Z35.0000 
G00 X0.0000 Y0.0000 
M06 T03  ; 1.0000 
G00 Z1.0000 
M03
G04 P3.000000
G00 Z1.000000
G00 X-6.1100 Y16.7500 
G01 Z-2.0000 F75.00 
G01 Z1.000000
(R1.0000  P0.500000)
G00 X-6.1100 Y18.7900 
G01 Z-2.000000
G01 Z1.000000
G00 X-6.1100 Y20.8300 
G01 Z-2.000000
G01 Z1.000000
G00 X-6.1100 Y22.8700 
G01 Z-2.000000
G01 Z1.000000
G00 X-8.6500 Y21.8500 
G01 Z-2.000000
G01 Z1.000000
G00 X-8.6500 Y23.8900 
G01 Z-2.000000
G01 Z1.000000
G00 X-8.6500 Y19.8100 
G01 Z-2.000000
G01 Z1.000000
G00 X-8.6500 Y17.7700 
G01 Z-2.000000
G01 Z1.000000
G00 X-6.1100 Y37.0700 
G01 Z-2.000000
G01 Z1.000000
G00 X-6.1100 Y39.1100 
G01 Z-2.000000
G01 Z1.000000
G00 X-6.1100 Y41.1500 
G01 Z-2.000000
G01 Z1.000000
G00 X-6.1100 Y43.1900 
G01 Z-2.000000
G01 Z1.000000
G00 X-8.6500 Y42.1700 
G01 Z-2.000000
G01 Z1.000000
G00 X-8.6500 Y40.1300 
G01 Z-2.000000
G01 Z1.000000
G00 X-8.6500 Y38.0900 
G01 Z-2.000000
G01 Z1.000000
G00 X-8.6500 Y44.2100 
G01 Z-2.000000
G01 Z1.000000
G00 X-6.1100 Y62.4700 
G01 Z-2.000000
G01 Z1.000000
G00 X-6.1100 Y64.5100 
G01 Z-2.000000
G01 Z1.000000
G00 X-6.1100 Y66.5500 
G01 Z-2.000000
G01 Z1.000000
G00 X-6.1100 Y68.5900 
G01 Z-2.000000
G01 Z1.000000
G00 X-8.6500 Y69.6100 
G01 Z-2.000000
G01 Z1.000000
G00 X-8.6500 Y67.5700 
G01 Z-2.000000
G01 Z1.000000
G00 X-8.6500 Y65.5300 
G01 Z-2.000000
G01 Z1.000000
G00 X-8.6500 Y63.4900 
G01 Z-2.000000
G01 Z1.000000
G00 X-91.6800 Y64.0100 
G01 Z-2.000000
G01 Z1.000000
G00 X-91.6800 Y66.0500 
G01 Z-2.000000
G01 Z1.000000
G00 X-94.2200 Y65.0300 
G01 Z-2.000000
G01 Z1.000000
G00 X-94.2200 Y67.0700 
G01 Z-2.000000
G01 Z1.000000
G00 X-94.2200 Y62.9900 
G01 Z-2.000000
G01 Z1.000000
G00 X-94.2200 Y60.9500 
G01 Z-2.000000
G01 Z1.000000
G00 X-91.6800 Y61.9700 
G01 Z-2.000000
G01 Z1.000000
G00 X-91.6800 Y59.9300 
G01 Z-2.000000
G01 Z1.000000
G00 X-94.2200 Y42.6225 
G01 Z-2.000000
G01 Z1.000000
G00 X-94.2200 Y40.5825 
G01 Z-2.000000
G01 Z1.000000
G00 X-94.2200 Y38.5425 
G01 Z-2.000000
G01 Z1.000000
G00 X-94.2200 Y36.5025 
G01 Z-2.000000
G01 Z1.000000
G00 X-91.6800 Y35.4825 
G01 Z-2.000000
G01 Z1.000000
G00 X-91.6800 Y37.5225 
G01 Z-2.000000
G01 Z1.000000
G00 X-91.6800 Y39.5625 
G01 Z-2.000000
G01 Z1.000000
G00 X-91.6800 Y41.6025 
G01 Z-2.000000
G01 Z1.000000
G00 X-94.2200 Y19.1275 
G01 Z-2.000000
G01 Z1.000000
G00 X-94.2200 Y17.0875 
G01 Z-2.000000
G01 Z1.000000
G00 X-94.2200 Y15.0475 
G01 Z-2.000000
G01 Z1.000000
G00 X-94.2200 Y13.0075 
G01 Z-2.000000
G01 Z1.000000
G00 X-91.6800 Y11.9875 
G01 Z-2.000000
G01 Z1.000000
G00 X-91.6800 Y14.0275 
G01 Z-2.000000
G01 Z1.000000
G00 X-91.6800 Y16.0675 
G01 Z-2.000000
G01 Z1.000000
G00 X-91.6800 Y18.1075 
G01 Z-2.000000
G01 Z1.000000
M05
G00 Z35.0000 
G00 X0.0000 Y0.0000 
M06 T04  ; 1.5000 
G00 Z1.0000 
M03
G04 P3.000000
G00 Z1.000000
G00 X-8.6500 Y12.1950 
G01 Z-2.0000 F75.00 
G01 Z1.000000
(R1.0000  P0.500000)
G00 X-8.6500 Y28.4450 
G01 Z-2.000000
G01 Z1.000000
G00 X-8.6500 Y32.5150 
G01 Z-2.000000
G01 Z1.000000
G00 X-8.6500 Y48.7650 
G01 Z-2.000000
G01 Z1.000000
G00 X-8.6500 Y57.9150 
G01 Z-2.000000
G01 Z1.000000
G00 X-8.6500 Y74.1650 
G01 Z-2.000000
G01 Z1.000000
G00 X-91.6800 Y71.6250 
G01 Z-2.000000
G01 Z1.000000
G00 X-91.6800 Y55.3750 
G01 Z-2.000000
G01 Z1.000000
G00 X-91.6800 Y47.1775 
G01 Z-2.000000
G01 Z1.000000
G00 X-91.6800 Y30.9275 
G01 Z-2.000000
G01 Z1.000000
G00 X-91.6800 Y23.6825 
G01 Z-2.000000
G01 Z1.000000
G00 X-91.6800 Y7.4325 
G01 Z-2.000000
G01 Z1.000000
M05
G00 Z35.0000 
G00 X0.0000 Y0.0000 
M06 T05  ; 2.5000 
G00 Z1.0000 
M03
G04 P3.000000
G00 Z1.000000
G00 X-3.8100 Y12.8800 
G01 Z-2.0000 F75.00 
G01 Z1.000000
(R1.0000  P0.500000)
G00 X-3.8100 Y27.7600 
G01 Z-2.000000
G01 Z1.000000
G00 X-3.8100 Y33.2000 
G01 Z-2.000000
G01 Z1.000000
G00 X-3.8100 Y48.0800 
G01 Z-2.000000
G01 Z1.000000
G00 X-3.8100 Y58.6000 
G01 Z-2.000000
G01 Z1.000000
G00 X-3.8100 Y73.4800 
G01 Z-2.000000
G01 Z1.000000
G00 X-96.5200 Y70.9400 
G01 Z-2.000000
G01 Z1.000000
G00 X-96.5200 Y56.0600 
G01 Z-2.000000
G01 Z1.000000
G00 X-96.5200 Y46.4925 
G01 Z-2.000000
G01 Z1.000000
G00 X-96.5200 Y31.6125 
G01 Z-2.000000
G01 Z1.000000
G00 X-96.5200 Y22.9975 
G01 Z-2.000000
G01 Z1.000000
G00 X-96.5200 Y8.1175 
G01 Z-2.000000
G01 Z1.000000
T01 
G00 Z10.0000 
M05
M02
