(.../software/eagle/pcbgcode/pcb-gcode.ulp)
(Copyright 2005 - 2012 by John Johnson)
(See readme.txt for licensing terms.)
(This file generated from the board:)
(.../midicontroller/pcb/main/midicontroller.brd)
(Current profile is .../pcbgcode/profiles/generic.pp  )
(This file generated 24-03-15 20:15)
(Z Axis Settings)
(  High     Up        Down     Drill)
(10.0000 	1.0000 	-0.1000 	-2.0000 )
M06 (Contoleer je files en maten in LinuxCNC.)
G21
(Absolute Coordinates)
G90
S30000
G00 Z10.0000 
G00 X0.0000 Y0.0000 
M03
G04 P3.000000
G00 Z1.0000 
G00 X-1.3698 Y1.4205 
G01 Z-0.1000 F50.00 
G01 X-1.3340 Y1.4825 F75.00 
G01 X-1.3155 Y1.5517 
G01 X-1.3155 Y76.8708 
G01 X-1.3340 Y76.9400 
G01 X-1.3698 Y77.0020 
G01 X-1.4205 Y77.0527 
G01 X-1.4825 Y77.0885 
G01 X-1.5517 Y77.1070 
G01 X-16.7605 Y77.1070 
G01 X-16.7784 Y77.1093 
G01 X-16.7962 Y77.1070 
G01 X-16.8142 Y77.1070 
G01 X-16.8315 Y77.1023 
G01 X-16.8494 Y77.1000 
G01 X-16.8660 Y77.0931 
G01 X-16.8833 Y77.0885 
G01 X-16.8989 Y77.0795 
G01 X-16.9155 Y77.0726 
G01 X-16.9298 Y77.0616 
G01 X-16.9454 Y77.0527 
G01 X-16.9581 Y77.0399 
G01 X-16.9723 Y77.0290 
G01 X-16.9833 Y77.0147 
G01 X-16.9960 Y77.0020 
G01 X-17.0050 Y76.9864 
G01 X-17.0160 Y76.9722 
G01 X-17.0228 Y76.9555 
G01 X-17.0318 Y76.9400 
G01 X-17.0365 Y76.9226 
G01 X-17.0434 Y76.9060 
G01 X-17.0457 Y76.8882 
G01 X-17.0504 Y76.8708 
G01 X-17.0504 Y76.8528 
G01 X-17.0527 Y76.8350 
G01 X-17.0504 Y76.8172 
G01 X-17.0504 Y76.7992 
G01 X-17.0457 Y76.7818 
G01 X-17.0434 Y76.7640 
G01 X-17.0365 Y76.7474 
G01 X-17.0318 Y76.7300 
G01 X-17.0228 Y76.7144 
G01 X-16.8836 Y76.3783 
G01 X-16.8836 Y76.0217 
G01 X-17.0201 Y75.6922 
G01 X-17.2722 Y75.4401 
G01 X-17.6017 Y75.3036 
G01 X-17.9583 Y75.3036 
G01 X-18.2878 Y75.4401 
G01 X-18.5399 Y75.6922 
G01 X-18.6764 Y76.0217 
G01 X-18.6764 Y76.3783 
G01 X-18.5372 Y76.7144 
G01 X-18.5282 Y76.7300 
G01 X-18.5235 Y76.7474 
G01 X-18.5166 Y76.7640 
G01 X-18.5143 Y76.7818 
G01 X-18.5096 Y76.7992 
G01 X-18.5096 Y76.8172 
G01 X-18.5073 Y76.8350 
G01 X-18.5096 Y76.8528 
G01 X-18.5096 Y76.8708 
G01 X-18.5143 Y76.8882 
G01 X-18.5166 Y76.9060 
G01 X-18.5235 Y76.9226 
G01 X-18.5282 Y76.9400 
G01 X-18.5372 Y76.9555 
G01 X-18.5440 Y76.9722 
G01 X-18.5550 Y76.9864 
G01 X-18.5640 Y77.0020 
G01 X-18.5767 Y77.0147 
G01 X-18.5876 Y77.0290 
G01 X-18.6019 Y77.0399 
G01 X-18.6146 Y77.0527 
G01 X-18.6302 Y77.0616 
G01 X-18.6445 Y77.0726 
G01 X-18.6611 Y77.0795 
G01 X-18.6766 Y77.0885 
G01 X-18.6940 Y77.0931 
G01 X-18.7106 Y77.1000 
G01 X-18.7285 Y77.1023 
G01 X-18.7458 Y77.1070 
G01 X-18.7638 Y77.1070 
G01 X-18.7816 Y77.1093 
G01 X-18.7995 Y77.1070 
G01 X-19.6180 Y77.1070 
G01 X-19.6359 Y77.1093 
G01 X-19.6537 Y77.1070 
G01 X-19.6717 Y77.1070 
G01 X-19.6890 Y77.1023 
G01 X-19.7069 Y77.1000 
G01 X-19.7235 Y77.0931 
G01 X-19.7408 Y77.0885 
G01 X-19.7564 Y77.0795 
G01 X-19.7730 Y77.0726 
G01 X-19.7873 Y77.0616 
G01 X-19.8029 Y77.0527 
G01 X-19.8156 Y77.0399 
G01 X-19.8299 Y77.0290 
G01 X-19.8408 Y77.0147 
G01 X-19.8535 Y77.0020 
G01 X-19.8625 Y76.9864 
G01 X-19.8734 Y76.9722 
G01 X-19.8803 Y76.9555 
G01 X-19.8893 Y76.9400 
G01 X-19.8940 Y76.9226 
G01 X-19.9009 Y76.9060 
G01 X-19.9032 Y76.8882 
G01 X-19.9079 Y76.8708 
G01 X-19.9079 Y76.8528 
G01 X-19.9102 Y76.8350 
G01 X-19.9079 Y76.8172 
G01 X-19.9079 Y76.7992 
G01 X-19.9032 Y76.7818 
G01 X-19.9009 Y76.7640 
G01 X-19.8940 Y76.7474 
G01 X-19.8893 Y76.7300 
G01 X-19.8803 Y76.7144 
G01 X-19.7411 Y76.3783 
G01 X-19.7411 Y76.0217 
G01 X-19.8776 Y75.6922 
G01 X-20.1297 Y75.4401 
G01 X-20.4592 Y75.3036 
G01 X-20.8158 Y75.3036 
G01 X-21.1453 Y75.4401 
G01 X-21.3974 Y75.6922 
G01 X-21.5339 Y76.0217 
G01 X-21.5339 Y76.3783 
G01 X-21.3947 Y76.7144 
G01 X-21.3857 Y76.7300 
G01 X-21.3810 Y76.7474 
G01 X-21.3741 Y76.7640 
G01 X-21.3718 Y76.7818 
G01 X-21.3671 Y76.7992 
G01 X-21.3671 Y76.8172 
G01 X-21.3648 Y76.8350 
G01 X-21.3671 Y76.8528 
G01 X-21.3671 Y76.8708 
G01 X-21.3718 Y76.8882 
G01 X-21.3741 Y76.9060 
G01 X-21.3810 Y76.9226 
G01 X-21.3857 Y76.9400 
G01 X-21.3947 Y76.9555 
G01 X-21.4015 Y76.9722 
G01 X-21.4125 Y76.9864 
G01 X-21.4215 Y77.0020 
G01 X-21.4342 Y77.0147 
G01 X-21.4451 Y77.0290 
G01 X-21.4594 Y77.0399 
G01 X-21.4721 Y77.0527 
G01 X-21.4877 Y77.0616 
G01 X-21.5020 Y77.0726 
G01 X-21.5186 Y77.0795 
G01 X-21.5341 Y77.0885 
G01 X-21.5515 Y77.0931 
G01 X-21.5681 Y77.1000 
G01 X-21.5860 Y77.1023 
G01 X-21.6033 Y77.1070 
G01 X-21.6213 Y77.1070 
G01 X-21.6391 Y77.1093 
G01 X-21.6570 Y77.1070 
G01 X-22.4755 Y77.1070 
G01 X-22.4934 Y77.1093 
G01 X-22.5112 Y77.1070 
G01 X-22.5292 Y77.1070 
G01 X-22.5465 Y77.1023 
G01 X-22.5644 Y77.1000 
G01 X-22.5810 Y77.0931 
G01 X-22.5983 Y77.0885 
G01 X-22.6139 Y77.0795 
G01 X-22.6305 Y77.0726 
G01 X-22.6448 Y77.0616 
G01 X-22.6604 Y77.0527 
G01 X-22.6731 Y77.0399 
G01 X-22.6873 Y77.0290 
G01 X-22.6983 Y77.0147 
G01 X-22.7110 Y77.0020 
G01 X-22.7200 Y76.9864 
G01 X-22.7309 Y76.9722 
G01 X-22.7378 Y76.9555 
G01 X-22.7468 Y76.9400 
G01 X-22.7515 Y76.9226 
G01 X-22.7584 Y76.9060 
G01 X-22.7607 Y76.8882 
G01 X-22.7654 Y76.8708 
G01 X-22.7654 Y76.8528 
G01 X-22.7677 Y76.8350 
G01 X-22.7654 Y76.8172 
G01 X-22.7654 Y76.7992 
G01 X-22.7607 Y76.7818 
G01 X-22.7584 Y76.7640 
G01 X-22.7515 Y76.7474 
G01 X-22.7468 Y76.7300 
G01 X-22.7378 Y76.7144 
G01 X-22.5986 Y76.3783 
G01 X-22.5986 Y76.0217 
G01 X-22.7351 Y75.6922 
G01 X-22.9872 Y75.4401 
G01 X-23.3167 Y75.3036 
G01 X-23.6733 Y75.3036 
G01 X-24.0028 Y75.4401 
G01 X-24.2549 Y75.6922 
G01 X-24.3914 Y76.0217 
G01 X-24.3914 Y76.3783 
G01 X-24.2522 Y76.7144 
G01 X-24.2432 Y76.7300 
G01 X-24.2385 Y76.7474 
G01 X-24.2316 Y76.7640 
G01 X-24.2293 Y76.7818 
G01 X-24.2246 Y76.7992 
G01 X-24.2246 Y76.8172 
G01 X-24.2223 Y76.8350 
G01 X-24.2246 Y76.8528 
G01 X-24.2246 Y76.8708 
G01 X-24.2293 Y76.8882 
G01 X-24.2316 Y76.9060 
G01 X-24.2385 Y76.9226 
G01 X-24.2432 Y76.9400 
G01 X-24.2522 Y76.9555 
G01 X-24.2590 Y76.9722 
G01 X-24.2700 Y76.9864 
G01 X-24.2790 Y77.0020 
G01 X-24.2917 Y77.0147 
G01 X-24.3026 Y77.0290 
G01 X-24.3169 Y77.0399 
G01 X-24.3296 Y77.0527 
G01 X-24.3452 Y77.0616 
G01 X-24.3595 Y77.0726 
G01 X-24.3761 Y77.0795 
G01 X-24.3916 Y77.0885 
G01 X-24.4090 Y77.0931 
G01 X-24.4256 Y77.1000 
G01 X-24.4435 Y77.1023 
G01 X-24.4608 Y77.1070 
G01 X-24.4788 Y77.1070 
G01 X-24.4966 Y77.1093 
G01 X-24.5145 Y77.1070 
G01 X-25.3330 Y77.1070 
G01 X-25.3509 Y77.1093 
G01 X-25.3687 Y77.1070 
G01 X-25.3867 Y77.1070 
G01 X-25.4040 Y77.1023 
G01 X-25.4219 Y77.1000 
G01 X-25.4385 Y77.0931 
G01 X-25.4558 Y77.0885 
G01 X-25.4714 Y77.0795 
G01 X-25.4880 Y77.0726 
G01 X-25.5023 Y77.0616 
G01 X-25.5179 Y77.0527 
G01 X-25.5306 Y77.0399 
G01 X-25.5449 Y77.0290 
G01 X-25.5558 Y77.0147 
G01 X-25.5685 Y77.0020 
G01 X-25.5775 Y76.9864 
G01 X-25.5885 Y76.9722 
G01 X-25.5953 Y76.9555 
G01 X-25.6043 Y76.9400 
G01 X-25.6090 Y76.9226 
G01 X-25.6159 Y76.9060 
G01 X-25.6182 Y76.8882 
G01 X-25.6229 Y76.8708 
G01 X-25.6229 Y76.8528 
G01 X-25.6252 Y76.8350 
G01 X-25.6229 Y76.8172 
G01 X-25.6229 Y76.7992 
G01 X-25.6182 Y76.7818 
G01 X-25.6159 Y76.7640 
G01 X-25.6090 Y76.7474 
G01 X-25.6043 Y76.7300 
G01 X-25.5953 Y76.7144 
G01 X-25.4561 Y76.3783 
G01 X-25.4561 Y76.0217 
G01 X-25.5112 Y75.8888 
G01 X-25.5202 Y75.8732 
G01 X-25.5248 Y75.8558 
G01 X-25.5317 Y75.8392 
G01 X-25.5340 Y75.8214 
G01 X-25.5387 Y75.8040 
G01 X-25.5387 Y75.7860 
G01 X-25.5410 Y75.7682 
G01 X-25.5387 Y75.7504 
G01 X-25.5387 Y75.7324 
G01 X-25.5340 Y75.7150 
G01 X-25.5317 Y75.6972 
G01 X-25.5248 Y75.6806 
G01 X-25.5202 Y75.6632 
G01 X-25.5112 Y75.6476 
G01 X-25.5043 Y75.6310 
G01 X-25.4933 Y75.6168 
G01 X-25.4843 Y75.6012 
G01 X-25.4716 Y75.5885 
G01 X-25.4607 Y75.5742 
G01 X-25.4464 Y75.5633 
G01 X-25.4337 Y75.5505 
G01 X-25.4181 Y75.5416 
G01 X-25.4039 Y75.5306 
G01 X-25.3873 Y75.5237 
G01 X-25.3717 Y75.5147 
G01 X-25.3543 Y75.5101 
G01 X-25.3377 Y75.5032 
G01 X-25.3199 Y75.5009 
G01 X-25.3025 Y75.4962 
G01 X-25.2874 Y75.4962 
G01 X-25.0793 Y75.4100 
G01 X-24.9071 Y75.2378 
G01 X-23.3655 Y73.6962 
G01 X-23.3148 Y73.6455 
G01 X-23.2528 Y73.6097 
G01 X-23.1836 Y73.5912 
G01 X-14.4924 Y73.5912 
G01 X-14.2843 Y73.5050 
G01 X-14.1121 Y73.3328 
G01 X-13.2055 Y72.4262 
G01 X-13.1548 Y72.3755 
G01 X-13.0928 Y72.3397 
G01 X-13.0236 Y72.3212 
G01 X-8.8539 Y72.3212 
G01 X-8.8397 Y72.3189 
G01 X-8.8182 Y72.3212 
G01 X-8.7967 Y72.3212 
G01 X-8.7828 Y72.3249 
G01 X-8.7684 Y72.3264 
G01 X-8.7483 Y72.3342 
G01 X-8.7275 Y72.3397 
G01 X-8.7150 Y72.3469 
G01 X-8.7016 Y72.3521 
G01 X-8.6841 Y72.3648 
G01 X-8.6655 Y72.3755 
G01 X-8.6553 Y72.3857 
G01 X-8.6500 Y72.3896 
G01 X-8.6447 Y72.3857 
G01 X-8.6345 Y72.3755 
G01 X-8.6159 Y72.3648 
G01 X-8.5984 Y72.3521 
G01 X-8.5850 Y72.3469 
G01 X-8.5725 Y72.3397 
G01 X-8.5517 Y72.3342 
G01 X-8.5316 Y72.3264 
G01 X-8.5172 Y72.3249 
G01 X-8.5033 Y72.3212 
G01 X-8.4818 Y72.3212 
G01 X-8.4603 Y72.3189 
G01 X-8.4461 Y72.3212 
G01 X-7.5074 Y72.3212 
G01 X-7.2993 Y72.2350 
G01 X-7.1271 Y72.0628 
G01 X-7.0764 Y72.0121 
G01 X-5.6300 Y70.5657 
G01 X-5.5438 Y70.3576 
G01 X-5.5438 Y69.4761 
G01 X-5.5253 Y69.4069 
G01 X-5.4895 Y69.3449 
G01 X-5.2855 Y69.1409 
G01 X-5.1374 Y68.7835 
G01 X-5.1374 Y68.3965 
G01 X-5.2855 Y68.0391 
G01 X-5.5369 Y67.7876 
G01 X-5.5875 Y67.7370 
G01 X-5.6233 Y67.6750 
G01 X-5.6419 Y67.6058 
G01 X-5.6419 Y67.5342 
G01 X-5.6233 Y67.4650 
G01 X-5.5875 Y67.4030 
G01 X-5.4057 Y67.2212 
G01 X-5.3551 Y67.1705 
G01 X-5.2931 Y67.1347 
G01 X-5.2239 Y67.1162 
G01 X-5.1599 Y67.1162 
G01 X-4.9518 Y67.0300 
G01 X-4.1879 Y66.2661 
G01 X-4.1372 Y66.2154 
G01 X-3.9650 Y66.0432 
G01 X-3.8788 Y65.8351 
G01 X-3.8788 Y61.4824 
G01 X-3.9650 Y61.2743 
G01 X-4.6337 Y60.6055 
G01 X-4.6480 Y60.5946 
G01 X-4.6589 Y60.5803 
G01 X-4.6716 Y60.5676 
G01 X-4.6806 Y60.5520 
G01 X-4.6916 Y60.5378 
G01 X-4.6985 Y60.5212 
G01 X-4.7075 Y60.5056 
G01 X-4.7121 Y60.4882 
G01 X-4.7190 Y60.4716 
G01 X-4.7213 Y60.4538 
G01 X-4.7260 Y60.4364 
G01 X-4.7260 Y60.4184 
G01 X-4.7283 Y60.4006 
G01 X-4.7260 Y60.3828 
G01 X-4.7260 Y60.3648 
G01 X-4.7213 Y60.3474 
G01 X-4.7190 Y60.3296 
G01 X-4.7121 Y60.3130 
G01 X-4.7075 Y60.2956 
G01 X-4.6985 Y60.2801 
G01 X-4.6916 Y60.2634 
G01 X-4.6806 Y60.2492 
G01 X-4.6716 Y60.2336 
G01 X-4.6589 Y60.2209 
G01 X-4.6480 Y60.2066 
G01 X-4.6337 Y60.1957 
G01 X-4.6210 Y60.1830 
G01 X-4.6054 Y60.1740 
G01 X-4.5912 Y60.1630 
G01 X-4.5746 Y60.1561 
G01 X-4.5590 Y60.1471 
G01 X-4.5416 Y60.1425 
G01 X-4.5250 Y60.1356 
G01 X-4.5072 Y60.1333 
G01 X-4.4898 Y60.1286 
G01 X-4.4718 Y60.1286 
G01 X-4.4540 Y60.1263 
G01 X-4.4362 Y60.1286 
G01 X-4.4182 Y60.1286 
G01 X-4.4008 Y60.1333 
G01 X-4.3830 Y60.1356 
G01 X-4.3664 Y60.1425 
G01 X-4.3490 Y60.1471 
G01 X-4.3334 Y60.1561 
G01 X-4.1358 Y60.2380 
G01 X-3.4842 Y60.2380 
G01 X-2.8821 Y59.9886 
G01 X-2.4214 Y59.5279 
G01 X-2.1720 Y58.9258 
G01 X-2.1720 Y58.2742 
G01 X-2.4214 Y57.6721 
G01 X-2.8821 Y57.2114 
G01 X-3.4842 Y56.9620 
G01 X-4.1358 Y56.9620 
G01 X-4.7378 Y57.2114 
G01 X-5.1986 Y57.6721 
G01 X-5.2537 Y57.8051 
G01 X-5.2583 Y57.8224 
G01 X-5.2673 Y57.8380 
G01 X-5.2742 Y57.8546 
G01 X-5.2851 Y57.8689 
G01 X-5.2941 Y57.8845 
G01 X-5.3069 Y57.8972 
G01 X-5.3178 Y57.9114 
G01 X-5.3321 Y57.9224 
G01 X-5.3448 Y57.9351 
G01 X-5.3604 Y57.9441 
G01 X-5.3746 Y57.9550 
G01 X-5.3912 Y57.9619 
G01 X-5.4068 Y57.9709 
G01 X-5.4242 Y57.9756 
G01 X-5.4408 Y57.9824 
G01 X-5.4586 Y57.9848 
G01 X-5.4760 Y57.9894 
G01 X-5.4940 Y57.9894 
G01 X-5.5118 Y57.9918 
G01 X-5.5296 Y57.9894 
G01 X-5.5476 Y57.9894 
G01 X-5.5650 Y57.9848 
G01 X-5.5828 Y57.9825 
G01 X-5.5994 Y57.9756 
G01 X-5.6168 Y57.9709 
G01 X-5.6324 Y57.9619 
G01 X-5.6490 Y57.9550 
G01 X-5.6632 Y57.9441 
G01 X-5.6788 Y57.9351 
G01 X-5.6915 Y57.9224 
G01 X-5.7058 Y57.9114 
G01 X-5.7167 Y57.8972 
G01 X-5.7295 Y57.8845 
G01 X-5.7384 Y57.8689 
G01 X-5.7494 Y57.8546 
G01 X-5.7563 Y57.8380 
G01 X-5.7653 Y57.8224 
G01 X-5.7699 Y57.8051 
G01 X-5.7768 Y57.7885 
G01 X-5.7791 Y57.7706 
G01 X-5.7838 Y57.7533 
G01 X-5.7838 Y57.7353 
G01 X-5.7861 Y57.7175 
G01 X-5.7838 Y57.6996 
G01 X-5.7838 Y56.7199 
G01 X-5.8700 Y56.5118 
G01 X-7.0764 Y55.3053 
G01 X-7.2993 Y55.0825 
G01 X-7.5074 Y54.9963 
G01 X-23.5011 Y54.9963 
G01 X-23.5703 Y54.9778 
G01 X-23.6323 Y54.9420 
G01 X-23.6830 Y54.8913 
G01 X-24.2214 Y54.3528 
G01 X-24.4443 Y54.1300 
G01 X-24.6524 Y54.0438 
G01 X-25.2489 Y54.0438 
G01 X-25.2667 Y54.0461 
G01 X-25.2845 Y54.0438 
G01 X-25.3025 Y54.0438 
G01 X-25.3199 Y54.0391 
G01 X-25.3377 Y54.0368 
G01 X-25.3543 Y54.0299 
G01 X-25.3717 Y54.0253 
G01 X-25.3873 Y54.0163 
G01 X-25.4039 Y54.0094 
G01 X-25.4181 Y53.9984 
G01 X-25.4337 Y53.9895 
G01 X-25.4464 Y53.9767 
G01 X-25.4607 Y53.9658 
G01 X-25.4716 Y53.9515 
G01 X-25.4843 Y53.9388 
G01 X-25.4933 Y53.9232 
G01 X-25.5043 Y53.9090 
G01 X-25.5112 Y53.8924 
G01 X-25.5202 Y53.8768 
G01 X-25.5248 Y53.8594 
G01 X-25.5317 Y53.8428 
G01 X-25.5340 Y53.8250 
G01 X-25.5387 Y53.8076 
G01 X-25.5387 Y53.7896 
G01 X-25.5410 Y53.7718 
G01 X-25.5387 Y53.7540 
G01 X-25.5387 Y53.7360 
G01 X-25.5340 Y53.7186 
G01 X-25.5317 Y53.7008 
G01 X-25.5248 Y53.6842 
G01 X-25.5202 Y53.6668 
G01 X-25.5112 Y53.6512 
G01 X-25.4561 Y53.5183 
G01 X-25.4561 Y53.1617 
G01 X-25.5926 Y52.8322 
G01 X-25.8447 Y52.5801 
G01 X-26.1742 Y52.4436 
G01 X-26.5308 Y52.4436 
G01 X-26.8603 Y52.5801 
G01 X-26.9490 Y52.6688 
G01 X-26.9997 Y52.7195 
G01 X-27.0617 Y52.7553 
G01 X-27.1309 Y52.7738 
G01 X-28.3957 Y52.7738 
G01 X-28.4649 Y52.7553 
G01 X-28.5269 Y52.7195 
G01 X-28.6878 Y52.5585 
G01 X-29.0266 Y52.4182 
G01 X-29.3934 Y52.4182 
G01 X-29.7322 Y52.5585 
G01 X-29.9915 Y52.8178 
G01 X-30.1318 Y53.1566 
G01 X-30.1318 Y53.5234 
G01 X-30.0788 Y53.6512 
G01 X-30.0698 Y53.6668 
G01 X-30.0652 Y53.6842 
G01 X-30.0583 Y53.7008 
G01 X-30.0560 Y53.7186 
G01 X-30.0513 Y53.7360 
G01 X-30.0513 Y53.7540 
G01 X-30.0490 Y53.7718 
G01 X-30.0513 Y53.7896 
G01 X-30.0513 Y53.8076 
G01 X-30.0559 Y53.8250 
G01 X-30.0583 Y53.8428 
G01 X-30.0652 Y53.8594 
G01 X-30.0698 Y53.8768 
G01 X-30.0788 Y53.8924 
G01 X-30.0857 Y53.9090 
G01 X-30.0967 Y53.9232 
G01 X-30.1056 Y53.9388 
G01 X-30.1184 Y53.9515 
G01 X-30.1293 Y53.9658 
G01 X-30.1436 Y53.9767 
G01 X-30.1563 Y53.9895 
G01 X-30.1719 Y53.9984 
G01 X-30.1861 Y54.0094 
G01 X-30.2027 Y54.0163 
G01 X-30.2183 Y54.0253 
G01 X-30.2357 Y54.0299 
G01 X-30.2523 Y54.0368 
G01 X-30.2701 Y54.0391 
G01 X-30.2875 Y54.0438 
G01 X-30.3055 Y54.0438 
G01 X-30.3233 Y54.0461 
G01 X-30.3411 Y54.0438 
G01 X-31.6428 Y54.0438 
G01 X-31.6772 Y54.0442 
G01 X-31.6801 Y54.0438 
G01 X-31.7132 Y54.0349 
G01 X-31.7186 Y54.0336 
G01 X-31.7549 Y54.0388 
G01 X-31.7737 Y54.0438 
G01 X-31.7902 Y54.0438 
G01 X-31.8065 Y54.0461 
G01 X-31.8259 Y54.0438 
G01 X-31.8626 Y54.0438 
G01 X-31.8677 Y54.0459 
G01 X-31.8992 Y54.0594 
G01 X-31.9021 Y54.0602 
G01 X-31.9362 Y54.0646 
G01 X-31.9416 Y54.0654 
G01 X-31.9732 Y54.0841 
G01 X-31.9886 Y54.0960 
G01 X-32.0038 Y54.1023 
G01 X-32.0180 Y54.1107 
G01 X-32.0368 Y54.1159 
G01 X-32.0707 Y54.1300 
G01 X-32.0746 Y54.1339 
G01 X-32.0986 Y54.1584 
G01 X-32.1307 Y54.1774 
G01 X-32.1354 Y54.1802 
G01 X-32.1574 Y54.2096 
G01 X-32.1672 Y54.2264 
G01 X-32.1788 Y54.2381 
G01 X-32.1887 Y54.2513 
G01 X-32.2040 Y54.2633 
G01 X-32.2300 Y54.2893 
G01 X-32.2321 Y54.2943 
G01 X-32.2449 Y54.3262 
G01 X-32.2464 Y54.3288 
G01 X-32.2672 Y54.3559 
G01 X-33.1099 Y55.4796 
G01 X-33.1197 Y55.4964 
G01 X-33.1313 Y55.5081 
G01 X-33.1412 Y55.5213 
G01 X-33.1565 Y55.5333 
G01 X-33.1825 Y55.5593 
G01 X-33.1846 Y55.5643 
G01 X-33.1974 Y55.5962 
G01 X-33.1989 Y55.5988 
G01 X-33.2198 Y55.6260 
G01 X-33.2230 Y55.6304 
G01 X-33.2321 Y55.6660 
G01 X-33.2347 Y55.6853 
G01 X-33.2410 Y55.7005 
G01 X-33.2451 Y55.7165 
G01 X-33.2546 Y55.7334 
G01 X-33.2687 Y55.7674 
G01 X-33.2687 Y55.7728 
G01 X-33.2683 Y55.8072 
G01 X-33.2687 Y55.8101 
G01 X-33.2776 Y55.8432 
G01 X-33.2789 Y55.8486 
G01 X-33.2737 Y55.8849 
G01 X-33.2687 Y55.9037 
G01 X-33.2687 Y55.9202 
G01 X-33.2664 Y55.9365 
G01 X-33.2687 Y55.9559 
G01 X-33.2687 Y65.2001 
G01 X-33.1825 Y65.4082 
G01 X-32.2936 Y66.2971 
G01 X-32.0707 Y66.5200 
G01 X-31.8626 Y66.6062 
G01 X-30.0243 Y66.6062 
G01 X-29.9551 Y66.6247 
G01 X-29.9185 Y66.6459 
G01 X-29.8931 Y66.6605 
G01 X-29.8896 Y66.6640 
G01 X-29.8424 Y66.7112 
G01 X-29.7322 Y66.8215 
G01 X-29.3934 Y66.9618 
G01 X-29.0266 Y66.9618 
G01 X-28.6878 Y66.8215 
G01 X-28.4285 Y66.5622 
G01 X-28.2882 Y66.2234 
G01 X-28.2882 Y65.8566 
G01 X-28.4285 Y65.5178 
G01 X-28.6878 Y65.2585 
G01 X-29.0266 Y65.1182 
G01 X-29.3934 Y65.1182 
G01 X-29.7322 Y65.2585 
G01 X-29.8424 Y65.3688 
G01 X-29.8931 Y65.4195 
G01 X-29.9201 Y65.4350 
G01 X-29.9551 Y65.4553 
G01 X-30.0243 Y65.4738 
G01 X-31.4386 Y65.4738 
G01 X-31.5078 Y65.4553 
G01 X-31.5698 Y65.4195 
G01 X-32.0313 Y64.9580 
G01 X-32.0820 Y64.9073 
G01 X-32.1178 Y64.8453 
G01 X-32.1363 Y64.7761 
G01 X-32.1363 Y60.7253 
G01 X-32.1178 Y60.6561 
G01 X-32.0820 Y60.5941 
G01 X-32.0321 Y60.5442 
G01 X-31.9693 Y60.5076 
G01 X-31.9001 Y60.4891 
G01 X-31.8285 Y60.4891 
G01 X-31.7593 Y60.5076 
G01 X-31.6973 Y60.5434 
G01 X-31.6466 Y60.5941 
G01 X-31.0236 Y61.2171 
G01 X-30.8007 Y61.4400 
G01 X-30.5926 Y61.5262 
G01 X-30.0243 Y61.5262 
G01 X-29.9551 Y61.5447 
G01 X-29.9185 Y61.5659 
G01 X-29.8931 Y61.5805 
G01 X-29.8896 Y61.5840 
G01 X-29.8424 Y61.6312 
G01 X-29.7322 Y61.7415 
G01 X-29.3934 Y61.8818 
G01 X-29.0266 Y61.8818 
G01 X-28.6878 Y61.7415 
G01 X-28.4285 Y61.4822 
G01 X-28.2882 Y61.1434 
G01 X-28.2882 Y60.7766 
G01 X-28.4285 Y60.4378 
G01 X-28.6878 Y60.1785 
G01 X-29.0266 Y60.0382 
G01 X-29.3934 Y60.0382 
G01 X-29.7322 Y60.1785 
G01 X-29.8424 Y60.2888 
G01 X-29.8931 Y60.3395 
G01 X-29.9201 Y60.3550 
G01 X-29.9551 Y60.3753 
G01 X-30.0243 Y60.3938 
G01 X-30.1686 Y60.3938 
G01 X-30.2378 Y60.3753 
G01 X-30.2998 Y60.3395 
G01 X-30.7613 Y59.8780 
G01 X-30.8120 Y59.8273 
G01 X-30.8478 Y59.7653 
G01 X-30.8663 Y59.6961 
G01 X-30.8663 Y58.4139 
G01 X-30.8615 Y58.3961 
G01 X-30.8478 Y58.3447 
G01 X-30.8120 Y58.2827 
G01 X-30.6214 Y58.0922 
G01 X-30.5708 Y58.0415 
G01 X-30.5088 Y58.0057 
G01 X-30.5058 Y58.0049 
G01 X-30.4396 Y57.9872 
G01 X-30.3680 Y57.9872 
G01 X-30.3487 Y57.9924 
G01 X-30.2988 Y58.0057 
G01 X-30.2387 Y58.0405 
G01 X-30.1861 Y58.0922 
G01 X-30.1503 Y58.1542 
G01 X-30.1495 Y58.1571 
G01 X-30.1318 Y58.2234 
G01 X-30.1318 Y58.6034 
G01 X-29.9915 Y58.9422 
G01 X-29.7322 Y59.2015 
G01 X-29.3934 Y59.3418 
G01 X-29.0266 Y59.3418 
G01 X-28.6878 Y59.2015 
G01 X-28.5776 Y59.0912 
G01 X-28.5269 Y59.0405 
G01 X-28.4999 Y59.0250 
G01 X-28.4649 Y59.0047 
G01 X-28.3957 Y58.9862 
G01 X-26.9814 Y58.9862 
G01 X-26.9122 Y59.0047 
G01 X-26.8502 Y59.0405 
G01 X-24.4507 Y61.4400 
G01 X-24.2426 Y61.5262 
G01 X-16.8214 Y61.5262 
G01 X-16.7522 Y61.5447 
G01 X-16.6902 Y61.5805 
G01 X-14.3007 Y63.9700 
G01 X-14.0926 Y64.0562 
G01 X-9.5361 Y64.0562 
G01 X-9.5184 Y64.0610 
G01 X-9.4669 Y64.0747 
G01 X-9.4049 Y64.1105 
G01 X-9.2231 Y64.2923 
G01 X-9.1725 Y64.3430 
G01 X-9.1367 Y64.4050 
G01 X-9.1359 Y64.4079 
G01 X-9.1181 Y64.4742 
G01 X-9.1181 Y64.5458 
G01 X-9.1233 Y64.5651 
G01 X-9.1367 Y64.6150 
G01 X-9.1714 Y64.6751 
G01 X-9.3543 Y64.8588 
G01 X-9.4049 Y64.9095 
G01 X-9.4669 Y64.9453 
G01 X-9.5361 Y64.9638 
G01 X-14.1686 Y64.9638 
G01 X-14.2378 Y64.9453 
G01 X-14.2998 Y64.9095 
G01 X-15.9664 Y63.2428 
G01 X-16.1893 Y63.0200 
G01 X-16.3974 Y62.9338 
G01 X-28.3957 Y62.9338 
G01 X-28.4649 Y62.9153 
G01 X-28.5015 Y62.8941 
G01 X-28.5269 Y62.8795 
G01 X-28.5304 Y62.8760 
G01 X-28.5776 Y62.8288 
G01 X-28.6878 Y62.7185 
G01 X-29.0266 Y62.5782 
G01 X-29.3934 Y62.5782 
G01 X-29.7322 Y62.7185 
G01 X-29.9915 Y62.9778 
G01 X-30.1318 Y63.3166 
G01 X-30.1318 Y63.6834 
G01 X-29.9915 Y64.0222 
G01 X-29.7322 Y64.2815 
G01 X-29.3934 Y64.4218 
G01 X-29.0266 Y64.4218 
G01 X-28.6878 Y64.2815 
G01 X-28.5776 Y64.1712 
G01 X-28.5269 Y64.1205 
G01 X-28.4999 Y64.1050 
G01 X-28.4649 Y64.0847 
G01 X-28.3957 Y64.0662 
G01 X-16.8214 Y64.0662 
G01 X-16.7522 Y64.0847 
G01 X-16.6902 Y64.1205 
G01 X-14.8007 Y66.0100 
G01 X-14.5926 Y66.0962 
G01 X-9.5361 Y66.0962 
G01 X-9.4669 Y66.1147 
G01 X-9.4049 Y66.1505 
G01 X-9.2231 Y66.3323 
G01 X-9.1725 Y66.3830 
G01 X-9.1367 Y66.4450 
G01 X-9.1181 Y66.5142 
G01 X-9.1181 Y66.5858 
G01 X-9.1367 Y66.6550 
G01 X-9.1725 Y66.7170 
G01 X-9.3543 Y66.8988 
G01 X-9.4049 Y66.9495 
G01 X-9.4669 Y66.9853 
G01 X-9.5361 Y67.0038 
G01 X-14.3426 Y67.0038 
G01 X-14.5507 Y67.0900 
G01 X-15.3695 Y67.9088 
G01 X-15.4202 Y67.9595 
G01 X-15.4822 Y67.9953 
G01 X-15.5514 Y68.0138 
G01 X-28.3957 Y68.0138 
G01 X-28.4649 Y67.9953 
G01 X-28.5015 Y67.9741 
G01 X-28.5269 Y67.9595 
G01 X-28.5304 Y67.9560 
G01 X-28.5776 Y67.9088 
G01 X-28.6878 Y67.7985 
G01 X-29.0266 Y67.6582 
G01 X-29.3934 Y67.6582 
G01 X-29.7322 Y67.7985 
G01 X-29.9915 Y68.0578 
G01 X-30.1318 Y68.3966 
G01 X-30.1318 Y68.7634 
G01 X-29.9915 Y69.1022 
G01 X-29.7322 Y69.3615 
G01 X-29.3934 Y69.5018 
G01 X-29.0266 Y69.5018 
G01 X-28.6878 Y69.3615 
G01 X-28.5776 Y69.2512 
G01 X-28.5269 Y69.2005 
G01 X-28.4999 Y69.1850 
G01 X-28.4649 Y69.1647 
G01 X-28.3957 Y69.1462 
G01 X-15.1274 Y69.1462 
G01 X-14.9193 Y69.0600 
G01 X-14.7471 Y68.8878 
G01 X-14.1005 Y68.2412 
G01 X-14.0498 Y68.1905 
G01 X-13.9878 Y68.1547 
G01 X-13.9186 Y68.1362 
G01 X-9.5361 Y68.1362 
G01 X-9.4669 Y68.1547 
G01 X-9.4049 Y68.1905 
G01 X-9.3543 Y68.2412 
G01 X-9.2231 Y68.3723 
G01 X-9.1725 Y68.4230 
G01 X-9.1367 Y68.4850 
G01 X-9.1181 Y68.5542 
G01 X-9.1181 Y68.6258 
G01 X-9.1367 Y68.6950 
G01 X-9.1725 Y68.7570 
G01 X-9.4745 Y69.0591 
G01 X-9.4912 Y69.0994 
G01 X-9.4959 Y69.1168 
G01 X-9.5049 Y69.1324 
G01 X-9.5118 Y69.1490 
G01 X-9.5227 Y69.1632 
G01 X-9.5317 Y69.1788 
G01 X-9.5444 Y69.1915 
G01 X-9.5554 Y69.2058 
G01 X-9.5696 Y69.2167 
G01 X-9.5823 Y69.2295 
G01 X-9.5979 Y69.2384 
G01 X-9.6122 Y69.2494 
G01 X-9.6288 Y69.2563 
G01 X-9.6444 Y69.2653 
G01 X-9.6617 Y69.2699 
G01 X-9.6783 Y69.2768 
G01 X-9.6962 Y69.2791 
G01 X-9.7135 Y69.2838 
G01 X-9.7315 Y69.2838 
G01 X-9.7494 Y69.2861 
G01 X-9.7672 Y69.2838 
G01 X-14.0826 Y69.2838 
G01 X-14.2907 Y69.3700 
G01 X-14.4629 Y69.5422 
G01 X-15.3695 Y70.4488 
G01 X-15.4202 Y70.4995 
G01 X-15.4822 Y70.5353 
G01 X-15.5514 Y70.5538 
G01 X-24.2426 Y70.5538 
G01 X-24.4507 Y70.6400 
G01 X-24.6229 Y70.8122 
G01 X-26.7995 Y72.9888 
G01 X-26.8502 Y73.0395 
G01 X-26.9122 Y73.0753 
G01 X-26.9814 Y73.0938 
G01 X-28.3957 Y73.0938 
G01 X-28.4649 Y73.0753 
G01 X-28.5015 Y73.0541 
G01 X-28.5269 Y73.0395 
G01 X-28.5304 Y73.0360 
G01 X-28.5776 Y72.9888 
G01 X-28.6878 Y72.8785 
G01 X-29.0266 Y72.7382 
G01 X-29.3934 Y72.7382 
G01 X-29.7322 Y72.8785 
G01 X-29.9915 Y73.1378 
G01 X-30.1318 Y73.4766 
G01 X-30.1318 Y73.8434 
G01 X-30.0788 Y73.9712 
G01 X-30.0698 Y73.9868 
G01 X-30.0652 Y74.0042 
G01 X-30.0583 Y74.0208 
G01 X-30.0560 Y74.0386 
G01 X-30.0513 Y74.0560 
G01 X-30.0513 Y74.0740 
G01 X-30.0490 Y74.0918 
G01 X-30.0513 Y74.1096 
G01 X-30.0513 Y74.1276 
G01 X-30.0559 Y74.1450 
G01 X-30.0583 Y74.1628 
G01 X-30.0652 Y74.1794 
G01 X-30.0698 Y74.1968 
G01 X-30.0788 Y74.2124 
G01 X-30.0857 Y74.2290 
G01 X-30.0967 Y74.2432 
G01 X-30.1056 Y74.2588 
G01 X-30.1184 Y74.2715 
G01 X-30.1293 Y74.2858 
G01 X-30.1436 Y74.2967 
G01 X-30.1563 Y74.3095 
G01 X-30.1719 Y74.3184 
G01 X-30.1861 Y74.3294 
G01 X-30.2027 Y74.3363 
G01 X-30.2183 Y74.3453 
G01 X-30.2357 Y74.3499 
G01 X-30.2523 Y74.3568 
G01 X-30.2701 Y74.3591 
G01 X-30.2875 Y74.3638 
G01 X-30.3055 Y74.3638 
G01 X-30.3233 Y74.3661 
G01 X-30.3411 Y74.3638 
G01 X-30.4861 Y74.3638 
G01 X-30.5553 Y74.3453 
G01 X-30.6173 Y74.3095 
G01 X-31.0788 Y73.8480 
G01 X-31.1295 Y73.7973 
G01 X-31.1653 Y73.7353 
G01 X-31.1838 Y73.6661 
G01 X-31.1838 Y72.3839 
G01 X-31.1653 Y72.3147 
G01 X-31.1295 Y72.2527 
G01 X-30.6680 Y71.7912 
G01 X-30.6173 Y71.7405 
G01 X-30.5553 Y71.7047 
G01 X-30.4861 Y71.6862 
G01 X-30.0243 Y71.6862 
G01 X-29.9551 Y71.7047 
G01 X-29.9185 Y71.7259 
G01 X-29.8931 Y71.7405 
G01 X-29.8896 Y71.7440 
G01 X-29.8424 Y71.7912 
G01 X-29.7322 Y71.9015 
G01 X-29.3934 Y72.0418 
G01 X-29.0266 Y72.0418 
G01 X-28.6878 Y71.9015 
G01 X-28.4285 Y71.6422 
G01 X-28.2882 Y71.3034 
G01 X-28.2882 Y70.9366 
G01 X-28.4285 Y70.5978 
G01 X-28.6878 Y70.3385 
G01 X-29.0266 Y70.1982 
G01 X-29.3934 Y70.1982 
G01 X-29.7322 Y70.3385 
G01 X-29.8424 Y70.4488 
G01 X-29.8931 Y70.4995 
G01 X-29.9201 Y70.5150 
G01 X-29.9551 Y70.5353 
G01 X-30.0243 Y70.5538 
G01 X-30.9101 Y70.5538 
G01 X-31.1182 Y70.6400 
G01 X-31.2904 Y70.8122 
G01 X-32.2300 Y71.7518 
G01 X-32.3162 Y71.9599 
G01 X-32.3162 Y74.0901 
G01 X-32.2300 Y74.2982 
G01 X-32.0578 Y74.4704 
G01 X-31.1182 Y75.4100 
G01 X-30.9101 Y75.4962 
G01 X-30.3411 Y75.4962 
G01 X-30.3233 Y75.4938 
G01 X-30.3055 Y75.4962 
G01 X-30.2875 Y75.4962 
G01 X-30.2701 Y75.5009 
G01 X-30.2523 Y75.5032 
G01 X-30.2357 Y75.5101 
G01 X-30.2183 Y75.5147 
G01 X-30.2027 Y75.5237 
G01 X-30.1861 Y75.5306 
G01 X-30.1719 Y75.5416 
G01 X-30.1563 Y75.5505 
G01 X-30.1436 Y75.5633 
G01 X-30.1293 Y75.5742 
G01 X-30.1184 Y75.5885 
G01 X-30.1056 Y75.6012 
G01 X-30.0967 Y75.6168 
G01 X-30.0857 Y75.6310 
G01 X-30.0788 Y75.6476 
G01 X-30.0698 Y75.6632 
G01 X-30.0652 Y75.6806 
G01 X-30.0583 Y75.6972 
G01 X-30.0559 Y75.7150 
G01 X-30.0513 Y75.7324 
G01 X-30.0513 Y75.7504 
G01 X-30.0490 Y75.7682 
G01 X-30.0513 Y75.7860 
G01 X-30.0513 Y75.8040 
G01 X-30.0560 Y75.8214 
G01 X-30.0583 Y75.8392 
G01 X-30.0652 Y75.8558 
G01 X-30.0698 Y75.8732 
G01 X-30.0788 Y75.8888 
G01 X-30.1318 Y76.0166 
G01 X-30.1318 Y76.3834 
G01 X-29.9947 Y76.7144 
G01 X-29.9857 Y76.7300 
G01 X-29.9810 Y76.7474 
G01 X-29.9741 Y76.7640 
G01 X-29.9718 Y76.7818 
G01 X-29.9671 Y76.7992 
G01 X-29.9671 Y76.8172 
G01 X-29.9648 Y76.8350 
G01 X-29.9671 Y76.8528 
G01 X-29.9671 Y76.8708 
G01 X-29.9718 Y76.8882 
G01 X-29.9741 Y76.9060 
G01 X-29.9810 Y76.9226 
G01 X-29.9857 Y76.9400 
G01 X-29.9947 Y76.9556 
G01 X-30.0015 Y76.9722 
G01 X-30.0125 Y76.9864 
G01 X-30.0215 Y77.0020 
G01 X-30.0342 Y77.0147 
G01 X-30.0451 Y77.0290 
G01 X-30.0594 Y77.0399 
G01 X-30.0721 Y77.0527 
G01 X-30.0877 Y77.0616 
G01 X-30.1020 Y77.0726 
G01 X-30.1186 Y77.0795 
G01 X-30.1341 Y77.0885 
G01 X-30.1515 Y77.0931 
G01 X-30.1681 Y77.1000 
G01 X-30.1860 Y77.1023 
G01 X-30.2033 Y77.1070 
G01 X-30.2213 Y77.1070 
G01 X-30.2391 Y77.1093 
G01 X-30.2570 Y77.1070 
G01 X-43.4030 Y77.1070 
G01 X-43.4209 Y77.1093 
G01 X-43.4387 Y77.1070 
G01 X-43.4567 Y77.1070 
G01 X-43.4740 Y77.1023 
G01 X-43.4919 Y77.1000 
G01 X-43.5085 Y77.0931 
G01 X-43.5259 Y77.0885 
G01 X-43.5414 Y77.0795 
G01 X-43.5580 Y77.0726 
G01 X-43.5723 Y77.0616 
G01 X-43.5879 Y77.0527 
G01 X-43.6006 Y77.0399 
G01 X-43.6149 Y77.0290 
G01 X-43.6258 Y77.0147 
G01 X-43.6385 Y77.0020 
G01 X-43.6475 Y76.9864 
G01 X-43.6585 Y76.9722 
G01 X-43.6653 Y76.9556 
G01 X-43.6743 Y76.9400 
G01 X-43.6790 Y76.9226 
G01 X-43.6859 Y76.9060 
G01 X-43.6882 Y76.8882 
G01 X-43.6929 Y76.8708 
G01 X-43.6929 Y76.8528 
G01 X-43.6952 Y76.8350 
G01 X-43.6929 Y76.8172 
G01 X-43.6929 Y76.7992 
G01 X-43.6882 Y76.7818 
G01 X-43.6859 Y76.7640 
G01 X-43.6790 Y76.7474 
G01 X-43.6743 Y76.7300 
G01 X-43.6653 Y76.7144 
G01 X-43.5282 Y76.3834 
G01 X-43.5282 Y76.0166 
G01 X-43.5812 Y75.8888 
G01 X-43.5902 Y75.8732 
G01 X-43.5948 Y75.8558 
G01 X-43.6017 Y75.8392 
G01 X-43.6040 Y75.8214 
G01 X-43.6087 Y75.8040 
G01 X-43.6087 Y75.7860 
G01 X-43.6110 Y75.7682 
G01 X-43.6087 Y75.7504 
G01 X-43.6087 Y75.7324 
G01 X-43.6040 Y75.7150 
G01 X-43.6017 Y75.6972 
G01 X-43.5948 Y75.6806 
G01 X-43.5902 Y75.6632 
G01 X-43.5812 Y75.6476 
G01 X-43.5743 Y75.6310 
G01 X-43.5633 Y75.6168 
G01 X-43.5544 Y75.6012 
G01 X-43.5416 Y75.5885 
G01 X-43.5307 Y75.5742 
G01 X-43.5164 Y75.5633 
G01 X-43.5037 Y75.5505 
G01 X-43.4881 Y75.5416 
G01 X-43.4739 Y75.5306 
G01 X-43.4573 Y75.5237 
G01 X-43.4417 Y75.5147 
G01 X-43.4243 Y75.5101 
G01 X-43.4077 Y75.5032 
G01 X-43.3899 Y75.5009 
G01 X-43.3725 Y75.4962 
G01 X-43.3545 Y75.4962 
G01 X-43.3367 Y75.4938 
G01 X-43.3189 Y75.4962 
G01 X-41.7974 Y75.4962 
G01 X-41.5893 Y75.4100 
G01 X-40.7004 Y74.5211 
G01 X-40.4775 Y74.2982 
G01 X-40.3913 Y74.0901 
G01 X-40.3913 Y64.3399 
G01 X-40.4775 Y64.1318 
G01 X-41.3664 Y63.2428 
G01 X-41.5893 Y63.0200 
G01 X-41.7974 Y62.9338 
G01 X-43.6357 Y62.9338 
G01 X-43.7049 Y62.9153 
G01 X-43.7669 Y62.8795 
G01 X-43.9278 Y62.7185 
G01 X-44.2666 Y62.5782 
G01 X-44.6334 Y62.5782 
G01 X-44.9722 Y62.7185 
G01 X-45.2315 Y62.9778 
G01 X-45.3718 Y63.3166 
G01 X-45.3718 Y63.6834 
G01 X-45.2315 Y64.0222 
G01 X-44.9722 Y64.2815 
G01 X-44.6334 Y64.4218 
G01 X-44.2666 Y64.4218 
G01 X-43.9278 Y64.2815 
G01 X-43.8176 Y64.1712 
G01 X-43.7669 Y64.1205 
G01 X-43.7049 Y64.0847 
G01 X-43.6357 Y64.0662 
G01 X-42.2214 Y64.0662 
G01 X-42.1522 Y64.0847 
G01 X-42.0902 Y64.1205 
G01 X-41.6287 Y64.5820 
G01 X-41.5780 Y64.6327 
G01 X-41.5422 Y64.6947 
G01 X-41.5237 Y64.7639 
G01 X-41.5237 Y68.8147 
G01 X-41.5422 Y68.8839 
G01 X-41.5780 Y68.9459 
G01 X-41.6279 Y68.9958 
G01 X-41.6907 Y69.0324 
G01 X-41.7599 Y69.0509 
G01 X-41.8315 Y69.0509 
G01 X-41.9007 Y69.0324 
G01 X-41.9627 Y68.9966 
G01 X-42.0134 Y68.9459 
G01 X-42.8593 Y68.1000 
G01 X-43.0674 Y68.0138 
G01 X-43.6357 Y68.0138 
G01 X-43.7049 Y67.9953 
G01 X-43.7669 Y67.9595 
G01 X-43.9278 Y67.7985 
G01 X-44.2666 Y67.6582 
G01 X-44.6334 Y67.6582 
G01 X-44.9722 Y67.7985 
G01 X-45.2315 Y68.0578 
G01 X-45.3718 Y68.3966 
G01 X-45.3718 Y68.7634 
G01 X-45.2315 Y69.1022 
G01 X-44.9722 Y69.3615 
G01 X-44.6334 Y69.5018 
G01 X-44.2666 Y69.5018 
G01 X-43.9278 Y69.3615 
G01 X-43.8176 Y69.2512 
G01 X-43.7669 Y69.2005 
G01 X-43.7049 Y69.1647 
G01 X-43.6357 Y69.1462 
G01 X-43.4914 Y69.1462 
G01 X-43.4222 Y69.1647 
G01 X-43.3602 Y69.2005 
G01 X-42.8987 Y69.6620 
G01 X-42.8480 Y69.7127 
G01 X-42.8122 Y69.7747 
G01 X-42.7937 Y69.8439 
G01 X-42.7937 Y71.1261 
G01 X-42.7985 Y71.1439 
G01 X-42.8122 Y71.1953 
G01 X-42.8480 Y71.2573 
G01 X-43.0385 Y71.4478 
G01 X-43.0892 Y71.4985 
G01 X-43.1512 Y71.5343 
G01 X-43.1542 Y71.5351 
G01 X-43.2204 Y71.5528 
G01 X-43.2920 Y71.5528 
G01 X-43.3113 Y71.5476 
G01 X-43.3612 Y71.5343 
G01 X-43.4213 Y71.4995 
G01 X-43.4739 Y71.4478 
G01 X-43.5097 Y71.3858 
G01 X-43.5104 Y71.3829 
G01 X-43.5282 Y71.3166 
G01 X-43.5282 Y70.9366 
G01 X-43.6685 Y70.5978 
G01 X-43.9278 Y70.3385 
G01 X-44.2666 Y70.1982 
G01 X-44.6334 Y70.1982 
G01 X-44.9722 Y70.3385 
G01 X-45.0824 Y70.4488 
G01 X-45.1331 Y70.4995 
G01 X-45.1951 Y70.5353 
G01 X-45.2643 Y70.5538 
G01 X-46.6786 Y70.5538 
G01 X-46.7478 Y70.5353 
G01 X-46.8098 Y70.4995 
G01 X-48.9864 Y68.3229 
G01 X-49.2093 Y68.1000 
G01 X-49.4174 Y68.0138 
G01 X-83.5086 Y68.0138 
G01 X-83.5778 Y67.9953 
G01 X-83.6398 Y67.9595 
G01 X-85.8164 Y65.7828 
G01 X-86.0393 Y65.5600 
G01 X-86.2474 Y65.4738 
G01 X-90.8039 Y65.4738 
G01 X-90.8731 Y65.4553 
G01 X-90.9351 Y65.4195 
G01 X-91.1069 Y65.2477 
G01 X-91.1575 Y65.1970 
G01 X-91.1933 Y65.1350 
G01 X-91.2119 Y65.0658 
G01 X-91.2119 Y64.9942 
G01 X-91.1933 Y64.9250 
G01 X-91.1575 Y64.8630 
G01 X-91.1007 Y64.8062 
G01 X-91.0501 Y64.7555 
G01 X-90.9881 Y64.7197 
G01 X-90.9189 Y64.7012 
G01 X-86.0364 Y64.7012 
G01 X-85.9672 Y64.7197 
G01 X-85.9052 Y64.7555 
G01 X-84.1407 Y66.5200 
G01 X-83.9326 Y66.6062 
G01 X-45.2643 Y66.6062 
G01 X-45.1951 Y66.6247 
G01 X-45.1331 Y66.6605 
G01 X-44.9722 Y66.8215 
G01 X-44.6334 Y66.9618 
G01 X-44.2666 Y66.9618 
G01 X-43.9278 Y66.8215 
G01 X-43.6685 Y66.5622 
G01 X-43.5282 Y66.2234 
G01 X-43.5282 Y65.8566 
G01 X-43.6685 Y65.5178 
G01 X-43.9278 Y65.2585 
G01 X-44.2666 Y65.1182 
G01 X-44.6334 Y65.1182 
G01 X-44.9722 Y65.2585 
G01 X-45.0824 Y65.3688 
G01 X-45.1331 Y65.4195 
G01 X-45.1951 Y65.4553 
G01 X-45.2643 Y65.4738 
G01 X-83.5086 Y65.4738 
G01 X-83.5778 Y65.4553 
G01 X-83.6398 Y65.4195 
G01 X-85.1814 Y63.8779 
G01 X-85.4043 Y63.6550 
G01 X-85.6124 Y63.5688 
G01 X-90.6689 Y63.5688 
G01 X-90.6866 Y63.5640 
G01 X-90.7381 Y63.5503 
G01 X-90.8001 Y63.5145 
G01 X-91.1575 Y63.1570 
G01 X-91.1933 Y63.0950 
G01 X-91.2119 Y63.0258 
G01 X-91.2119 Y62.9542 
G01 X-91.1933 Y62.8850 
G01 X-91.1575 Y62.8230 
G01 X-91.1069 Y62.7723 
G01 X-90.9182 Y62.5837 
G01 X-90.8676 Y62.5330 
G01 X-90.8056 Y62.4972 
G01 X-90.7364 Y62.4787 
G01 X-85.9299 Y62.4787 
G01 X-85.7218 Y62.3925 
G01 X-85.5496 Y62.2203 
G01 X-84.9605 Y61.6312 
G01 X-84.9098 Y61.5805 
G01 X-84.8478 Y61.5447 
G01 X-84.7786 Y61.5262 
G01 X-45.2643 Y61.5262 
G01 X-45.1951 Y61.5447 
G01 X-45.1331 Y61.5805 
G01 X-44.9722 Y61.7415 
G01 X-44.6334 Y61.8818 
G01 X-44.2666 Y61.8818 
G01 X-43.9278 Y61.7415 
G01 X-43.6685 Y61.4822 
G01 X-43.5282 Y61.1434 
G01 X-43.5282 Y60.7766 
G01 X-43.6685 Y60.4378 
G01 X-43.9278 Y60.1785 
G01 X-44.2666 Y60.0382 
G01 X-44.6334 Y60.0382 
G01 X-44.9722 Y60.1785 
G01 X-45.0824 Y60.2888 
G01 X-45.1331 Y60.3395 
G01 X-45.1951 Y60.3753 
G01 X-45.2643 Y60.3938 
G01 X-85.2026 Y60.3938 
G01 X-85.4107 Y60.4800 
G01 X-86.1720 Y61.2413 
G01 X-86.2227 Y61.2920 
G01 X-86.2847 Y61.3278 
G01 X-86.3539 Y61.3463 
G01 X-90.8514 Y61.3463 
G01 X-90.8691 Y61.3415 
G01 X-90.9206 Y61.3278 
G01 X-90.9476 Y61.3122 
G01 X-90.9826 Y61.2920 
G01 X-91.0332 Y61.2413 
G01 X-91.1069 Y61.1677 
G01 X-91.1575 Y61.1170 
G01 X-91.1731 Y61.0900 
G01 X-91.1933 Y61.0550 
G01 X-91.2119 Y60.9858 
G01 X-91.2119 Y60.9142 
G01 X-91.2067 Y60.8949 
G01 X-91.1933 Y60.8450 
G01 X-91.1787 Y60.8196 
G01 X-91.1575 Y60.7830 
G01 X-90.8555 Y60.4809 
G01 X-90.8388 Y60.4406 
G01 X-90.8341 Y60.4232 
G01 X-90.8251 Y60.4076 
G01 X-90.8182 Y60.3910 
G01 X-90.8073 Y60.3768 
G01 X-90.7983 Y60.3612 
G01 X-90.7856 Y60.3485 
G01 X-90.7746 Y60.3342 
G01 X-90.7604 Y60.3233 
G01 X-90.7476 Y60.3105 
G01 X-90.7321 Y60.3016 
G01 X-90.7178 Y60.2906 
G01 X-90.7012 Y60.2837 
G01 X-90.6856 Y60.2747 
G01 X-90.6683 Y60.2701 
G01 X-90.6516 Y60.2632 
G01 X-90.6338 Y60.2609 
G01 X-90.6164 Y60.2562 
G01 X-90.5985 Y60.2562 
G01 X-90.5806 Y60.2538 
G01 X-90.5628 Y60.2562 
G01 X-86.2474 Y60.2562 
G01 X-86.0393 Y60.1700 
G01 X-85.8671 Y59.9978 
G01 X-84.9605 Y59.0912 
G01 X-84.9098 Y59.0405 
G01 X-84.8478 Y59.0047 
G01 X-84.7786 Y58.9862 
G01 X-49.4174 Y58.9862 
G01 X-49.2093 Y58.9000 
G01 X-49.0371 Y58.7278 
G01 X-48.9864 Y58.6771 
G01 X-46.8605 Y56.5512 
G01 X-46.8098 Y56.5005 
G01 X-46.7478 Y56.4647 
G01 X-46.6786 Y56.4462 
G01 X-45.2643 Y56.4462 
G01 X-45.1951 Y56.4647 
G01 X-45.1331 Y56.5005 
G01 X-45.0824 Y56.5512 
G01 X-44.9722 Y56.6615 
G01 X-44.6334 Y56.8018 
G01 X-44.2666 Y56.8018 
G01 X-43.9278 Y56.6615 
G01 X-43.6685 Y56.4022 
G01 X-43.5282 Y56.0634 
G01 X-43.5282 Y55.6966 
G01 X-43.5812 Y55.5688 
G01 X-43.5902 Y55.5532 
G01 X-43.5948 Y55.5358 
G01 X-43.6017 Y55.5192 
G01 X-43.6040 Y55.5014 
G01 X-43.6087 Y55.4840 
G01 X-43.6087 Y55.4660 
G01 X-43.6110 Y55.4482 
G01 X-43.6087 Y55.4304 
G01 X-43.6087 Y55.4124 
G01 X-43.6040 Y55.3950 
G01 X-43.6017 Y55.3772 
G01 X-43.5948 Y55.3606 
G01 X-43.5902 Y55.3432 
G01 X-43.5812 Y55.3276 
G01 X-43.5743 Y55.3110 
G01 X-43.5633 Y55.2968 
G01 X-43.5544 Y55.2812 
G01 X-43.5416 Y55.2685 
G01 X-43.5307 Y55.2542 
G01 X-43.5164 Y55.2433 
G01 X-43.5037 Y55.2305 
G01 X-43.4881 Y55.2216 
G01 X-43.4739 Y55.2106 
G01 X-43.4573 Y55.2037 
G01 X-43.4417 Y55.1947 
G01 X-43.4243 Y55.1901 
G01 X-43.4077 Y55.1832 
G01 X-43.3899 Y55.1809 
G01 X-43.3725 Y55.1762 
G01 X-43.3545 Y55.1762 
G01 X-43.3367 Y55.1739 
G01 X-43.3189 Y55.1762 
G01 X-43.1739 Y55.1762 
G01 X-43.1047 Y55.1947 
G01 X-43.0427 Y55.2305 
G01 X-42.5812 Y55.6920 
G01 X-42.5305 Y55.7427 
G01 X-42.4947 Y55.8047 
G01 X-42.4762 Y55.8739 
G01 X-42.4762 Y57.1561 
G01 X-42.4947 Y57.2253 
G01 X-42.5305 Y57.2873 
G01 X-42.9920 Y57.7488 
G01 X-43.0427 Y57.7995 
G01 X-43.1047 Y57.8353 
G01 X-43.1739 Y57.8538 
G01 X-43.6357 Y57.8538 
G01 X-43.7049 Y57.8353 
G01 X-43.7669 Y57.7995 
G01 X-43.9278 Y57.6385 
G01 X-44.2666 Y57.4982 
G01 X-44.6334 Y57.4982 
G01 X-44.9722 Y57.6385 
G01 X-45.2315 Y57.8978 
G01 X-45.3718 Y58.2366 
G01 X-45.3718 Y58.6034 
G01 X-45.2315 Y58.9422 
G01 X-44.9722 Y59.2015 
G01 X-44.6334 Y59.3418 
G01 X-44.2666 Y59.3418 
G01 X-43.9278 Y59.2015 
G01 X-43.8176 Y59.0912 
G01 X-43.7669 Y59.0405 
G01 X-43.7049 Y59.0047 
G01 X-43.6357 Y58.9862 
G01 X-42.7499 Y58.9862 
G01 X-42.5418 Y58.9000 
G01 X-41.6529 Y58.0111 
G01 X-41.4300 Y57.7882 
G01 X-41.3438 Y57.5801 
G01 X-41.3438 Y55.4499 
G01 X-41.4300 Y55.2418 
G01 X-42.3189 Y54.3528 
G01 X-42.5418 Y54.1300 
G01 X-42.7499 Y54.0438 
G01 X-43.4941 Y54.0438 
G01 X-43.5228 Y54.0453 
G01 X-43.5298 Y54.0438 
G01 X-43.5370 Y54.0438 
G01 X-43.5647 Y54.0364 
G01 X-43.5928 Y54.0304 
G01 X-43.5992 Y54.0271 
G01 X-43.6062 Y54.0253 
G01 X-43.6310 Y54.0109 
G01 X-43.6566 Y53.9979 
G01 X-43.6620 Y53.9931 
G01 X-43.6682 Y53.9895 
G01 X-43.6885 Y53.9692 
G01 X-43.7098 Y53.9500 
G01 X-43.7138 Y53.9439 
G01 X-43.7189 Y53.9388 
G01 X-43.7332 Y53.9140 
G01 X-43.7488 Y53.8899 
G01 X-43.7511 Y53.8830 
G01 X-43.7547 Y53.8768 
G01 X-43.7621 Y53.8491 
G01 X-43.7710 Y53.8218 
G01 X-43.7713 Y53.8146 
G01 X-43.7732 Y53.8076 
G01 X-43.7732 Y53.7789 
G01 X-43.8244 Y53.8534 
G01 X-43.9366 Y53.9656 
G01 X-44.0685 Y54.0537 
G01 X-44.2151 Y54.1144 
G01 X-44.3707 Y54.1454 
G01 X-44.5293 Y54.1454 
G01 X-44.6849 Y54.1144 
G01 X-44.8315 Y54.0537 
G01 X-44.9634 Y53.9656 
G01 X-45.0756 Y53.8534 
G01 X-45.1267 Y53.7770 
G01 X-45.1268 Y53.8076 
G01 X-45.1286 Y53.8146 
G01 X-45.1290 Y53.8218 
G01 X-45.1379 Y53.8491 
G01 X-45.1453 Y53.8768 
G01 X-45.1489 Y53.8830 
G01 X-45.1511 Y53.8899 
G01 X-45.1668 Y53.9140 
G01 X-45.1811 Y53.9388 
G01 X-45.1862 Y53.9439 
G01 X-45.1902 Y53.9500 
G01 X-45.2115 Y53.9692 
G01 X-45.2318 Y53.9895 
G01 X-45.2380 Y53.9931 
G01 X-45.2434 Y53.9979 
G01 X-45.2690 Y54.0109 
G01 X-45.2938 Y54.0253 
G01 X-45.3007 Y54.0271 
G01 X-45.3072 Y54.0304 
G01 X-45.3353 Y54.0364 
G01 X-45.3630 Y54.0438 
G01 X-45.3702 Y54.0438 
G01 X-45.3772 Y54.0453 
G01 X-45.4059 Y54.0438 
G01 X-48.3726 Y54.0438 
G01 X-48.5807 Y54.1300 
G01 X-50.2945 Y55.8438 
G01 X-50.3452 Y55.8945 
G01 X-50.4072 Y55.9303 
G01 X-50.4764 Y55.9488 
G01 X-85.8376 Y55.9488 
G01 X-86.0457 Y56.0350 
G01 X-87.1245 Y57.1138 
G01 X-87.1752 Y57.1645 
G01 X-87.2372 Y57.2003 
G01 X-87.3064 Y57.2188 
G01 X-91.4761 Y57.2188 
G01 X-91.4903 Y57.2210 
G01 X-91.5118 Y57.2188 
G01 X-91.5333 Y57.2188 
G01 X-91.5472 Y57.2151 
G01 X-91.5616 Y57.2136 
G01 X-91.5817 Y57.2058 
G01 X-91.6025 Y57.2003 
G01 X-91.6150 Y57.1931 
G01 X-91.6284 Y57.1879 
G01 X-91.6459 Y57.1752 
G01 X-91.6645 Y57.1645 
G01 X-91.6747 Y57.1543 
G01 X-91.6800 Y57.1504 
G01 X-91.6853 Y57.1543 
G01 X-91.6955 Y57.1645 
G01 X-91.7141 Y57.1752 
G01 X-91.7316 Y57.1879 
G01 X-91.7450 Y57.1931 
G01 X-91.7575 Y57.2003 
G01 X-91.7783 Y57.2058 
G01 X-91.7984 Y57.2136 
G01 X-91.8127 Y57.2151 
G01 X-91.8267 Y57.2188 
G01 X-91.8482 Y57.2188 
G01 X-91.8696 Y57.2210 
G01 X-91.8839 Y57.2188 
G01 X-92.8226 Y57.2188 
G01 X-93.0307 Y57.3050 
G01 X-94.5546 Y58.8289 
G01 X-94.7775 Y59.0518 
G01 X-94.8637 Y59.2599 
G01 X-94.8637 Y60.1414 
G01 X-94.8822 Y60.2106 
G01 X-94.9034 Y60.2472 
G01 X-94.9180 Y60.2726 
G01 X-94.9687 Y60.3232 
G01 X-95.0445 Y60.3991 
G01 X-95.1926 Y60.7565 
G01 X-95.1926 Y61.1435 
G01 X-95.0445 Y61.5009 
G01 X-94.7931 Y61.7523 
G01 X-94.7425 Y61.8030 
G01 X-94.7067 Y61.8650 
G01 X-94.6929 Y61.9164 
G01 X-94.6881 Y61.9342 
G01 X-94.6881 Y62.0058 
G01 X-94.7067 Y62.0750 
G01 X-94.7425 Y62.1370 
G01 X-94.7461 Y62.1406 
G01 X-94.7931 Y62.1877 
G01 X-94.9713 Y62.3658 
G01 X-94.9749 Y62.3695 
G01 X-95.0369 Y62.4053 
G01 X-95.0868 Y62.4186 
G01 X-95.1061 Y62.4238 
G01 X-95.1701 Y62.4238 
G01 X-95.3782 Y62.5100 
G01 X-96.1421 Y63.2739 
G01 X-96.3650 Y63.4968 
G01 X-96.4512 Y63.7049 
G01 X-96.4512 Y68.0576 
G01 X-96.3650 Y68.2657 
G01 X-95.6963 Y68.9344 
G01 X-95.6820 Y68.9454 
G01 X-95.6710 Y68.9597 
G01 X-95.6583 Y68.9724 
G01 X-95.6494 Y68.9879 
G01 X-95.6384 Y69.0022 
G01 X-95.6315 Y69.0188 
G01 X-95.6225 Y69.0344 
G01 X-95.6179 Y69.0518 
G01 X-95.6110 Y69.0684 
G01 X-95.6087 Y69.0862 
G01 X-95.6040 Y69.1036 
G01 X-95.6040 Y69.1216 
G01 X-95.6017 Y69.1394 
G01 X-95.6040 Y69.1572 
G01 X-95.6040 Y69.1752 
G01 X-95.6087 Y69.1926 
G01 X-95.6110 Y69.2104 
G01 X-95.6179 Y69.2270 
G01 X-95.6225 Y69.2444 
G01 X-95.6315 Y69.2600 
G01 X-95.6384 Y69.2766 
G01 X-95.6493 Y69.2908 
G01 X-95.6583 Y69.3064 
G01 X-95.6711 Y69.3191 
G01 X-95.6820 Y69.3334 
G01 X-95.6963 Y69.3443 
G01 X-95.7090 Y69.3570 
G01 X-95.7245 Y69.3660 
G01 X-95.7388 Y69.3770 
G01 X-95.7555 Y69.3839 
G01 X-95.7710 Y69.3928 
G01 X-95.7884 Y69.3975 
G01 X-95.8050 Y69.4044 
G01 X-95.8228 Y69.4067 
G01 X-95.8402 Y69.4114 
G01 X-95.8582 Y69.4114 
G01 X-95.8760 Y69.4137 
G01 X-95.8938 Y69.4114 
G01 X-95.9118 Y69.4114 
G01 X-95.9292 Y69.4067 
G01 X-95.9470 Y69.4044 
G01 X-95.9636 Y69.3975 
G01 X-95.9810 Y69.3928 
G01 X-95.9966 Y69.3838 
G01 X-96.1942 Y69.3020 
G01 X-96.8458 Y69.3020 
G01 X-97.4478 Y69.5514 
G01 X-97.5850 Y69.6886 
G01 X-97.6357 Y69.7392 
G01 X-97.6977 Y69.7750 
G01 X-97.7007 Y69.7758 
G01 X-97.7669 Y69.7936 
G01 X-97.8385 Y69.7936 
G01 X-97.8578 Y69.7884 
G01 X-97.9077 Y69.7750 
G01 X-97.9678 Y69.7403 
G01 X-98.0204 Y69.6886 
G01 X-98.0562 Y69.6265 
G01 X-98.0569 Y69.6236 
G01 X-98.0747 Y69.5574 
G01 X-98.0747 Y57.4426 
G01 X-98.0562 Y57.3734 
G01 X-98.0204 Y57.3114 
G01 X-97.9697 Y57.2608 
G01 X-97.9077 Y57.2250 
G01 X-97.8563 Y57.2112 
G01 X-97.8385 Y57.2064 
G01 X-97.7669 Y57.2064 
G01 X-97.6977 Y57.2250 
G01 X-97.6357 Y57.2608 
G01 X-97.6318 Y57.2647 
G01 X-97.5850 Y57.3114 
G01 X-97.4478 Y57.4486 
G01 X-96.8458 Y57.6980 
G01 X-96.1942 Y57.6980 
G01 X-95.5921 Y57.4486 
G01 X-95.1314 Y56.9879 
G01 X-94.8820 Y56.3858 
G01 X-94.8820 Y55.7342 
G01 X-95.1314 Y55.1321 
G01 X-95.5921 Y54.6714 
G01 X-96.1942 Y54.4220 
G01 X-96.8458 Y54.4220 
G01 X-97.4478 Y54.6714 
G01 X-97.5850 Y54.8086 
G01 X-97.6357 Y54.8592 
G01 X-97.6977 Y54.8950 
G01 X-97.7007 Y54.8958 
G01 X-97.7669 Y54.9136 
G01 X-97.8385 Y54.9136 
G01 X-97.8578 Y54.9084 
G01 X-97.9077 Y54.8950 
G01 X-97.9678 Y54.8603 
G01 X-98.0204 Y54.8086 
G01 X-98.0562 Y54.7465 
G01 X-98.0569 Y54.7436 
G01 X-98.0747 Y54.6774 
G01 X-98.0747 Y50.8360 
G01 X-98.0562 Y50.7668 
G01 X-98.0204 Y50.7048 
G01 X-97.3009 Y49.9853 
G01 X-97.2502 Y49.9346 
G01 X-97.1882 Y49.8988 
G01 X-97.1190 Y49.8803 
G01 X-94.9685 Y49.8803 
G01 X-94.8993 Y49.8988 
G01 X-94.8373 Y49.9346 
G01 X-93.9747 Y50.7972 
G01 X-93.9241 Y50.8478 
G01 X-93.7233 Y51.0486 
G01 X-93.4778 Y51.1503 
G01 X-77.5060 Y51.1503 
G01 X-77.4368 Y51.1688 
G01 X-77.3748 Y51.2046 
G01 X-76.5122 Y52.0672 
G01 X-76.2608 Y52.3186 
G01 X-76.0153 Y52.4203 
G01 X-71.8327 Y52.4203 
G01 X-71.7635 Y52.4388 
G01 X-71.7015 Y52.4746 
G01 X-71.6422 Y52.5340 
G01 X-71.3034 Y52.6743 
G01 X-70.9366 Y52.6743 
G01 X-70.5978 Y52.5340 
G01 X-70.5892 Y52.5253 
G01 X-70.5385 Y52.4746 
G01 X-70.4765 Y52.4388 
G01 X-70.4073 Y52.4203 
G01 X-67.4947 Y52.4203 
G01 X-67.2492 Y52.3186 
G01 X-66.0428 Y51.1122 
G01 X-65.7914 Y50.8608 
G01 X-65.6897 Y50.6153 
G01 X-65.6897 Y29.8810 
G01 X-65.6712 Y29.8118 
G01 X-65.6354 Y29.7498 
G01 X-64.2809 Y28.3953 
G01 X-64.2302 Y28.3446 
G01 X-64.1682 Y28.3088 
G01 X-64.0990 Y28.2903 
G01 X-57.3347 Y28.2903 
G01 X-57.1558 Y28.2162 
G01 X-57.1403 Y28.2072 
G01 X-57.1229 Y28.2026 
G01 X-57.1063 Y28.1957 
G01 X-57.0884 Y28.1933 
G01 X-57.0711 Y28.1887 
G01 X-57.0531 Y28.1887 
G01 X-57.0353 Y28.1864 
G01 X-57.0174 Y28.1887 
G01 X-57.0111 Y28.1887 
G01 X-56.9933 Y28.1864 
G01 X-56.9755 Y28.1887 
G01 X-56.9575 Y28.1887 
G01 X-56.9401 Y28.1934 
G01 X-56.9223 Y28.1957 
G01 X-56.9057 Y28.2026 
G01 X-56.8883 Y28.2072 
G01 X-56.8727 Y28.2162 
G01 X-56.8561 Y28.2231 
G01 X-56.8419 Y28.2341 
G01 X-56.8263 Y28.2430 
G01 X-56.8136 Y28.2558 
G01 X-56.7993 Y28.2667 
G01 X-56.7884 Y28.2810 
G01 X-56.7756 Y28.2937 
G01 X-56.7666 Y28.3093 
G01 X-56.7557 Y28.3235 
G01 X-56.7488 Y28.3401 
G01 X-56.7398 Y28.3557 
G01 X-56.7352 Y28.3731 
G01 X-56.7283 Y28.3897 
G01 X-56.7259 Y28.4075 
G01 X-56.7213 Y28.4249 
G01 X-56.7213 Y28.4429 
G01 X-56.7189 Y28.4607 
G01 X-56.7213 Y28.4785 
G01 X-56.7213 Y28.4965 
G01 X-56.7260 Y28.5139 
G01 X-56.7283 Y28.5317 
G01 X-56.7352 Y28.5483 
G01 X-56.7398 Y28.5657 
G01 X-56.7488 Y28.5813 
G01 X-56.8018 Y28.7091 
G01 X-56.8018 Y29.0759 
G01 X-56.7488 Y29.2037 
G01 X-56.7398 Y29.2193 
G01 X-56.7352 Y29.2367 
G01 X-56.7283 Y29.2533 
G01 X-56.7260 Y29.2711 
G01 X-56.7213 Y29.2885 
G01 X-56.7213 Y29.3065 
G01 X-56.7189 Y29.3243 
G01 X-56.7213 Y29.3421 
G01 X-56.7213 Y29.3601 
G01 X-56.7259 Y29.3775 
G01 X-56.7283 Y29.3953 
G01 X-56.7352 Y29.4119 
G01 X-56.7398 Y29.4293 
G01 X-56.7488 Y29.4449 
G01 X-56.7557 Y29.4615 
G01 X-56.7666 Y29.4757 
G01 X-56.7756 Y29.4913 
G01 X-56.7884 Y29.5040 
G01 X-56.7993 Y29.5183 
G01 X-56.8136 Y29.5292 
G01 X-56.8263 Y29.5420 
G01 X-56.8419 Y29.5509 
G01 X-56.8561 Y29.5619 
G01 X-56.8727 Y29.5688 
G01 X-56.8883 Y29.5778 
G01 X-56.9057 Y29.5824 
G01 X-56.9223 Y29.5893 
G01 X-56.9401 Y29.5916 
G01 X-56.9575 Y29.5963 
G01 X-56.9755 Y29.5963 
G01 X-56.9933 Y29.5986 
G01 X-57.0111 Y29.5963 
G01 X-57.8976 Y29.5963 
G01 X-58.1057 Y29.6825 
G01 X-58.9946 Y30.5714 
G01 X-59.2175 Y30.7943 
G01 X-59.3037 Y31.0024 
G01 X-59.3037 Y40.7526 
G01 X-59.2175 Y40.9607 
G01 X-58.3286 Y41.8496 
G01 X-58.1057 Y42.0725 
G01 X-57.8976 Y42.1587 
G01 X-56.6943 Y42.1587 
G01 X-56.6251 Y42.1772 
G01 X-56.5885 Y42.1984 
G01 X-56.5631 Y42.2130 
G01 X-56.5596 Y42.2165 
G01 X-56.5124 Y42.2637 
G01 X-56.4022 Y42.3740 
G01 X-56.0634 Y42.5143 
G01 X-55.6966 Y42.5143 
G01 X-55.3578 Y42.3740 
G01 X-55.0985 Y42.1147 
G01 X-54.9582 Y41.7759 
G01 X-54.9582 Y41.4091 
G01 X-55.0985 Y41.0703 
G01 X-55.3578 Y40.8110 
G01 X-55.6966 Y40.6707 
G01 X-56.0634 Y40.6707 
G01 X-56.4022 Y40.8110 
G01 X-56.5124 Y40.9213 
G01 X-56.5631 Y40.9720 
G01 X-56.5901 Y40.9875 
G01 X-56.6251 Y41.0078 
G01 X-56.6943 Y41.0263 
G01 X-57.4736 Y41.0263 
G01 X-57.5428 Y41.0078 
G01 X-57.6048 Y40.9720 
G01 X-58.0663 Y40.5105 
G01 X-58.1170 Y40.4598 
G01 X-58.1528 Y40.3978 
G01 X-58.1713 Y40.3286 
G01 X-58.1713 Y36.5953 
G01 X-58.1528 Y36.5261 
G01 X-58.1170 Y36.4641 
G01 X-58.0663 Y36.4134 
G01 X-58.0043 Y36.3776 
G01 X-57.9351 Y36.3591 
G01 X-57.8635 Y36.3591 
G01 X-57.7943 Y36.3776 
G01 X-57.7323 Y36.4134 
G01 X-57.7259 Y36.4198 
G01 X-57.6816 Y36.4641 
G01 X-57.3318 Y36.8139 
G01 X-57.1532 Y36.9925 
G01 X-56.9451 Y37.0787 
G01 X-56.6943 Y37.0787 
G01 X-56.6251 Y37.0972 
G01 X-56.5885 Y37.1184 
G01 X-56.5631 Y37.1330 
G01 X-56.5596 Y37.1365 
G01 X-56.5124 Y37.1837 
G01 X-56.4022 Y37.2940 
G01 X-56.0634 Y37.4343 
G01 X-55.6966 Y37.4343 
G01 X-55.3578 Y37.2940 
G01 X-55.0985 Y37.0347 
G01 X-54.9582 Y36.6959 
G01 X-54.9582 Y36.3291 
G01 X-55.0985 Y35.9903 
G01 X-55.3578 Y35.7310 
G01 X-55.6966 Y35.5907 
G01 X-56.0634 Y35.5907 
G01 X-56.4021 Y35.7310 
G01 X-56.4155 Y35.7444 
G01 X-56.4407 Y35.7696 
G01 X-56.4789 Y35.7916 
G01 X-56.5027 Y35.8054 
G01 X-56.5423 Y35.8160 
G01 X-56.5719 Y35.8239 
G01 X-56.6081 Y35.8239 
G01 X-56.6435 Y35.8239 
G01 X-56.6927 Y35.8107 
G01 X-56.7127 Y35.8054 
G01 X-56.7561 Y35.7803 
G01 X-56.7747 Y35.7696 
G01 X-56.8015 Y35.7427 
G01 X-56.8253 Y35.7189 
G01 X-56.8470 Y35.6973 
G01 X-56.8532 Y35.6865 
G01 X-56.8828 Y35.6353 
G01 X-56.8956 Y35.5875 
G01 X-56.9013 Y35.5661 
G01 X-56.9013 Y35.5307 
G01 X-56.9013 Y34.8757 
G01 X-56.8828 Y34.8065 
G01 X-56.8619 Y34.7703 
G01 X-56.8470 Y34.7445 
G01 X-56.7963 Y34.6938 
G01 X-56.7495 Y34.6668 
G01 X-56.7343 Y34.6580 
G01 X-56.7014 Y34.6492 
G01 X-56.6651 Y34.6395 
G01 X-56.5935 Y34.6395 
G01 X-56.5243 Y34.6580 
G01 X-56.4881 Y34.6789 
G01 X-56.4623 Y34.6938 
G01 X-56.4116 Y34.7445 
G01 X-56.4022 Y34.7540 
G01 X-56.0634 Y34.8943 
G01 X-55.6966 Y34.8943 
G01 X-55.3578 Y34.7540 
G01 X-55.2476 Y34.6437 
G01 X-55.1969 Y34.5930 
G01 X-55.1699 Y34.5775 
G01 X-55.1349 Y34.5572 
G01 X-55.0657 Y34.5387 
G01 X-52.6989 Y34.5387 
G01 X-52.6297 Y34.5572 
G01 X-52.5677 Y34.5930 
G01 X-48.5907 Y38.5700 
G01 X-48.3826 Y38.6562 
G01 X-9.5361 Y38.6562 
G01 X-9.5184 Y38.6610 
G01 X-9.4669 Y38.6747 
G01 X-9.4049 Y38.7105 
G01 X-9.1725 Y38.9430 
G01 X-9.1367 Y39.0050 
G01 X-9.1181 Y39.0742 
G01 X-9.1181 Y39.1458 
G01 X-9.1367 Y39.2150 
G01 X-9.1725 Y39.2770 
G01 X-9.2231 Y39.3276 
G01 X-9.3543 Y39.4588 
G01 X-9.4049 Y39.5095 
G01 X-9.4669 Y39.5453 
G01 X-9.5361 Y39.5638 
G01 X-48.4586 Y39.5638 
G01 X-48.5278 Y39.5453 
G01 X-48.5898 Y39.5095 
G01 X-49.3039 Y38.7953 
G01 X-49.5268 Y38.5725 
G01 X-49.7349 Y38.4863 
G01 X-55.0657 Y38.4863 
G01 X-55.1349 Y38.4678 
G01 X-55.1715 Y38.4466 
G01 X-55.1969 Y38.4320 
G01 X-55.2004 Y38.4284 
G01 X-55.2476 Y38.3813 
G01 X-55.3578 Y38.2710 
G01 X-55.6966 Y38.1307 
G01 X-56.0634 Y38.1307 
G01 X-56.4022 Y38.2710 
G01 X-56.6615 Y38.5303 
G01 X-56.8018 Y38.8691 
G01 X-56.8018 Y39.2359 
G01 X-56.6615 Y39.5747 
G01 X-56.4022 Y39.8340 
G01 X-56.0634 Y39.9743 
G01 X-55.6966 Y39.9743 
G01 X-55.3578 Y39.8340 
G01 X-55.2476 Y39.7237 
G01 X-55.1969 Y39.6730 
G01 X-55.1699 Y39.6575 
G01 X-55.1349 Y39.6372 
G01 X-55.0657 Y39.6187 
G01 X-50.1589 Y39.6187 
G01 X-50.0897 Y39.6372 
G01 X-50.0277 Y39.6730 
G01 X-49.0907 Y40.6100 
G01 X-48.8826 Y40.6962 
G01 X-9.5361 Y40.6962 
G01 X-9.5184 Y40.7010 
G01 X-9.4669 Y40.7147 
G01 X-9.4049 Y40.7505 
G01 X-9.2231 Y40.9323 
G01 X-9.1725 Y40.9830 
G01 X-9.1367 Y41.0450 
G01 X-9.1359 Y41.0480 
G01 X-9.1181 Y41.1142 
G01 X-9.1181 Y41.1858 
G01 X-9.1233 Y41.2051 
G01 X-9.1367 Y41.2550 
G01 X-9.1714 Y41.3151 
G01 X-9.3543 Y41.4988 
G01 X-9.4049 Y41.5495 
G01 X-9.4669 Y41.5853 
G01 X-9.5361 Y41.6038 
G01 X-48.3151 Y41.6038 
G01 X-48.5232 Y41.6900 
G01 X-50.2945 Y43.4613 
G01 X-50.3452 Y43.5120 
G01 X-50.4072 Y43.5478 
G01 X-50.4764 Y43.5663 
G01 X-55.0657 Y43.5663 
G01 X-55.1349 Y43.5478 
G01 X-55.1715 Y43.5266 
G01 X-55.1969 Y43.5120 
G01 X-55.2004 Y43.5085 
G01 X-55.2476 Y43.4613 
G01 X-55.3578 Y43.3510 
G01 X-55.6966 Y43.2107 
G01 X-56.0634 Y43.2107 
G01 X-56.4022 Y43.3510 
G01 X-56.6615 Y43.6103 
G01 X-56.8018 Y43.9491 
G01 X-56.8018 Y44.3159 
G01 X-56.6615 Y44.6547 
G01 X-56.4022 Y44.9140 
G01 X-56.0634 Y45.0543 
G01 X-55.6966 Y45.0543 
G01 X-55.3578 Y44.9140 
G01 X-55.2476 Y44.8037 
G01 X-55.1969 Y44.7530 
G01 X-55.1699 Y44.7375 
G01 X-55.1349 Y44.7172 
G01 X-55.0657 Y44.6987 
G01 X-50.0524 Y44.6987 
G01 X-49.8443 Y44.6125 
G01 X-49.6721 Y44.4403 
G01 X-48.0730 Y42.8412 
G01 X-48.0223 Y42.7905 
G01 X-47.9603 Y42.7547 
G01 X-47.8911 Y42.7362 
G01 X-9.5361 Y42.7362 
G01 X-9.4669 Y42.7547 
G01 X-9.4049 Y42.7905 
G01 X-9.2231 Y42.9723 
G01 X-9.1725 Y43.0230 
G01 X-9.1367 Y43.0850 
G01 X-9.1181 Y43.1542 
G01 X-9.1181 Y43.2258 
G01 X-9.1367 Y43.2950 
G01 X-9.1725 Y43.3570 
G01 X-9.3543 Y43.5388 
G01 X-9.4049 Y43.5895 
G01 X-9.4669 Y43.6253 
G01 X-9.5361 Y43.6438 
G01 X-47.4976 Y43.6438 
G01 X-47.7057 Y43.7300 
G01 X-52.5170 Y48.5413 
G01 X-52.5677 Y48.5920 
G01 X-52.6297 Y48.6278 
G01 X-52.6989 Y48.6463 
G01 X-55.0657 Y48.6463 
G01 X-55.1349 Y48.6278 
G01 X-55.1715 Y48.6066 
G01 X-55.1969 Y48.5920 
G01 X-55.2004 Y48.5885 
G01 X-55.2476 Y48.5413 
G01 X-55.3578 Y48.4310 
G01 X-55.6966 Y48.2907 
G01 X-56.0634 Y48.2907 
G01 X-56.4022 Y48.4310 
G01 X-56.6615 Y48.6903 
G01 X-56.8018 Y49.0291 
G01 X-56.8018 Y49.3959 
G01 X-56.7488 Y49.5237 
G01 X-56.7398 Y49.5393 
G01 X-56.7352 Y49.5567 
G01 X-56.7283 Y49.5733 
G01 X-56.7260 Y49.5911 
G01 X-56.7213 Y49.6085 
G01 X-56.7213 Y49.6265 
G01 X-56.7189 Y49.6443 
G01 X-56.7213 Y49.6621 
G01 X-56.7213 Y49.6801 
G01 X-56.7259 Y49.6975 
G01 X-56.7283 Y49.7153 
G01 X-56.7352 Y49.7319 
G01 X-56.7398 Y49.7493 
G01 X-56.7488 Y49.7649 
G01 X-56.7557 Y49.7815 
G01 X-56.7666 Y49.7957 
G01 X-56.7756 Y49.8113 
G01 X-56.7884 Y49.8240 
G01 X-56.7993 Y49.8383 
G01 X-56.8136 Y49.8492 
G01 X-56.8263 Y49.8620 
G01 X-56.8419 Y49.8709 
G01 X-56.8561 Y49.8819 
G01 X-56.8727 Y49.8888 
G01 X-56.8883 Y49.8978 
G01 X-56.9057 Y49.9024 
G01 X-56.9223 Y49.9093 
G01 X-56.9401 Y49.9116 
G01 X-56.9575 Y49.9163 
G01 X-56.9755 Y49.9163 
G01 X-56.9933 Y49.9186 
G01 X-57.0111 Y49.9163 
G01 X-57.1561 Y49.9163 
G01 X-57.2253 Y49.8978 
G01 X-57.2873 Y49.8620 
G01 X-57.7488 Y49.4005 
G01 X-57.7995 Y49.3498 
G01 X-57.8353 Y49.2878 
G01 X-57.8538 Y49.2186 
G01 X-57.8538 Y47.9364 
G01 X-57.8353 Y47.8672 
G01 X-57.7995 Y47.8052 
G01 X-57.3380 Y47.3437 
G01 X-57.2873 Y47.2930 
G01 X-57.2253 Y47.2572 
G01 X-57.1561 Y47.2387 
G01 X-56.6943 Y47.2387 
G01 X-56.6251 Y47.2572 
G01 X-56.5885 Y47.2784 
G01 X-56.5631 Y47.2930 
G01 X-56.5596 Y47.2965 
G01 X-56.5124 Y47.3437 
G01 X-56.4022 Y47.4540 
G01 X-56.0634 Y47.5943 
G01 X-55.6966 Y47.5943 
G01 X-55.3578 Y47.4540 
G01 X-55.0985 Y47.1947 
G01 X-54.9582 Y46.8559 
G01 X-54.9582 Y46.4891 
G01 X-55.0985 Y46.1503 
G01 X-55.3578 Y45.8910 
G01 X-55.6966 Y45.7507 
G01 X-56.0634 Y45.7507 
G01 X-56.4022 Y45.8910 
G01 X-56.5124 Y46.0013 
G01 X-56.5631 Y46.0520 
G01 X-56.5901 Y46.0675 
G01 X-56.6251 Y46.0878 
G01 X-56.6943 Y46.1063 
G01 X-57.5801 Y46.1063 
G01 X-57.7882 Y46.1925 
G01 X-57.9604 Y46.3647 
G01 X-58.9000 Y47.3043 
G01 X-58.9862 Y47.5124 
G01 X-58.9862 Y49.6426 
G01 X-58.9000 Y49.8507 
G01 X-58.7278 Y50.0229 
G01 X-57.7882 Y50.9625 
G01 X-57.5801 Y51.0487 
G01 X-57.0111 Y51.0487 
G01 X-56.9933 Y51.0463 
G01 X-56.9755 Y51.0487 
G01 X-56.9575 Y51.0487 
G01 X-56.9401 Y51.0534 
G01 X-56.9223 Y51.0557 
G01 X-56.9057 Y51.0626 
G01 X-56.8883 Y51.0672 
G01 X-56.8727 Y51.0762 
G01 X-56.8561 Y51.0831 
G01 X-56.8419 Y51.0941 
G01 X-56.8263 Y51.1030 
G01 X-56.8136 Y51.1158 
G01 X-56.7993 Y51.1267 
G01 X-56.7884 Y51.1410 
G01 X-56.7756 Y51.1537 
G01 X-56.7666 Y51.1693 
G01 X-56.7557 Y51.1835 
G01 X-56.7488 Y51.2001 
G01 X-56.7398 Y51.2157 
G01 X-56.7352 Y51.2331 
G01 X-56.7283 Y51.2497 
G01 X-56.7259 Y51.2675 
G01 X-56.7213 Y51.2849 
G01 X-56.7213 Y51.3029 
G01 X-56.7189 Y51.3207 
G01 X-56.7213 Y51.3385 
G01 X-56.7213 Y51.3565 
G01 X-56.7260 Y51.3739 
G01 X-56.7283 Y51.3917 
G01 X-56.7352 Y51.4083 
G01 X-56.7398 Y51.4257 
G01 X-56.7488 Y51.4413 
G01 X-56.8018 Y51.5691 
G01 X-56.8018 Y51.9359 
G01 X-56.6615 Y52.2747 
G01 X-56.4022 Y52.5340 
G01 X-56.0634 Y52.6743 
G01 X-55.6966 Y52.6743 
G01 X-55.3578 Y52.5340 
G01 X-55.2476 Y52.4237 
G01 X-55.1969 Y52.3730 
G01 X-55.1699 Y52.3575 
G01 X-55.1349 Y52.3372 
G01 X-55.0657 Y52.3187 
G01 X-53.8008 Y52.3187 
G01 X-53.7317 Y52.3372 
G01 X-53.6951 Y52.3584 
G01 X-53.6696 Y52.3730 
G01 X-53.6190 Y52.4237 
G01 X-53.5303 Y52.5124 
G01 X-53.2008 Y52.6489 
G01 X-52.8442 Y52.6489 
G01 X-52.5147 Y52.5124 
G01 X-52.2626 Y52.2603 
G01 X-52.1261 Y51.9308 
G01 X-52.1261 Y51.5742 
G01 X-52.1812 Y51.4413 
G01 X-52.1902 Y51.4257 
G01 X-52.1948 Y51.4083 
G01 X-52.2017 Y51.3917 
G01 X-52.2040 Y51.3739 
G01 X-52.2087 Y51.3565 
G01 X-52.2087 Y51.3385 
G01 X-52.2110 Y51.3207 
G01 X-52.2087 Y51.3029 
G01 X-52.2087 Y51.2849 
G01 X-52.2040 Y51.2675 
G01 X-52.2017 Y51.2497 
G01 X-52.1948 Y51.2331 
G01 X-52.1902 Y51.2157 
G01 X-52.1812 Y51.2001 
G01 X-52.1743 Y51.1835 
G01 X-52.1633 Y51.1693 
G01 X-52.1543 Y51.1537 
G01 X-52.1416 Y51.1410 
G01 X-52.1307 Y51.1267 
G01 X-52.1164 Y51.1158 
G01 X-52.1037 Y51.1030 
G01 X-52.0881 Y51.0941 
G01 X-52.0739 Y51.0831 
G01 X-52.0573 Y51.0762 
G01 X-52.0417 Y51.0672 
G01 X-52.0243 Y51.0626 
G01 X-52.0077 Y51.0557 
G01 X-51.9899 Y51.0534 
G01 X-51.9725 Y51.0487 
G01 X-51.9545 Y51.0487 
G01 X-51.9367 Y51.0463 
G01 X-51.9189 Y51.0487 
G01 X-51.3224 Y51.0487 
G01 X-51.1143 Y50.9625 
G01 X-50.9421 Y50.7903 
G01 X-48.6175 Y48.4657 
G01 X-48.6065 Y48.4514 
G01 X-48.5922 Y48.4405 
G01 X-48.5795 Y48.4278 
G01 X-48.5640 Y48.4188 
G01 X-48.5497 Y48.4078 
G01 X-48.5331 Y48.4009 
G01 X-48.5175 Y48.3919 
G01 X-48.5001 Y48.3873 
G01 X-48.4835 Y48.3804 
G01 X-48.4657 Y48.3781 
G01 X-48.4483 Y48.3734 
G01 X-48.4303 Y48.3734 
G01 X-48.4125 Y48.3711 
G01 X-48.3947 Y48.3734 
G01 X-48.3767 Y48.3734 
G01 X-48.3593 Y48.3781 
G01 X-48.3415 Y48.3804 
G01 X-48.3249 Y48.3873 
G01 X-48.3075 Y48.3919 
G01 X-48.2920 Y48.4009 
G01 X-48.2753 Y48.4078 
G01 X-48.2611 Y48.4188 
G01 X-48.2455 Y48.4278 
G01 X-48.2328 Y48.4405 
G01 X-48.2185 Y48.4514 
G01 X-48.2076 Y48.4657 
G01 X-48.1949 Y48.4784 
G01 X-48.1859 Y48.4940 
G01 X-48.1749 Y48.5082 
G01 X-48.1681 Y48.5249 
G01 X-48.1591 Y48.5404 
G01 X-48.1544 Y48.5578 
G01 X-48.0674 Y48.7678 
G01 X-47.8153 Y49.0199 
G01 X-47.4858 Y49.1564 
G01 X-47.1292 Y49.1564 
G01 X-46.7997 Y49.0199 
G01 X-46.7110 Y48.9312 
G01 X-46.6603 Y48.8805 
G01 X-46.5983 Y48.8447 
G01 X-46.5291 Y48.8262 
G01 X-45.2643 Y48.8262 
G01 X-45.1951 Y48.8447 
G01 X-45.1585 Y48.8659 
G01 X-45.1331 Y48.8805 
G01 X-45.1296 Y48.8840 
G01 X-45.0824 Y48.9312 
G01 X-44.9722 Y49.0415 
G01 X-44.6334 Y49.1818 
G01 X-44.2666 Y49.1818 
G01 X-43.9278 Y49.0415 
G01 X-43.6685 Y48.7822 
G01 X-43.5282 Y48.4434 
G01 X-43.5282 Y48.0766 
G01 X-43.6685 Y47.7378 
G01 X-43.9278 Y47.4785 
G01 X-43.9936 Y47.4513 
G01 X-44.0109 Y47.4467 
G01 X-44.0265 Y47.4377 
G01 X-44.0431 Y47.4308 
G01 X-44.0574 Y47.4198 
G01 X-44.0730 Y47.4109 
G01 X-44.0857 Y47.3981 
G01 X-44.0999 Y47.3872 
G01 X-44.1109 Y47.3729 
G01 X-44.1236 Y47.3602 
G01 X-44.1326 Y47.3446 
G01 X-44.1435 Y47.3304 
G01 X-44.1504 Y47.3137 
G01 X-44.1594 Y47.2982 
G01 X-44.1641 Y47.2808 
G01 X-44.1709 Y47.2642 
G01 X-44.1733 Y47.2464 
G01 X-44.1779 Y47.2290 
G01 X-44.1779 Y47.2110 
G01 X-44.1803 Y47.1932 
G01 X-44.1779 Y47.1754 
G01 X-44.1779 Y47.1574 
G01 X-44.1733 Y47.1400 
G01 X-44.1709 Y47.1222 
G01 X-44.1641 Y47.1056 
G01 X-44.1594 Y47.0882 
G01 X-44.1504 Y47.0726 
G01 X-44.1435 Y47.0560 
G01 X-44.1326 Y47.0418 
G01 X-44.1236 Y47.0262 
G01 X-44.1109 Y47.0135 
G01 X-44.0999 Y46.9992 
G01 X-44.0857 Y46.9883 
G01 X-44.0730 Y46.9755 
G01 X-44.0574 Y46.9666 
G01 X-44.0431 Y46.9556 
G01 X-44.0265 Y46.9487 
G01 X-44.0109 Y46.9397 
G01 X-43.9936 Y46.9351 
G01 X-43.9770 Y46.9282 
G01 X-43.9591 Y46.9259 
G01 X-43.9418 Y46.9212 
G01 X-43.9238 Y46.9212 
G01 X-43.9059 Y46.9188 
G01 X-43.8881 Y46.9212 
G01 X-26.8480 Y46.9212 
G01 X-26.8302 Y46.9188 
G01 X-26.8123 Y46.9212 
G01 X-26.7944 Y46.9212 
G01 X-26.7770 Y46.9259 
G01 X-26.7592 Y46.9282 
G01 X-26.7426 Y46.9351 
G01 X-26.7252 Y46.9397 
G01 X-26.7096 Y46.9487 
G01 X-26.6930 Y46.9556 
G01 X-26.6787 Y46.9666 
G01 X-26.6632 Y46.9755 
G01 X-26.6504 Y46.9883 
G01 X-26.6362 Y46.9992 
G01 X-26.6252 Y47.0135 
G01 X-26.6125 Y47.0262 
G01 X-26.6035 Y47.0418 
G01 X-26.5926 Y47.0560 
G01 X-26.5857 Y47.0726 
G01 X-26.5767 Y47.0882 
G01 X-26.5721 Y47.1056 
G01 X-26.5652 Y47.1222 
G01 X-26.5628 Y47.1400 
G01 X-26.5582 Y47.1574 
G01 X-26.5582 Y47.1754 
G01 X-26.5558 Y47.1932 
G01 X-26.5582 Y47.2110 
G01 X-26.5582 Y47.2290 
G01 X-26.5628 Y47.2464 
G01 X-26.5652 Y47.2642 
G01 X-26.5721 Y47.2808 
G01 X-26.5767 Y47.2982 
G01 X-26.5857 Y47.3138 
G01 X-26.5926 Y47.3304 
G01 X-26.6035 Y47.3446 
G01 X-26.6125 Y47.3602 
G01 X-26.6252 Y47.3729 
G01 X-26.6362 Y47.3872 
G01 X-26.6504 Y47.3981 
G01 X-26.6632 Y47.4109 
G01 X-26.6787 Y47.4198 
G01 X-26.6930 Y47.4308 
G01 X-26.7096 Y47.4377 
G01 X-26.7252 Y47.4467 
G01 X-26.7426 Y47.4513 
G01 X-26.8603 Y47.5001 
G01 X-27.1124 Y47.7522 
G01 X-27.1364 Y47.8102 
G01 X-26.9900 Y47.8102 
G01 X-26.9584 Y47.7628 
G01 X-26.8497 Y47.6541 
G01 X-26.7220 Y47.5688 
G01 X-26.5800 Y47.5100 
G01 X-26.4293 Y47.4800 
G01 X-26.2757 Y47.4800 
G01 X-26.1250 Y47.5100 
G01 X-25.9830 Y47.5688 
G01 X-25.8553 Y47.6541 
G01 X-25.7466 Y47.7628 
G01 X-25.6613 Y47.8905 
G01 X-25.6025 Y48.0325 
G01 X-25.5725 Y48.1832 
G01 X-25.5725 Y48.3368 
G01 X-25.6025 Y48.4875 
G01 X-25.6613 Y48.6295 
G01 X-25.7466 Y48.7572 
G01 X-25.8553 Y48.8659 
G01 X-25.9830 Y48.9512 
G01 X-26.1250 Y49.0100 
G01 X-26.2757 Y49.0400 
G01 X-26.4293 Y49.0400 
G01 X-26.5800 Y49.0100 
G01 X-26.7220 Y48.9512 
G01 X-26.8497 Y48.8659 
G01 X-26.9584 Y48.7572 
G01 X-26.9900 Y48.7098 
G01 X-27.1364 Y48.7098 
G01 X-27.1124 Y48.7678 
G01 X-26.8603 Y49.0199 
G01 X-26.5308 Y49.1564 
G01 X-26.1742 Y49.1564 
G01 X-25.8447 Y49.0199 
G01 X-25.5926 Y48.7678 
G01 X-25.4561 Y48.4383 
G01 X-25.4561 Y48.0817 
G01 X-25.5926 Y47.7522 
G01 X-25.8447 Y47.5001 
G01 X-25.9625 Y47.4513 
G01 X-25.9798 Y47.4467 
G01 X-25.9954 Y47.4377 
G01 X-26.0120 Y47.4308 
G01 X-26.0263 Y47.4198 
G01 X-26.0418 Y47.4109 
G01 X-26.0545 Y47.3981 
G01 X-26.0688 Y47.3872 
G01 X-26.0798 Y47.3729 
G01 X-26.0925 Y47.3602 
G01 X-26.1015 Y47.3446 
G01 X-26.1124 Y47.3304 
G01 X-26.1193 Y47.3137 
G01 X-26.1283 Y47.2982 
G01 X-26.1329 Y47.2808 
G01 X-26.1398 Y47.2642 
G01 X-26.1422 Y47.2464 
G01 X-26.1468 Y47.2290 
G01 X-26.1468 Y47.2110 
G01 X-26.1492 Y47.1932 
G01 X-26.1468 Y47.1754 
G01 X-26.1468 Y47.1574 
G01 X-26.1422 Y47.1400 
G01 X-26.1398 Y47.1222 
G01 X-26.1329 Y47.1056 
G01 X-26.1283 Y47.0882 
G01 X-26.1193 Y47.0727 
G01 X-26.1124 Y47.0560 
G01 X-26.1015 Y47.0418 
G01 X-26.0925 Y47.0262 
G01 X-26.0798 Y47.0135 
G01 X-26.0688 Y46.9992 
G01 X-26.0545 Y46.9883 
G01 X-26.0418 Y46.9755 
G01 X-26.0263 Y46.9666 
G01 X-26.0120 Y46.9556 
G01 X-25.9954 Y46.9487 
G01 X-25.9798 Y46.9397 
G01 X-25.9624 Y46.9351 
G01 X-25.9458 Y46.9282 
G01 X-25.9280 Y46.9259 
G01 X-25.9106 Y46.9212 
G01 X-25.8927 Y46.9212 
G01 X-25.8748 Y46.9188 
G01 X-25.8570 Y46.9212 
G01 X-8.8539 Y46.9212 
G01 X-8.8397 Y46.9189 
G01 X-8.8182 Y46.9212 
G01 X-8.7967 Y46.9212 
G01 X-8.7828 Y46.9249 
G01 X-8.7684 Y46.9264 
G01 X-8.7483 Y46.9342 
G01 X-8.7275 Y46.9397 
G01 X-8.7150 Y46.9469 
G01 X-8.7016 Y46.9521 
G01 X-8.6841 Y46.9648 
G01 X-8.6655 Y46.9755 
G01 X-8.6553 Y46.9857 
G01 X-8.6500 Y46.9896 
G01 X-8.6447 Y46.9857 
G01 X-8.6345 Y46.9755 
G01 X-8.6159 Y46.9648 
G01 X-8.5984 Y46.9521 
G01 X-8.5850 Y46.9469 
G01 X-8.5725 Y46.9397 
G01 X-8.5517 Y46.9342 
G01 X-8.5316 Y46.9264 
G01 X-8.5172 Y46.9249 
G01 X-8.5033 Y46.9212 
G01 X-8.4818 Y46.9212 
G01 X-8.4603 Y46.9189 
G01 X-8.4461 Y46.9212 
G01 X-7.5074 Y46.9212 
G01 X-7.2993 Y46.8350 
G01 X-7.1271 Y46.6628 
G01 X-5.6300 Y45.1657 
G01 X-5.5438 Y44.9576 
G01 X-5.5438 Y44.0761 
G01 X-5.5253 Y44.0069 
G01 X-5.4895 Y43.9449 
G01 X-5.4853 Y43.9407 
G01 X-5.4388 Y43.8943 
G01 X-5.2855 Y43.7409 
G01 X-5.1374 Y43.3835 
G01 X-5.1374 Y42.9965 
G01 X-5.2855 Y42.6391 
G01 X-5.5369 Y42.3877 
G01 X-5.5875 Y42.3370 
G01 X-5.6233 Y42.2750 
G01 X-5.6419 Y42.2058 
G01 X-5.6419 Y42.1342 
G01 X-5.6367 Y42.1149 
G01 X-5.6233 Y42.0650 
G01 X-5.5886 Y42.0049 
G01 X-5.4057 Y41.8212 
G01 X-5.3551 Y41.7705 
G01 X-5.2931 Y41.7347 
G01 X-5.2239 Y41.7162 
G01 X-5.1599 Y41.7162 
G01 X-4.9518 Y41.6300 
G01 X-4.1879 Y40.8661 
G01 X-3.9650 Y40.6432 
G01 X-3.8788 Y40.4351 
G01 X-3.8788 Y35.7649 
G01 X-3.9650 Y35.5568 
G01 X-4.1372 Y35.3846 
G01 X-4.1941 Y35.3276 
G01 X-4.2448 Y35.2770 
G01 X-4.2806 Y35.2150 
G01 X-4.2991 Y35.1458 
G01 X-4.2991 Y35.0742 
G01 X-4.2806 Y35.0050 
G01 X-4.2448 Y34.9430 
G01 X-4.1941 Y34.8923 
G01 X-4.1321 Y34.8565 
G01 X-4.0629 Y34.8380 
G01 X-3.4842 Y34.8380 
G01 X-2.8821 Y34.5886 
G01 X-2.4214 Y34.1279 
G01 X-2.1720 Y33.5258 
G01 X-2.1720 Y32.8742 
G01 X-2.4214 Y32.2721 
G01 X-2.8821 Y31.8114 
G01 X-3.4842 Y31.5620 
G01 X-4.1358 Y31.5620 
G01 X-4.7378 Y31.8114 
G01 X-4.9766 Y32.0502 
G01 X-5.0273 Y32.1008 
G01 X-5.0893 Y32.1366 
G01 X-5.1585 Y32.1552 
G01 X-5.2301 Y32.1552 
G01 X-5.2494 Y32.1500 
G01 X-5.2993 Y32.1366 
G01 X-5.3594 Y32.1019 
G01 X-5.4120 Y32.0502 
G01 X-5.4478 Y31.9881 
G01 X-5.4663 Y31.9190 
G01 X-5.4663 Y31.6374 
G01 X-5.5525 Y31.4293 
G01 X-6.7589 Y30.2229 
G01 X-6.8096 Y30.1722 
G01 X-6.9818 Y30.0000 
G01 X-7.1899 Y29.9138 
G01 X-7.6467 Y29.9138 
G01 X-7.7159 Y29.8953 
G01 X-7.7525 Y29.8741 
G01 X-7.7779 Y29.8595 
G01 X-7.8286 Y29.8088 
G01 X-7.8644 Y29.7468 
G01 X-7.8782 Y29.6954 
G01 X-7.8829 Y29.6776 
G01 X-7.8829 Y29.6060 
G01 X-7.8644 Y29.5368 
G01 X-7.9451 Y29.5953 
G01 X-8.1337 Y29.6915 
G01 X-8.3350 Y29.7569 
G01 X-8.5441 Y29.7900 
G01 X-8.7559 Y29.7900 
G01 X-8.9650 Y29.7569 
G01 X-9.1663 Y29.6915 
G01 X-9.3549 Y29.5953 
G01 X-9.4357 Y29.5367 
G01 X-9.4171 Y29.6060 
G01 X-9.4171 Y29.6776 
G01 X-9.4222 Y29.6969 
G01 X-9.4356 Y29.7468 
G01 X-9.4703 Y29.8069 
G01 X-9.5221 Y29.8595 
G01 X-9.5491 Y29.8750 
G01 X-9.5841 Y29.8953 
G01 X-9.6532 Y29.9138 
G01 X-10.2726 Y29.9138 
G01 X-10.4807 Y30.0000 
G01 X-11.3696 Y30.8889 
G01 X-11.5925 Y31.1118 
G01 X-11.6787 Y31.3199 
G01 X-11.6787 Y32.3911 
G01 X-11.6972 Y32.4603 
G01 X-11.7330 Y32.5223 
G01 X-12.5120 Y33.3013 
G01 X-12.5627 Y33.3520 
G01 X-12.6247 Y33.3878 
G01 X-12.6939 Y33.4063 
G01 X-46.9961 Y33.4063 
G01 X-47.0653 Y33.3878 
G01 X-47.1273 Y33.3520 
G01 X-48.9789 Y31.5004 
G01 X-48.9932 Y31.4894 
G01 X-49.0041 Y31.4751 
G01 X-49.0168 Y31.4624 
G01 X-49.0258 Y31.4469 
G01 X-49.0368 Y31.4326 
G01 X-49.0436 Y31.4160 
G01 X-49.0526 Y31.4004 
G01 X-49.0573 Y31.3831 
G01 X-49.0642 Y31.3664 
G01 X-49.0665 Y31.3486 
G01 X-49.0712 Y31.3312 
G01 X-49.0712 Y31.3133 
G01 X-49.0735 Y31.2954 
G01 X-49.0712 Y31.2776 
G01 X-49.0712 Y31.2596 
G01 X-49.0665 Y31.2423 
G01 X-49.0642 Y31.2244 
G01 X-49.0573 Y31.2078 
G01 X-49.0526 Y31.1904 
G01 X-49.0436 Y31.1749 
G01 X-49.0368 Y31.1583 
G01 X-49.0258 Y31.1440 
G01 X-49.0168 Y31.1284 
G01 X-49.0041 Y31.1157 
G01 X-48.9932 Y31.1014 
G01 X-48.9789 Y31.0905 
G01 X-48.9662 Y31.0778 
G01 X-48.9506 Y31.0688 
G01 X-48.9363 Y31.0578 
G01 X-48.9197 Y31.0510 
G01 X-48.9042 Y31.0420 
G01 X-48.8868 Y31.0373 
G01 X-48.8702 Y31.0304 
G01 X-48.8523 Y31.0281 
G01 X-48.8350 Y31.0234 
G01 X-48.8170 Y31.0234 
G01 X-48.7992 Y31.0211 
G01 X-48.7813 Y31.0234 
G01 X-48.7634 Y31.0234 
G01 X-48.7460 Y31.0281 
G01 X-48.7282 Y31.0304 
G01 X-48.7116 Y31.0373 
G01 X-48.6942 Y31.0420 
G01 X-48.6869 Y31.0462 
G01 X-45.2643 Y31.0462 
G01 X-45.1951 Y31.0647 
G01 X-45.1585 Y31.0859 
G01 X-45.1331 Y31.1005 
G01 X-45.1296 Y31.1040 
G01 X-45.0824 Y31.1512 
G01 X-44.9722 Y31.2615 
G01 X-44.6334 Y31.4018 
G01 X-44.2666 Y31.4018 
G01 X-43.9278 Y31.2615 
G01 X-43.6685 Y31.0022 
G01 X-43.5282 Y30.6634 
G01 X-43.5282 Y30.2966 
G01 X-43.5812 Y30.1688 
G01 X-43.5902 Y30.1532 
G01 X-43.5948 Y30.1358 
G01 X-43.6017 Y30.1192 
G01 X-43.6040 Y30.1014 
G01 X-43.6087 Y30.0840 
G01 X-43.6087 Y30.0660 
G01 X-43.6110 Y30.0482 
G01 X-43.6087 Y30.0304 
G01 X-43.6087 Y30.0124 
G01 X-43.6040 Y29.9950 
G01 X-43.6017 Y29.9772 
G01 X-43.5948 Y29.9606 
G01 X-43.5902 Y29.9432 
G01 X-43.5812 Y29.9276 
G01 X-43.5743 Y29.9110 
G01 X-43.5633 Y29.8968 
G01 X-43.5544 Y29.8812 
G01 X-43.5416 Y29.8685 
G01 X-43.5307 Y29.8542 
G01 X-43.5164 Y29.8433 
G01 X-43.5037 Y29.8305 
G01 X-43.4881 Y29.8216 
G01 X-43.4739 Y29.8106 
G01 X-43.4573 Y29.8037 
G01 X-43.4417 Y29.7947 
G01 X-43.4243 Y29.7901 
G01 X-43.4077 Y29.7832 
G01 X-43.3899 Y29.7809 
G01 X-43.3725 Y29.7762 
G01 X-43.3545 Y29.7762 
G01 X-43.3367 Y29.7738 
G01 X-43.3189 Y29.7762 
G01 X-41.7974 Y29.7762 
G01 X-41.5893 Y29.6900 
G01 X-41.4171 Y29.5178 
G01 X-41.3664 Y29.4671 
G01 X-40.4775 Y28.5782 
G01 X-40.3913 Y28.3701 
G01 X-40.3913 Y18.6199 
G01 X-40.4775 Y18.4118 
G01 X-41.5893 Y17.3000 
G01 X-41.7974 Y17.2138 
G01 X-43.6357 Y17.2138 
G01 X-43.7049 Y17.1953 
G01 X-43.7669 Y17.1595 
G01 X-43.9278 Y16.9985 
G01 X-44.2666 Y16.8582 
G01 X-44.6334 Y16.8582 
G01 X-44.9722 Y16.9985 
G01 X-45.2315 Y17.2578 
G01 X-45.3718 Y17.5966 
G01 X-45.3718 Y17.9634 
G01 X-45.2315 Y18.3022 
G01 X-44.9722 Y18.5615 
G01 X-44.6334 Y18.7018 
G01 X-44.2666 Y18.7018 
G01 X-43.9278 Y18.5615 
G01 X-43.8176 Y18.4512 
G01 X-43.7669 Y18.4005 
G01 X-43.7049 Y18.3647 
G01 X-43.6357 Y18.3462 
G01 X-42.2214 Y18.3462 
G01 X-42.1522 Y18.3647 
G01 X-42.0902 Y18.4005 
G01 X-41.6287 Y18.8620 
G01 X-41.5780 Y18.9127 
G01 X-41.5422 Y18.9747 
G01 X-41.5237 Y19.0439 
G01 X-41.5237 Y23.0947 
G01 X-41.5422 Y23.1639 
G01 X-41.5780 Y23.2259 
G01 X-41.6279 Y23.2758 
G01 X-41.6907 Y23.3124 
G01 X-41.7599 Y23.3309 
G01 X-41.8315 Y23.3309 
G01 X-41.9007 Y23.3124 
G01 X-41.9627 Y23.2766 
G01 X-42.0134 Y23.2259 
G01 X-42.8593 Y22.3800 
G01 X-43.0674 Y22.2938 
G01 X-43.6357 Y22.2938 
G01 X-43.7049 Y22.2753 
G01 X-43.7669 Y22.2395 
G01 X-43.9278 Y22.0785 
G01 X-44.2666 Y21.9382 
G01 X-44.6334 Y21.9382 
G01 X-44.9722 Y22.0785 
G01 X-45.2315 Y22.3378 
G01 X-45.3718 Y22.6766 
G01 X-45.3718 Y23.0434 
G01 X-45.2315 Y23.3822 
G01 X-44.9722 Y23.6415 
G01 X-44.6334 Y23.7818 
G01 X-44.2666 Y23.7818 
G01 X-43.9278 Y23.6415 
G01 X-43.8176 Y23.5312 
G01 X-43.7669 Y23.4805 
G01 X-43.7049 Y23.4447 
G01 X-43.6357 Y23.4262 
G01 X-43.4914 Y23.4262 
G01 X-43.4222 Y23.4447 
G01 X-43.3602 Y23.4805 
G01 X-42.8987 Y23.9420 
G01 X-42.8480 Y23.9927 
G01 X-42.8122 Y24.0547 
G01 X-42.7937 Y24.1239 
G01 X-42.7937 Y25.4061 
G01 X-42.7985 Y25.4239 
G01 X-42.8122 Y25.4753 
G01 X-42.8480 Y25.5373 
G01 X-43.0385 Y25.7278 
G01 X-43.0892 Y25.7785 
G01 X-43.1512 Y25.8143 
G01 X-43.1542 Y25.8151 
G01 X-43.2204 Y25.8328 
G01 X-43.2920 Y25.8328 
G01 X-43.3113 Y25.8276 
G01 X-43.3612 Y25.8143 
G01 X-43.4213 Y25.7795 
G01 X-43.4739 Y25.7278 
G01 X-43.5097 Y25.6658 
G01 X-43.5104 Y25.6629 
G01 X-43.5282 Y25.5966 
G01 X-43.5282 Y25.2166 
G01 X-43.6685 Y24.8778 
G01 X-43.9278 Y24.6185 
G01 X-44.2666 Y24.4782 
G01 X-44.6334 Y24.4782 
G01 X-44.9722 Y24.6185 
G01 X-45.0824 Y24.7288 
G01 X-45.1331 Y24.7795 
G01 X-45.1601 Y24.7950 
G01 X-45.1951 Y24.8153 
G01 X-45.2643 Y24.8338 
G01 X-46.6786 Y24.8338 
G01 X-46.7478 Y24.8153 
G01 X-46.8098 Y24.7795 
G01 X-54.0234 Y17.5659 
G01 X-54.0741 Y17.5152 
G01 X-54.1099 Y17.4532 
G01 X-54.1284 Y17.3840 
G01 X-54.1284 Y17.3124 
G01 X-54.1099 Y17.2432 
G01 X-54.0741 Y17.1812 
G01 X-54.0234 Y17.1305 
G01 X-53.9614 Y17.0947 
G01 X-53.8922 Y17.0762 
G01 X-50.7939 Y17.0762 
G01 X-50.7247 Y17.0947 
G01 X-50.6627 Y17.1305 
G01 X-47.2161 Y20.5771 
G01 X-46.9932 Y20.8000 
G01 X-46.7851 Y20.8862 
G01 X-45.2643 Y20.8862 
G01 X-45.1951 Y20.9047 
G01 X-45.1331 Y20.9405 
G01 X-44.9722 Y21.1015 
G01 X-44.6334 Y21.2418 
G01 X-44.2666 Y21.2418 
G01 X-43.9278 Y21.1015 
G01 X-43.6685 Y20.8422 
G01 X-43.5282 Y20.5034 
G01 X-43.5282 Y20.1366 
G01 X-43.6685 Y19.7978 
G01 X-43.9278 Y19.5385 
G01 X-44.2666 Y19.3982 
G01 X-44.6334 Y19.3982 
G01 X-44.9722 Y19.5385 
G01 X-45.0824 Y19.6488 
G01 X-45.1331 Y19.6995 
G01 X-45.1951 Y19.7353 
G01 X-45.2643 Y19.7538 
G01 X-46.3611 Y19.7538 
G01 X-46.4303 Y19.7353 
G01 X-46.4923 Y19.6995 
G01 X-50.1618 Y16.0300 
G01 X-50.3699 Y15.9438 
G01 X-90.4789 Y15.9438 
G01 X-90.4968 Y15.9461 
G01 X-90.5146 Y15.9438 
G01 X-90.5326 Y15.9438 
G01 X-90.5499 Y15.9391 
G01 X-90.5678 Y15.9368 
G01 X-90.5844 Y15.9299 
G01 X-90.6017 Y15.9253 
G01 X-90.6173 Y15.9163 
G01 X-90.6339 Y15.9094 
G01 X-90.6482 Y15.8984 
G01 X-90.6638 Y15.8895 
G01 X-90.6765 Y15.8767 
G01 X-90.6907 Y15.8658 
G01 X-90.7017 Y15.8515 
G01 X-90.7144 Y15.8388 
G01 X-90.7234 Y15.8232 
G01 X-90.7344 Y15.8090 
G01 X-90.7412 Y15.7923 
G01 X-90.7502 Y15.7768 
G01 X-90.7549 Y15.7594 
G01 X-90.8555 Y15.5166 
G01 X-91.0287 Y15.3433 
G01 X-91.0793 Y15.2927 
G01 X-91.1151 Y15.2307 
G01 X-91.1337 Y15.1615 
G01 X-91.1337 Y15.0899 
G01 X-91.1285 Y15.0706 
G01 X-91.1151 Y15.0207 
G01 X-91.0804 Y14.9606 
G01 X-91.0287 Y14.9080 
G01 X-90.9667 Y14.8722 
G01 X-90.8975 Y14.8537 
G01 X-47.9364 Y14.8537 
G01 X-47.8672 Y14.8722 
G01 X-47.8052 Y14.9080 
G01 X-46.9932 Y15.7200 
G01 X-46.7851 Y15.8062 
G01 X-45.2643 Y15.8062 
G01 X-45.1951 Y15.8247 
G01 X-45.1331 Y15.8605 
G01 X-44.9722 Y16.0215 
G01 X-44.6334 Y16.1618 
G01 X-44.2666 Y16.1618 
G01 X-43.9278 Y16.0215 
G01 X-43.6685 Y15.7622 
G01 X-43.5282 Y15.4234 
G01 X-43.5282 Y15.0566 
G01 X-43.6685 Y14.7178 
G01 X-43.9278 Y14.4585 
G01 X-44.2666 Y14.3182 
G01 X-44.6334 Y14.3182 
G01 X-44.9722 Y14.4585 
G01 X-45.0824 Y14.5688 
G01 X-45.1331 Y14.6195 
G01 X-45.1951 Y14.6553 
G01 X-45.2643 Y14.6738 
G01 X-46.3611 Y14.6738 
G01 X-46.4303 Y14.6553 
G01 X-46.4923 Y14.6195 
G01 X-47.0814 Y14.0304 
G01 X-47.3043 Y13.8075 
G01 X-47.5124 Y13.7213 
G01 X-90.5545 Y13.7213 
G01 X-90.5724 Y13.7236 
G01 X-90.5902 Y13.7213 
G01 X-90.6082 Y13.7213 
G01 X-90.6255 Y13.7166 
G01 X-90.6434 Y13.7143 
G01 X-90.6600 Y13.7074 
G01 X-90.6773 Y13.7028 
G01 X-90.6929 Y13.6938 
G01 X-90.7095 Y13.6869 
G01 X-90.7238 Y13.6759 
G01 X-90.7394 Y13.6670 
G01 X-90.7521 Y13.6542 
G01 X-90.7663 Y13.6433 
G01 X-90.7773 Y13.6290 
G01 X-90.7900 Y13.6163 
G01 X-90.7990 Y13.6007 
G01 X-90.8099 Y13.5865 
G01 X-90.8168 Y13.5699 
G01 X-90.8258 Y13.5543 
G01 X-90.8305 Y13.5369 
G01 X-90.8555 Y13.4766 
G01 X-91.1069 Y13.2252 
G01 X-91.1575 Y13.1745 
G01 X-91.1933 Y13.1125 
G01 X-91.2119 Y13.0433 
G01 X-91.2119 Y12.9717 
G01 X-91.2067 Y12.9524 
G01 X-91.1933 Y12.9025 
G01 X-91.1586 Y12.8424 
G01 X-90.8555 Y12.5384 
G01 X-90.8388 Y12.4981 
G01 X-90.8341 Y12.4807 
G01 X-90.8251 Y12.4651 
G01 X-90.8182 Y12.4485 
G01 X-90.8073 Y12.4343 
G01 X-90.7983 Y12.4187 
G01 X-90.7856 Y12.4060 
G01 X-90.7746 Y12.3917 
G01 X-90.7604 Y12.3808 
G01 X-90.7476 Y12.3680 
G01 X-90.7321 Y12.3591 
G01 X-90.7178 Y12.3481 
G01 X-90.7012 Y12.3412 
G01 X-90.6856 Y12.3322 
G01 X-90.6683 Y12.3276 
G01 X-90.6516 Y12.3207 
G01 X-90.6338 Y12.3184 
G01 X-90.6164 Y12.3137 
G01 X-90.5985 Y12.3137 
G01 X-90.5806 Y12.3113 
G01 X-90.5628 Y12.3137 
G01 X-86.2474 Y12.3137 
G01 X-86.0393 Y12.2275 
G01 X-85.8671 Y12.0553 
G01 X-84.6430 Y10.8312 
G01 X-84.5923 Y10.7805 
G01 X-84.5303 Y10.7447 
G01 X-84.4611 Y10.7262 
G01 X-45.2643 Y10.7262 
G01 X-45.1951 Y10.7447 
G01 X-45.1331 Y10.7805 
G01 X-44.9722 Y10.9415 
G01 X-44.6334 Y11.0818 
G01 X-44.2666 Y11.0818 
G01 X-43.9278 Y10.9415 
G01 X-43.6685 Y10.6822 
G01 X-43.5282 Y10.3434 
G01 X-43.5282 Y9.9766 
G01 X-43.5812 Y9.8488 
G01 X-43.5902 Y9.8332 
G01 X-43.5948 Y9.8158 
G01 X-43.6017 Y9.7992 
G01 X-43.6040 Y9.7814 
G01 X-43.6087 Y9.7640 
G01 X-43.6087 Y9.7460 
G01 X-43.6110 Y9.7282 
G01 X-43.6087 Y9.7104 
G01 X-43.6087 Y9.6924 
G01 X-43.6040 Y9.6750 
G01 X-43.6017 Y9.6572 
G01 X-43.5948 Y9.6406 
G01 X-43.5902 Y9.6232 
G01 X-43.5812 Y9.6076 
G01 X-43.5743 Y9.5910 
G01 X-43.5633 Y9.5768 
G01 X-43.5544 Y9.5612 
G01 X-43.5416 Y9.5485 
G01 X-43.5307 Y9.5342 
G01 X-43.5164 Y9.5233 
G01 X-43.5037 Y9.5105 
G01 X-43.4881 Y9.5016 
G01 X-43.4739 Y9.4906 
G01 X-43.4573 Y9.4837 
G01 X-43.4417 Y9.4747 
G01 X-43.4243 Y9.4701 
G01 X-43.4077 Y9.4632 
G01 X-43.3899 Y9.4609 
G01 X-43.3725 Y9.4562 
G01 X-43.3545 Y9.4562 
G01 X-43.3367 Y9.4538 
G01 X-43.3189 Y9.4562 
G01 X-43.1739 Y9.4562 
G01 X-43.1047 Y9.4747 
G01 X-43.0427 Y9.5105 
G01 X-42.5812 Y9.9720 
G01 X-42.5305 Y10.0227 
G01 X-42.4947 Y10.0847 
G01 X-42.4762 Y10.1539 
G01 X-42.4762 Y11.4361 
G01 X-42.4947 Y11.5053 
G01 X-42.5305 Y11.5673 
G01 X-42.9920 Y12.0288 
G01 X-43.0427 Y12.0795 
G01 X-43.1047 Y12.1153 
G01 X-43.1739 Y12.1338 
G01 X-43.6357 Y12.1338 
G01 X-43.7049 Y12.1153 
G01 X-43.7669 Y12.0795 
G01 X-43.9278 Y11.9185 
G01 X-44.2666 Y11.7782 
G01 X-44.6334 Y11.7782 
G01 X-44.9722 Y11.9185 
G01 X-45.2315 Y12.1778 
G01 X-45.3718 Y12.5166 
G01 X-45.3718 Y12.8834 
G01 X-45.2315 Y13.2222 
G01 X-44.9722 Y13.4815 
G01 X-44.6334 Y13.6218 
G01 X-44.2666 Y13.6218 
G01 X-43.9278 Y13.4815 
G01 X-43.8176 Y13.3712 
G01 X-43.7669 Y13.3205 
G01 X-43.7049 Y13.2847 
G01 X-43.6357 Y13.2662 
G01 X-42.7499 Y13.2662 
G01 X-42.5418 Y13.1800 
G01 X-41.6529 Y12.2911 
G01 X-41.4300 Y12.0682 
G01 X-41.3438 Y11.8601 
G01 X-41.3438 Y9.7299 
G01 X-41.4300 Y9.5218 
G01 X-42.3189 Y8.6328 
G01 X-42.5418 Y8.4100 
G01 X-42.7499 Y8.3238 
G01 X-43.4941 Y8.3238 
G01 X-43.5228 Y8.3253 
G01 X-43.5298 Y8.3238 
G01 X-43.5370 Y8.3238 
G01 X-43.5647 Y8.3164 
G01 X-43.5928 Y8.3104 
G01 X-43.5992 Y8.3071 
G01 X-43.6062 Y8.3053 
G01 X-43.6310 Y8.2909 
G01 X-43.6566 Y8.2779 
G01 X-43.6620 Y8.2731 
G01 X-43.6682 Y8.2695 
G01 X-43.6885 Y8.2492 
G01 X-43.7098 Y8.2300 
G01 X-43.7138 Y8.2239 
G01 X-43.7189 Y8.2188 
G01 X-43.7332 Y8.1940 
G01 X-43.7488 Y8.1699 
G01 X-43.7511 Y8.1630 
G01 X-43.7547 Y8.1568 
G01 X-43.7621 Y8.1291 
G01 X-43.7710 Y8.1018 
G01 X-43.7713 Y8.0946 
G01 X-43.7732 Y8.0876 
G01 X-43.7732 Y8.0589 
G01 X-43.8244 Y8.1334 
G01 X-43.9366 Y8.2456 
G01 X-44.0685 Y8.3337 
G01 X-44.2151 Y8.3944 
G01 X-44.3707 Y8.4254 
G01 X-44.5293 Y8.4254 
G01 X-44.6849 Y8.3944 
G01 X-44.8315 Y8.3337 
G01 X-44.9634 Y8.2456 
G01 X-45.0756 Y8.1334 
G01 X-45.1267 Y8.0570 
G01 X-45.1268 Y8.0876 
G01 X-45.1286 Y8.0946 
G01 X-45.1290 Y8.1018 
G01 X-45.1379 Y8.1291 
G01 X-45.1453 Y8.1568 
G01 X-45.1489 Y8.1630 
G01 X-45.1511 Y8.1699 
G01 X-45.1668 Y8.1940 
G01 X-45.1811 Y8.2188 
G01 X-45.1862 Y8.2239 
G01 X-45.1902 Y8.2300 
G01 X-45.2115 Y8.2492 
G01 X-45.2318 Y8.2695 
G01 X-45.2380 Y8.2731 
G01 X-45.2434 Y8.2779 
G01 X-45.2689 Y8.2909 
G01 X-45.2938 Y8.3053 
G01 X-45.3007 Y8.3071 
G01 X-45.3072 Y8.3104 
G01 X-45.3353 Y8.3164 
G01 X-45.3630 Y8.3238 
G01 X-45.3702 Y8.3238 
G01 X-45.3772 Y8.3253 
G01 X-45.4059 Y8.3238 
G01 X-85.2026 Y8.3238 
G01 X-85.4107 Y8.4100 
G01 X-86.1720 Y9.1713 
G01 X-86.2227 Y9.2220 
G01 X-86.2847 Y9.2578 
G01 X-86.3539 Y9.2763 
G01 X-91.4761 Y9.2763 
G01 X-91.4903 Y9.2785 
G01 X-91.5118 Y9.2763 
G01 X-91.5333 Y9.2763 
G01 X-91.5472 Y9.2726 
G01 X-91.5616 Y9.2711 
G01 X-91.5817 Y9.2633 
G01 X-91.6025 Y9.2578 
G01 X-91.6150 Y9.2506 
G01 X-91.6284 Y9.2454 
G01 X-91.6459 Y9.2327 
G01 X-91.6645 Y9.2220 
G01 X-91.6747 Y9.2118 
G01 X-91.6800 Y9.2079 
G01 X-91.6853 Y9.2118 
G01 X-91.6955 Y9.2220 
G01 X-91.7141 Y9.2327 
G01 X-91.7316 Y9.2454 
G01 X-91.7450 Y9.2506 
G01 X-91.7575 Y9.2578 
G01 X-91.7783 Y9.2633 
G01 X-91.7984 Y9.2711 
G01 X-91.8127 Y9.2726 
G01 X-91.8267 Y9.2763 
G01 X-91.8482 Y9.2763 
G01 X-91.8696 Y9.2785 
G01 X-91.8839 Y9.2763 
G01 X-92.8226 Y9.2763 
G01 X-93.0307 Y9.3625 
G01 X-94.5546 Y10.8864 
G01 X-94.7775 Y11.1093 
G01 X-94.8637 Y11.3174 
G01 X-94.8637 Y12.1989 
G01 X-94.8822 Y12.2681 
G01 X-94.9034 Y12.3047 
G01 X-94.9180 Y12.3301 
G01 X-94.9687 Y12.3807 
G01 X-95.0445 Y12.4566 
G01 X-95.1926 Y12.8140 
G01 X-95.1926 Y13.2010 
G01 X-95.0445 Y13.5584 
G01 X-94.7931 Y13.8098 
G01 X-94.7425 Y13.8605 
G01 X-94.7067 Y13.9225 
G01 X-94.6881 Y13.9917 
G01 X-94.6881 Y14.0633 
G01 X-94.7067 Y14.1325 
G01 X-94.7425 Y14.1945 
G01 X-94.9243 Y14.3763 
G01 X-94.9749 Y14.4270 
G01 X-95.0369 Y14.4628 
G01 X-95.1061 Y14.4813 
G01 X-95.1701 Y14.4813 
G01 X-95.3782 Y14.5675 
G01 X-96.0604 Y15.2497 
G01 X-96.0662 Y15.2554 
G01 X-96.1111 Y15.3004 
G01 X-96.3650 Y15.5543 
G01 X-96.4512 Y15.7624 
G01 X-96.4512 Y20.1151 
G01 X-96.3650 Y20.3232 
G01 X-96.1928 Y20.4954 
G01 X-95.6963 Y20.9919 
G01 X-95.6820 Y21.0029 
G01 X-95.6711 Y21.0172 
G01 X-95.6583 Y21.0299 
G01 X-95.6494 Y21.0455 
G01 X-95.6384 Y21.0597 
G01 X-95.6315 Y21.0763 
G01 X-95.6225 Y21.0919 
G01 X-95.6179 Y21.1093 
G01 X-95.6110 Y21.1259 
G01 X-95.6087 Y21.1437 
G01 X-95.6040 Y21.1611 
G01 X-95.6040 Y21.1791 
G01 X-95.6017 Y21.1969 
G01 X-95.6040 Y21.2147 
G01 X-95.6040 Y21.2327 
G01 X-95.6087 Y21.2501 
G01 X-95.6110 Y21.2679 
G01 X-95.6179 Y21.2845 
G01 X-95.6225 Y21.3019 
G01 X-95.6315 Y21.3174 
G01 X-95.6384 Y21.3341 
G01 X-95.6494 Y21.3483 
G01 X-95.6583 Y21.3639 
G01 X-95.6711 Y21.3766 
G01 X-95.6820 Y21.3909 
G01 X-95.6963 Y21.4018 
G01 X-95.7090 Y21.4145 
G01 X-95.7246 Y21.4235 
G01 X-95.7388 Y21.4345 
G01 X-95.7554 Y21.4414 
G01 X-95.7710 Y21.4503 
G01 X-95.7884 Y21.4550 
G01 X-95.8050 Y21.4619 
G01 X-95.8228 Y21.4642 
G01 X-95.8402 Y21.4689 
G01 X-95.8582 Y21.4689 
G01 X-95.8760 Y21.4712 
G01 X-95.8938 Y21.4689 
G01 X-95.9118 Y21.4689 
G01 X-95.9292 Y21.4642 
G01 X-95.9470 Y21.4619 
G01 X-95.9636 Y21.4550 
G01 X-95.9810 Y21.4503 
G01 X-95.9966 Y21.4414 
G01 X-96.1942 Y21.3595 
G01 X-96.8458 Y21.3595 
G01 X-97.4479 Y21.6089 
G01 X-97.9086 Y22.0696 
G01 X-98.1669 Y22.6931 
G01 X-98.1715 Y22.7105 
G01 X-98.1805 Y22.7261 
G01 X-98.1874 Y22.7427 
G01 X-98.1984 Y22.7569 
G01 X-98.2073 Y22.7725 
G01 X-98.2201 Y22.7852 
G01 X-98.2310 Y22.7995 
G01 X-98.2453 Y22.8104 
G01 X-98.2580 Y22.8232 
G01 X-98.2736 Y22.8322 
G01 X-98.2878 Y22.8431 
G01 X-98.3045 Y22.8500 
G01 X-98.3200 Y22.8590 
G01 X-98.3374 Y22.8636 
G01 X-98.3540 Y22.8705 
G01 X-98.3718 Y22.8729 
G01 X-98.3892 Y22.8775 
G01 X-98.4072 Y22.8775 
G01 X-98.4250 Y22.8799 
G01 X-98.4428 Y22.8775 
G01 X-98.4608 Y22.8775 
G01 X-98.4782 Y22.8729 
G01 X-98.4960 Y22.8705 
G01 X-98.5126 Y22.8636 
G01 X-98.5300 Y22.8590 
G01 X-98.5456 Y22.8500 
G01 X-98.5622 Y22.8431 
G01 X-98.5764 Y22.8322 
G01 X-98.5920 Y22.8232 
G01 X-98.6047 Y22.8104 
G01 X-98.6190 Y22.7995 
G01 X-98.6299 Y22.7852 
G01 X-98.6427 Y22.7725 
G01 X-98.6516 Y22.7570 
G01 X-98.6626 Y22.7427 
G01 X-98.6695 Y22.7261 
G01 X-98.6785 Y22.7105 
G01 X-98.6831 Y22.6931 
G01 X-98.6900 Y22.6765 
G01 X-98.6923 Y22.6587 
G01 X-98.6970 Y22.6413 
G01 X-98.6970 Y22.6233 
G01 X-98.6993 Y22.6055 
G01 X-98.6970 Y22.5877 
G01 X-98.6970 Y8.5273 
G01 X-98.6993 Y8.5095 
G01 X-98.6970 Y8.4917 
G01 X-98.6970 Y8.4737 
G01 X-98.6923 Y8.4563 
G01 X-98.6900 Y8.4385 
G01 X-98.6831 Y8.4219 
G01 X-98.6785 Y8.4045 
G01 X-98.6695 Y8.3889 
G01 X-98.6626 Y8.3723 
G01 X-98.6516 Y8.3580 
G01 X-98.6427 Y8.3425 
G01 X-98.6299 Y8.3298 
G01 X-98.6190 Y8.3155 
G01 X-98.6047 Y8.3046 
G01 X-98.5920 Y8.2918 
G01 X-98.5764 Y8.2828 
G01 X-98.5622 Y8.2719 
G01 X-98.5456 Y8.2650 
G01 X-98.5300 Y8.2560 
G01 X-98.5126 Y8.2514 
G01 X-98.4960 Y8.2445 
G01 X-98.4782 Y8.2421 
G01 X-98.4608 Y8.2375 
G01 X-98.4428 Y8.2375 
G01 X-98.4250 Y8.2351 
G01 X-98.4072 Y8.2375 
G01 X-98.3892 Y8.2375 
G01 X-98.3718 Y8.2421 
G01 X-98.3540 Y8.2445 
G01 X-98.3374 Y8.2514 
G01 X-98.3200 Y8.2560 
G01 X-98.3045 Y8.2650 
G01 X-98.2878 Y8.2719 
G01 X-98.2736 Y8.2828 
G01 X-98.2580 Y8.2918 
G01 X-98.2453 Y8.3045 
G01 X-98.2310 Y8.3155 
G01 X-98.2201 Y8.3298 
G01 X-98.2073 Y8.3425 
G01 X-98.1984 Y8.3581 
G01 X-98.1874 Y8.3723 
G01 X-98.1805 Y8.3889 
G01 X-98.1715 Y8.4045 
G01 X-98.1669 Y8.4219 
G01 X-97.9086 Y9.0453 
G01 X-97.4479 Y9.5061 
G01 X-96.8458 Y9.7555 
G01 X-96.1942 Y9.7555 
G01 X-95.5921 Y9.5061 
G01 X-95.1314 Y9.0453 
G01 X-94.8820 Y8.4433 
G01 X-94.8820 Y7.7917 
G01 X-95.1314 Y7.1896 
G01 X-95.5921 Y6.7289 
G01 X-96.1942 Y6.4795 
G01 X-96.8458 Y6.4795 
G01 X-97.4479 Y6.7289 
G01 X-97.9086 Y7.1896 
G01 X-98.1669 Y7.8131 
G01 X-98.1715 Y7.8305 
G01 X-98.1805 Y7.8461 
G01 X-98.1874 Y7.8627 
G01 X-98.1984 Y7.8769 
G01 X-98.2073 Y7.8925 
G01 X-98.2201 Y7.9052 
G01 X-98.2310 Y7.9195 
G01 X-98.2453 Y7.9304 
G01 X-98.2580 Y7.9432 
G01 X-98.2736 Y7.9521 
G01 X-98.2878 Y7.9631 
G01 X-98.3045 Y7.9700 
G01 X-98.3200 Y7.9790 
G01 X-98.3374 Y7.9836 
G01 X-98.3540 Y7.9905 
G01 X-98.3718 Y7.9929 
G01 X-98.3892 Y7.9975 
G01 X-98.4072 Y7.9975 
G01 X-98.4250 Y7.9999 
G01 X-98.4428 Y7.9975 
G01 X-98.4608 Y7.9975 
G01 X-98.4782 Y7.9929 
G01 X-98.4960 Y7.9905 
G01 X-98.5126 Y7.9836 
G01 X-98.5300 Y7.9790 
G01 X-98.5456 Y7.9700 
G01 X-98.5622 Y7.9631 
G01 X-98.5764 Y7.9522 
G01 X-98.5920 Y7.9432 
G01 X-98.6047 Y7.9304 
G01 X-98.6190 Y7.9195 
G01 X-98.6299 Y7.9052 
G01 X-98.6427 Y7.8925 
G01 X-98.6516 Y7.8769 
G01 X-98.6626 Y7.8627 
G01 X-98.6695 Y7.8461 
G01 X-98.6785 Y7.8305 
G01 X-98.6831 Y7.8131 
G01 X-98.6900 Y7.7965 
G01 X-98.6923 Y7.7787 
G01 X-98.6970 Y7.7613 
G01 X-98.6970 Y7.7433 
G01 X-98.6993 Y7.7255 
G01 X-98.6970 Y7.7077 
G01 X-98.6970 Y1.5517 
G01 X-98.6785 Y1.4825 
G01 X-98.6427 Y1.4205 
G01 X-98.5920 Y1.3698 
G01 X-98.5300 Y1.3340 
G01 X-98.4608 Y1.3155 
G01 X-47.9716 Y1.3155 
G01 X-47.9024 Y1.3340 
G01 X-47.8404 Y1.3698 
G01 X-47.7897 Y1.4205 
G01 X-47.7539 Y1.4825 
G01 X-47.7401 Y1.5339 
G01 X-47.7354 Y1.5517 
G01 X-47.7354 Y1.6233 
G01 X-47.7539 Y1.6925 
G01 X-47.7897 Y1.7545 
G01 X-47.7950 Y1.7598 
G01 X-47.8404 Y1.8052 
G01 X-48.0674 Y2.0322 
G01 X-48.2039 Y2.3617 
G01 X-48.2039 Y2.7183 
G01 X-48.0674 Y3.0478 
G01 X-47.8153 Y3.2999 
G01 X-47.4858 Y3.4364 
G01 X-47.1292 Y3.4364 
G01 X-46.7997 Y3.2999 
G01 X-46.7110 Y3.2112 
G01 X-46.6603 Y3.1605 
G01 X-46.5983 Y3.1247 
G01 X-46.5291 Y3.1062 
G01 X-45.2643 Y3.1062 
G01 X-45.1951 Y3.1247 
G01 X-45.1331 Y3.1605 
G01 X-44.9722 Y3.3215 
G01 X-44.6334 Y3.4618 
G01 X-44.2666 Y3.4618 
G01 X-43.9278 Y3.3215 
G01 X-43.6685 Y3.0622 
G01 X-43.5282 Y2.7234 
G01 X-43.5282 Y2.3566 
G01 X-43.6685 Y2.0178 
G01 X-43.8812 Y1.8052 
G01 X-43.9319 Y1.7545 
G01 X-43.9677 Y1.6925 
G01 X-43.9862 Y1.6233 
G01 X-43.9862 Y1.5517 
G01 X-43.9810 Y1.5324 
G01 X-43.9677 Y1.4825 
G01 X-43.9329 Y1.4224 
G01 X-43.8812 Y1.3698 
G01 X-43.8192 Y1.3340 
G01 X-43.7500 Y1.3155 
G01 X-29.6631 Y1.3155 
G01 X-29.6560 Y1.3140 
G01 X-29.6273 Y1.3155 
G01 X-29.5987 Y1.3155 
G01 X-29.5917 Y1.3174 
G01 X-29.5845 Y1.3177 
G01 X-29.5572 Y1.3266 
G01 X-29.5295 Y1.3340 
G01 X-29.5232 Y1.3377 
G01 X-29.5164 Y1.3399 
G01 X-29.4923 Y1.3555 
G01 X-29.4675 Y1.3698 
G01 X-29.4624 Y1.3750 
G01 X-29.4563 Y1.3789 
G01 X-29.4371 Y1.4002 
G01 X-29.4168 Y1.4205 
G01 X-29.4132 Y1.4267 
G01 X-29.4084 Y1.4321 
G01 X-29.3954 Y1.4577 
G01 X-29.3810 Y1.4825 
G01 X-29.3792 Y1.4895 
G01 X-29.3759 Y1.4959 
G01 X-29.3699 Y1.5240 
G01 X-29.3625 Y1.5517 
G01 X-29.3625 Y1.5589 
G01 X-29.3610 Y1.5660 
G01 X-29.3625 Y1.5946 
G01 X-29.3625 Y1.6233 
G01 X-29.3644 Y1.6303 
G01 X-29.3647 Y1.6375 
G01 X-29.3736 Y1.6648 
G01 X-29.3810 Y1.6925 
G01 X-29.3846 Y1.6987 
G01 X-29.3869 Y1.7056 
G01 X-29.4025 Y1.7297 
G01 X-29.4168 Y1.7545 
G01 X-29.4219 Y1.7596 
G01 X-29.2893 Y1.7346 
G01 X-29.1307 Y1.7346 
G01 X-28.9970 Y1.7612 
G01 X-29.0032 Y1.7545 
G01 X-29.0175 Y1.7296 
G01 X-29.0331 Y1.7056 
G01 X-29.0354 Y1.6987 
G01 X-29.0390 Y1.6925 
G01 X-29.0464 Y1.6648 
G01 X-29.0553 Y1.6375 
G01 X-29.0556 Y1.6303 
G01 X-29.0575 Y1.6233 
G01 X-29.0575 Y1.5946 
G01 X-29.0590 Y1.5660 
G01 X-29.0575 Y1.5589 
G01 X-29.0575 Y1.5517 
G01 X-29.0501 Y1.5240 
G01 X-29.0441 Y1.4959 
G01 X-29.0408 Y1.4895 
G01 X-29.0390 Y1.4825 
G01 X-29.0246 Y1.4577 
G01 X-29.0116 Y1.4321 
G01 X-29.0068 Y1.4267 
G01 X-29.0032 Y1.4205 
G01 X-28.9829 Y1.4002 
G01 X-28.9637 Y1.3789 
G01 X-28.9576 Y1.3750 
G01 X-28.9525 Y1.3698 
G01 X-28.9277 Y1.3555 
G01 X-28.9036 Y1.3399 
G01 X-28.8968 Y1.3377 
G01 X-28.8905 Y1.3340 
G01 X-28.8628 Y1.3266 
G01 X-28.8355 Y1.3177 
G01 X-28.8283 Y1.3174 
G01 X-28.8213 Y1.3155 
G01 X-28.7927 Y1.3155 
G01 X-28.7640 Y1.3140 
G01 X-28.7569 Y1.3155 
G01 X-1.5517 Y1.3155 
G01 X-1.4825 Y1.3340 
G01 X-1.4205 Y1.3698 
G01 X-1.3698 Y1.4205 
G00 Z1.0000 
G00 X-4.3303 Y4.1157 
G01 Z-0.1000 F50.00 
G01 X-4.6107 Y3.9995 F75.00 
G01 X-4.9143 Y3.9995 
G01 X-5.1947 Y4.1157 
G01 X-5.4093 Y4.3303 
G01 X-5.5255 Y4.6107 
G01 X-5.5255 Y4.9143 
G01 X-5.4093 Y5.1947 
G01 X-5.1947 Y5.4093 
G01 X-4.9143 Y5.5255 
G01 X-4.6107 Y5.5255 
G01 X-4.3303 Y5.4093 
G01 X-4.1157 Y5.1947 
G01 X-3.9995 Y4.9143 
G01 X-3.9995 Y4.6107 
G01 X-4.1157 Y4.3303 
G01 X-4.3303 Y4.1157 
G00 Z1.0000 
G00 X-4.1358 Y11.2420 
G01 Z-0.1000 F50.00 
G01 X-4.7378 Y11.4914 F75.00 
G01 X-5.1986 Y11.9521 
G01 X-5.2537 Y12.0851 
G01 X-5.2583 Y12.1024 
G01 X-5.2673 Y12.1180 
G01 X-5.2742 Y12.1346 
G01 X-5.2851 Y12.1489 
G01 X-5.2941 Y12.1645 
G01 X-5.3069 Y12.1772 
G01 X-5.3178 Y12.1914 
G01 X-5.3321 Y12.2024 
G01 X-5.3448 Y12.2151 
G01 X-5.3604 Y12.2241 
G01 X-5.3746 Y12.2350 
G01 X-5.3912 Y12.2419 
G01 X-5.4068 Y12.2509 
G01 X-5.4242 Y12.2556 
G01 X-5.4408 Y12.2624 
G01 X-5.4586 Y12.2648 
G01 X-5.4760 Y12.2695 
G01 X-5.4940 Y12.2695 
G01 X-5.5118 Y12.2718 
G01 X-5.5296 Y12.2695 
G01 X-5.5476 Y12.2695 
G01 X-5.5650 Y12.2648 
G01 X-5.5828 Y12.2624 
G01 X-5.5994 Y12.2556 
G01 X-5.6168 Y12.2509 
G01 X-5.6324 Y12.2419 
G01 X-5.6490 Y12.2350 
G01 X-5.6632 Y12.2241 
G01 X-5.6788 Y12.2151 
G01 X-5.6915 Y12.2024 
G01 X-5.7058 Y12.1914 
G01 X-5.7167 Y12.1772 
G01 X-5.7295 Y12.1645 
G01 X-5.7384 Y12.1489 
G01 X-5.7494 Y12.1346 
G01 X-5.7563 Y12.1180 
G01 X-5.7653 Y12.1024 
G01 X-5.7699 Y12.0851 
G01 X-5.7768 Y12.0685 
G01 X-5.7791 Y12.0506 
G01 X-5.7838 Y12.0333 
G01 X-5.7838 Y12.0153 
G01 X-5.7861 Y11.9975 
G01 X-5.7838 Y11.9796 
G01 X-5.7838 Y10.6824 
G01 X-5.8700 Y10.4743 
G01 X-6.7589 Y9.5854 
G01 X-6.9818 Y9.3625 
G01 X-7.1899 Y9.2763 
G01 X-24.1361 Y9.2763 
G01 X-24.2053 Y9.2578 
G01 X-24.2673 Y9.2220 
G01 X-24.8564 Y8.6328 
G01 X-25.0793 Y8.4100 
G01 X-25.2874 Y8.3238 
G01 X-25.3025 Y8.3238 
G01 X-25.3199 Y8.3191 
G01 X-25.3377 Y8.3168 
G01 X-25.3543 Y8.3099 
G01 X-25.3717 Y8.3053 
G01 X-25.3873 Y8.2963 
G01 X-25.4039 Y8.2894 
G01 X-25.4181 Y8.2784 
G01 X-25.4337 Y8.2695 
G01 X-25.4464 Y8.2567 
G01 X-25.4607 Y8.2458 
G01 X-25.4716 Y8.2315 
G01 X-25.4843 Y8.2188 
G01 X-25.4933 Y8.2032 
G01 X-25.5043 Y8.1890 
G01 X-25.5112 Y8.1724 
G01 X-25.5202 Y8.1568 
G01 X-25.5248 Y8.1394 
G01 X-25.5317 Y8.1228 
G01 X-25.5340 Y8.1050 
G01 X-25.5387 Y8.0876 
G01 X-25.5387 Y8.0696 
G01 X-25.5410 Y8.0518 
G01 X-25.5387 Y8.0340 
G01 X-25.5387 Y8.0160 
G01 X-25.5340 Y7.9986 
G01 X-25.5317 Y7.9808 
G01 X-25.5248 Y7.9642 
G01 X-25.5202 Y7.9468 
G01 X-25.5112 Y7.9312 
G01 X-25.4561 Y7.7983 
G01 X-25.4561 Y7.4417 
G01 X-25.5926 Y7.1122 
G01 X-25.8447 Y6.8601 
G01 X-26.1742 Y6.7236 
G01 X-26.5308 Y6.7236 
G01 X-26.8603 Y6.8601 
G01 X-26.9490 Y6.9488 
G01 X-26.9997 Y6.9995 
G01 X-27.0617 Y7.0353 
G01 X-27.1309 Y7.0538 
G01 X-28.3957 Y7.0538 
G01 X-28.4649 Y7.0353 
G01 X-28.5269 Y6.9995 
G01 X-28.6878 Y6.8385 
G01 X-29.0266 Y6.6982 
G01 X-29.3934 Y6.6982 
G01 X-29.7322 Y6.8385 
G01 X-29.9915 Y7.0978 
G01 X-30.1318 Y7.4366 
G01 X-30.1318 Y7.8034 
G01 X-30.0788 Y7.9312 
G01 X-30.0698 Y7.9468 
G01 X-30.0652 Y7.9642 
G01 X-30.0583 Y7.9808 
G01 X-30.0560 Y7.9986 
G01 X-30.0513 Y8.0160 
G01 X-30.0513 Y8.0340 
G01 X-30.0490 Y8.0518 
G01 X-30.0513 Y8.0696 
G01 X-30.0513 Y8.0876 
G01 X-30.0559 Y8.1050 
G01 X-30.0583 Y8.1228 
G01 X-30.0652 Y8.1394 
G01 X-30.0698 Y8.1568 
G01 X-30.0788 Y8.1724 
G01 X-30.0857 Y8.1890 
G01 X-30.0967 Y8.2032 
G01 X-30.1056 Y8.2188 
G01 X-30.1184 Y8.2315 
G01 X-30.1293 Y8.2458 
G01 X-30.1436 Y8.2567 
G01 X-30.1563 Y8.2695 
G01 X-30.1719 Y8.2784 
G01 X-30.1861 Y8.2894 
G01 X-30.2027 Y8.2963 
G01 X-30.2183 Y8.3053 
G01 X-30.2357 Y8.3099 
G01 X-30.2523 Y8.3168 
G01 X-30.2701 Y8.3191 
G01 X-30.2875 Y8.3238 
G01 X-30.3055 Y8.3238 
G01 X-30.3233 Y8.3261 
G01 X-30.3411 Y8.3238 
G01 X-31.8626 Y8.3238 
G01 X-32.0707 Y8.4100 
G01 X-32.9596 Y9.2989 
G01 X-33.1825 Y9.5218 
G01 X-33.2687 Y9.7299 
G01 X-33.2687 Y19.4801 
G01 X-33.1825 Y19.6882 
G01 X-32.2936 Y20.5771 
G01 X-32.0707 Y20.8000 
G01 X-31.8626 Y20.8862 
G01 X-30.0243 Y20.8862 
G01 X-29.9551 Y20.9047 
G01 X-29.9185 Y20.9259 
G01 X-29.8931 Y20.9405 
G01 X-29.8896 Y20.9440 
G01 X-29.8424 Y20.9912 
G01 X-29.7322 Y21.1015 
G01 X-29.3934 Y21.2418 
G01 X-29.0266 Y21.2418 
G01 X-28.6878 Y21.1015 
G01 X-28.4285 Y20.8422 
G01 X-28.2882 Y20.5034 
G01 X-28.2882 Y20.1366 
G01 X-28.4285 Y19.7978 
G01 X-28.6878 Y19.5385 
G01 X-29.0266 Y19.3982 
G01 X-29.3934 Y19.3982 
G01 X-29.7322 Y19.5385 
G01 X-29.8424 Y19.6488 
G01 X-29.8931 Y19.6995 
G01 X-29.9201 Y19.7150 
G01 X-29.9551 Y19.7353 
G01 X-30.0243 Y19.7538 
G01 X-31.4386 Y19.7538 
G01 X-31.5078 Y19.7353 
G01 X-31.5698 Y19.6995 
G01 X-32.0313 Y19.2380 
G01 X-32.0820 Y19.1873 
G01 X-32.1178 Y19.1253 
G01 X-32.1363 Y19.0561 
G01 X-32.1363 Y15.0053 
G01 X-32.1178 Y14.9361 
G01 X-32.0820 Y14.8741 
G01 X-32.0321 Y14.8242 
G01 X-31.9693 Y14.7876 
G01 X-31.9001 Y14.7691 
G01 X-31.8285 Y14.7691 
G01 X-31.7593 Y14.7876 
G01 X-31.6973 Y14.8234 
G01 X-31.6466 Y14.8741 
G01 X-30.8007 Y15.7200 
G01 X-30.5926 Y15.8062 
G01 X-30.0243 Y15.8062 
G01 X-29.9551 Y15.8247 
G01 X-29.9185 Y15.8459 
G01 X-29.8931 Y15.8605 
G01 X-29.8896 Y15.8640 
G01 X-29.8424 Y15.9112 
G01 X-29.7322 Y16.0215 
G01 X-29.3934 Y16.1618 
G01 X-29.0266 Y16.1618 
G01 X-28.6878 Y16.0215 
G01 X-28.4285 Y15.7622 
G01 X-28.2882 Y15.4234 
G01 X-28.2882 Y15.0566 
G01 X-28.4285 Y14.7178 
G01 X-28.6878 Y14.4585 
G01 X-29.0266 Y14.3182 
G01 X-29.3934 Y14.3182 
G01 X-29.7322 Y14.4585 
G01 X-29.8424 Y14.5688 
G01 X-29.8931 Y14.6195 
G01 X-29.9201 Y14.6350 
G01 X-29.9551 Y14.6553 
G01 X-30.0243 Y14.6738 
G01 X-30.1686 Y14.6738 
G01 X-30.2378 Y14.6553 
G01 X-30.2998 Y14.6195 
G01 X-30.7613 Y14.1580 
G01 X-30.8120 Y14.1073 
G01 X-30.8478 Y14.0453 
G01 X-30.8663 Y13.9761 
G01 X-30.8663 Y12.6939 
G01 X-30.8615 Y12.6761 
G01 X-30.8478 Y12.6247 
G01 X-30.8120 Y12.5627 
G01 X-30.6214 Y12.3722 
G01 X-30.5708 Y12.3215 
G01 X-30.5088 Y12.2857 
G01 X-30.5058 Y12.2849 
G01 X-30.4396 Y12.2672 
G01 X-30.3680 Y12.2672 
G01 X-30.3487 Y12.2724 
G01 X-30.2988 Y12.2857 
G01 X-30.2387 Y12.3204 
G01 X-30.1861 Y12.3722 
G01 X-30.1503 Y12.4342 
G01 X-30.1495 Y12.4371 
G01 X-30.1318 Y12.5034 
G01 X-30.1318 Y12.8834 
G01 X-29.9915 Y13.2222 
G01 X-29.7322 Y13.4815 
G01 X-29.3934 Y13.6218 
G01 X-29.0266 Y13.6218 
G01 X-28.6878 Y13.4815 
G01 X-28.5776 Y13.3712 
G01 X-28.5269 Y13.3205 
G01 X-28.4999 Y13.3050 
G01 X-28.4649 Y13.2847 
G01 X-28.3957 Y13.2662 
G01 X-26.9814 Y13.2662 
G01 X-26.9122 Y13.2847 
G01 X-26.8502 Y13.3205 
G01 X-24.4507 Y15.7200 
G01 X-24.2426 Y15.8062 
G01 X-16.8214 Y15.8062 
G01 X-16.7522 Y15.8247 
G01 X-16.6902 Y15.8605 
G01 X-14.3007 Y18.2500 
G01 X-14.0926 Y18.3362 
G01 X-9.5361 Y18.3362 
G01 X-9.5184 Y18.3410 
G01 X-9.4669 Y18.3547 
G01 X-9.4049 Y18.3905 
G01 X-9.2231 Y18.5723 
G01 X-9.1725 Y18.6230 
G01 X-9.1367 Y18.6850 
G01 X-9.1359 Y18.6880 
G01 X-9.1181 Y18.7542 
G01 X-9.1181 Y18.8258 
G01 X-9.1233 Y18.8451 
G01 X-9.1367 Y18.8950 
G01 X-9.1714 Y18.9551 
G01 X-9.3543 Y19.1388 
G01 X-9.4049 Y19.1895 
G01 X-9.4669 Y19.2253 
G01 X-9.5361 Y19.2438 
G01 X-14.1686 Y19.2438 
G01 X-14.2378 Y19.2253 
G01 X-14.2998 Y19.1895 
G01 X-15.9664 Y17.5228 
G01 X-16.1893 Y17.3000 
G01 X-16.3974 Y17.2138 
G01 X-28.3957 Y17.2138 
G01 X-28.4649 Y17.1953 
G01 X-28.5269 Y17.1595 
G01 X-28.6878 Y16.9985 
G01 X-29.0266 Y16.8582 
G01 X-29.3934 Y16.8582 
G01 X-29.7322 Y16.9985 
G01 X-29.9915 Y17.2578 
G01 X-30.1318 Y17.5966 
G01 X-30.1318 Y17.9634 
G01 X-29.9915 Y18.3022 
G01 X-29.7322 Y18.5615 
G01 X-29.3934 Y18.7018 
G01 X-29.0266 Y18.7018 
G01 X-28.6878 Y18.5615 
G01 X-28.5776 Y18.4512 
G01 X-28.5269 Y18.4005 
G01 X-28.4649 Y18.3647 
G01 X-28.3957 Y18.3462 
G01 X-16.8214 Y18.3462 
G01 X-16.7522 Y18.3647 
G01 X-16.6902 Y18.4005 
G01 X-14.8007 Y20.2900 
G01 X-14.5926 Y20.3762 
G01 X-9.5361 Y20.3762 
G01 X-9.5184 Y20.3810 
G01 X-9.4669 Y20.3947 
G01 X-9.4049 Y20.4305 
G01 X-9.2231 Y20.6123 
G01 X-9.1725 Y20.6630 
G01 X-9.1367 Y20.7250 
G01 X-9.1359 Y20.7279 
G01 X-9.1181 Y20.7942 
G01 X-9.1181 Y20.8658 
G01 X-9.1233 Y20.8851 
G01 X-9.1367 Y20.9350 
G01 X-9.1714 Y20.9951 
G01 X-9.3543 Y21.1788 
G01 X-9.4049 Y21.2295 
G01 X-9.4669 Y21.2653 
G01 X-9.5361 Y21.2838 
G01 X-14.3426 Y21.2838 
G01 X-14.5507 Y21.3700 
G01 X-15.3695 Y22.1888 
G01 X-15.4202 Y22.2395 
G01 X-15.4822 Y22.2753 
G01 X-15.5514 Y22.2938 
G01 X-28.3957 Y22.2938 
G01 X-28.4649 Y22.2753 
G01 X-28.5015 Y22.2541 
G01 X-28.5269 Y22.2395 
G01 X-28.5304 Y22.2359 
G01 X-28.5776 Y22.1888 
G01 X-28.6878 Y22.0785 
G01 X-29.0266 Y21.9382 
G01 X-29.3934 Y21.9382 
G01 X-29.7322 Y22.0785 
G01 X-29.9915 Y22.3378 
G01 X-30.1318 Y22.6766 
G01 X-30.1318 Y23.0434 
G01 X-29.9915 Y23.3822 
G01 X-29.7322 Y23.6415 
G01 X-29.3934 Y23.7818 
G01 X-29.0266 Y23.7818 
G01 X-28.6878 Y23.6415 
G01 X-28.5776 Y23.5312 
G01 X-28.5269 Y23.4805 
G01 X-28.4999 Y23.4650 
G01 X-28.4649 Y23.4447 
G01 X-28.3957 Y23.4262 
G01 X-15.1274 Y23.4262 
G01 X-14.9193 Y23.3400 
G01 X-14.7471 Y23.1678 
G01 X-14.1005 Y22.5212 
G01 X-14.0498 Y22.4705 
G01 X-13.9878 Y22.4347 
G01 X-13.9186 Y22.4162 
G01 X-9.5361 Y22.4162 
G01 X-9.5184 Y22.4210 
G01 X-9.4669 Y22.4347 
G01 X-9.4049 Y22.4705 
G01 X-9.2231 Y22.6523 
G01 X-9.1725 Y22.7030 
G01 X-9.1367 Y22.7650 
G01 X-9.1359 Y22.7679 
G01 X-9.1181 Y22.8342 
G01 X-9.1181 Y22.9058 
G01 X-9.1233 Y22.9251 
G01 X-9.1367 Y22.9750 
G01 X-9.1714 Y23.0351 
G01 X-9.3543 Y23.2188 
G01 X-9.4049 Y23.2695 
G01 X-9.4669 Y23.3053 
G01 X-9.5361 Y23.3238 
G01 X-13.8426 Y23.3238 
G01 X-14.0507 Y23.4100 
G01 X-14.2229 Y23.5822 
G01 X-15.3695 Y24.7288 
G01 X-15.4202 Y24.7795 
G01 X-15.4822 Y24.8153 
G01 X-15.5514 Y24.8338 
G01 X-24.2426 Y24.8338 
G01 X-24.4507 Y24.9200 
G01 X-26.7995 Y27.2688 
G01 X-26.8502 Y27.3195 
G01 X-26.9122 Y27.3553 
G01 X-26.9814 Y27.3738 
G01 X-28.3957 Y27.3738 
G01 X-28.4649 Y27.3553 
G01 X-28.5269 Y27.3195 
G01 X-28.6878 Y27.1585 
G01 X-29.0266 Y27.0182 
G01 X-29.3934 Y27.0182 
G01 X-29.7322 Y27.1585 
G01 X-29.9915 Y27.4178 
G01 X-30.1318 Y27.7566 
G01 X-30.1318 Y28.1234 
G01 X-30.0788 Y28.2512 
G01 X-30.0698 Y28.2668 
G01 X-30.0652 Y28.2842 
G01 X-30.0583 Y28.3008 
G01 X-30.0560 Y28.3186 
G01 X-30.0513 Y28.3360 
G01 X-30.0513 Y28.3540 
G01 X-30.0490 Y28.3718 
G01 X-30.0513 Y28.3896 
G01 X-30.0513 Y28.4076 
G01 X-30.0559 Y28.4250 
G01 X-30.0583 Y28.4428 
G01 X-30.0652 Y28.4594 
G01 X-30.0698 Y28.4768 
G01 X-30.0788 Y28.4924 
G01 X-30.0857 Y28.5090 
G01 X-30.0967 Y28.5232 
G01 X-30.1056 Y28.5388 
G01 X-30.1184 Y28.5515 
G01 X-30.1293 Y28.5658 
G01 X-30.1436 Y28.5767 
G01 X-30.1563 Y28.5895 
G01 X-30.1719 Y28.5984 
G01 X-30.1861 Y28.6094 
G01 X-30.2027 Y28.6163 
G01 X-30.2183 Y28.6253 
G01 X-30.2357 Y28.6299 
G01 X-30.2523 Y28.6368 
G01 X-30.2701 Y28.6391 
G01 X-30.2875 Y28.6438 
G01 X-30.3055 Y28.6438 
G01 X-30.3233 Y28.6461 
G01 X-30.3411 Y28.6438 
G01 X-30.4861 Y28.6438 
G01 X-30.5553 Y28.6253 
G01 X-30.6173 Y28.5895 
G01 X-31.0788 Y28.1280 
G01 X-31.1295 Y28.0773 
G01 X-31.1653 Y28.0153 
G01 X-31.1838 Y27.9461 
G01 X-31.1838 Y26.6639 
G01 X-31.1653 Y26.5947 
G01 X-31.1295 Y26.5327 
G01 X-30.6680 Y26.0712 
G01 X-30.6173 Y26.0205 
G01 X-30.5553 Y25.9847 
G01 X-30.4861 Y25.9662 
G01 X-30.0243 Y25.9662 
G01 X-29.9551 Y25.9847 
G01 X-29.9185 Y26.0059 
G01 X-29.8931 Y26.0205 
G01 X-29.8896 Y26.0240 
G01 X-29.8424 Y26.0712 
G01 X-29.7322 Y26.1815 
G01 X-29.3934 Y26.3218 
G01 X-29.0266 Y26.3218 
G01 X-28.6878 Y26.1815 
G01 X-28.4285 Y25.9222 
G01 X-28.2882 Y25.5834 
G01 X-28.2882 Y25.2166 
G01 X-28.4285 Y24.8778 
G01 X-28.6878 Y24.6185 
G01 X-29.0266 Y24.4782 
G01 X-29.3934 Y24.4782 
G01 X-29.7322 Y24.6185 
G01 X-29.8424 Y24.7288 
G01 X-29.8931 Y24.7795 
G01 X-29.9201 Y24.7950 
G01 X-29.9551 Y24.8153 
G01 X-30.0243 Y24.8338 
G01 X-30.9101 Y24.8338 
G01 X-31.1182 Y24.9200 
G01 X-31.2904 Y25.0922 
G01 X-32.2300 Y26.0318 
G01 X-32.3162 Y26.2399 
G01 X-32.3162 Y28.3701 
G01 X-32.2300 Y28.5782 
G01 X-32.0578 Y28.7504 
G01 X-31.1182 Y29.6900 
G01 X-30.9101 Y29.7762 
G01 X-30.3411 Y29.7762 
G01 X-30.3233 Y29.7738 
G01 X-30.3055 Y29.7762 
G01 X-30.2875 Y29.7762 
G01 X-30.2701 Y29.7809 
G01 X-30.2523 Y29.7832 
G01 X-30.2357 Y29.7901 
G01 X-30.2183 Y29.7947 
G01 X-30.2027 Y29.8037 
G01 X-30.1861 Y29.8106 
G01 X-30.1719 Y29.8216 
G01 X-30.1563 Y29.8305 
G01 X-30.1436 Y29.8433 
G01 X-30.1293 Y29.8542 
G01 X-30.1184 Y29.8685 
G01 X-30.1056 Y29.8812 
G01 X-30.0967 Y29.8968 
G01 X-30.0857 Y29.9110 
G01 X-30.0788 Y29.9276 
G01 X-30.0698 Y29.9432 
G01 X-30.0652 Y29.9606 
G01 X-30.0583 Y29.9772 
G01 X-30.0559 Y29.9950 
G01 X-30.0513 Y30.0124 
G01 X-30.0513 Y30.0304 
G01 X-30.0490 Y30.0482 
G01 X-30.0513 Y30.0660 
G01 X-30.0513 Y30.0840 
G01 X-30.0560 Y30.1014 
G01 X-30.0583 Y30.1192 
G01 X-30.0652 Y30.1358 
G01 X-30.0698 Y30.1532 
G01 X-30.0788 Y30.1688 
G01 X-30.1318 Y30.2966 
G01 X-30.1318 Y30.6634 
G01 X-29.9915 Y31.0022 
G01 X-29.7322 Y31.2615 
G01 X-29.3934 Y31.4018 
G01 X-29.0266 Y31.4018 
G01 X-28.6878 Y31.2615 
G01 X-28.5776 Y31.1512 
G01 X-28.5269 Y31.1005 
G01 X-28.4999 Y31.0850 
G01 X-28.4649 Y31.0647 
G01 X-28.3957 Y31.0462 
G01 X-27.1308 Y31.0462 
G01 X-27.0617 Y31.0647 
G01 X-27.0251 Y31.0859 
G01 X-26.9996 Y31.1005 
G01 X-26.9490 Y31.1512 
G01 X-26.8603 Y31.2399 
G01 X-26.5308 Y31.3764 
G01 X-26.1742 Y31.3764 
G01 X-25.8447 Y31.2399 
G01 X-25.5926 Y30.9878 
G01 X-25.4561 Y30.6583 
G01 X-25.4561 Y30.3017 
G01 X-25.5462 Y30.0843 
G01 X-25.5519 Y30.0754 
G01 X-25.5598 Y30.0513 
G01 X-25.5695 Y30.0279 
G01 X-25.5709 Y30.0174 
G01 X-25.5742 Y30.0074 
G01 X-25.5756 Y29.9820 
G01 X-25.5789 Y29.9569 
G01 X-25.5775 Y29.9464 
G01 X-25.5781 Y29.9358 
G01 X-25.5728 Y29.9110 
G01 X-25.5695 Y29.8858 
G01 X-25.5655 Y29.8761 
G01 X-25.5633 Y29.8658 
G01 X-25.5518 Y29.8431 
G01 X-25.5421 Y29.8197 
G01 X-25.5357 Y29.8113 
G01 X-25.5309 Y29.8019 
G01 X-25.5140 Y29.7830 
G01 X-25.4985 Y29.7629 
G01 X-25.4901 Y29.7564 
G01 X-25.4831 Y29.7486 
G01 X-25.4618 Y29.7347 
G01 X-25.4417 Y29.7193 
G01 X-25.4232 Y29.7035 
G01 X-25.4165 Y29.7003 
G01 X-25.4105 Y29.6957 
G01 X-25.3968 Y29.6900 
G01 X-25.3578 Y29.6510 
G01 X-25.3518 Y29.6423 
G01 X-25.3325 Y29.6258 
G01 X-25.3146 Y29.6078 
G01 X-25.3054 Y29.6025 
G01 X-23.3699 Y27.9435 
G01 X-23.3519 Y27.9255 
G01 X-23.3428 Y27.9203 
G01 X-23.3348 Y27.9134 
G01 X-23.3119 Y27.9024 
G01 X-23.2899 Y27.8897 
G01 X-23.2797 Y27.8870 
G01 X-23.2702 Y27.8824 
G01 X-23.2452 Y27.8778 
G01 X-23.2207 Y27.8712 
G01 X-23.2102 Y27.8712 
G01 X-23.1998 Y27.8693 
G01 X-23.1745 Y27.8712 
G01 X-14.4924 Y27.8712 
G01 X-14.2843 Y27.7850 
G01 X-14.1121 Y27.6128 
G01 X-13.2055 Y26.7062 
G01 X-13.1548 Y26.6555 
G01 X-13.0928 Y26.6197 
G01 X-13.0236 Y26.6012 
G01 X-8.8539 Y26.6012 
G01 X-8.8397 Y26.5989 
G01 X-8.8182 Y26.6012 
G01 X-8.7967 Y26.6012 
G01 X-8.7828 Y26.6049 
G01 X-8.7684 Y26.6064 
G01 X-8.7483 Y26.6142 
G01 X-8.7275 Y26.6197 
G01 X-8.7150 Y26.6269 
G01 X-8.7016 Y26.6321 
G01 X-8.6841 Y26.6448 
G01 X-8.6655 Y26.6555 
G01 X-8.6553 Y26.6657 
G01 X-8.6500 Y26.6696 
G01 X-8.6447 Y26.6657 
G01 X-8.6345 Y26.6555 
G01 X-8.6159 Y26.6448 
G01 X-8.5984 Y26.6321 
G01 X-8.5850 Y26.6269 
G01 X-8.5725 Y26.6197 
G01 X-8.5517 Y26.6142 
G01 X-8.5316 Y26.6064 
G01 X-8.5172 Y26.6049 
G01 X-8.5033 Y26.6012 
G01 X-8.4818 Y26.6012 
G01 X-8.4603 Y26.5989 
G01 X-8.4461 Y26.6012 
G01 X-7.5074 Y26.6012 
G01 X-7.2993 Y26.5150 
G01 X-7.1271 Y26.3428 
G01 X-5.6300 Y24.8457 
G01 X-5.5438 Y24.6376 
G01 X-5.5438 Y23.7561 
G01 X-5.5253 Y23.6869 
G01 X-5.4895 Y23.6249 
G01 X-5.2855 Y23.4209 
G01 X-5.1374 Y23.0635 
G01 X-5.1374 Y22.6765 
