(.../software/eagle/pcbgcode/pcb-gcode.ulp)
(Copyright 2005 - 2012 by John Johnson)
(See readme.txt for licensing terms.)
(This file generated from the board:)
(.../pcb/controller/midicontroller.brd)
(Current profile is .../pcbgcode/profiles/generic.pp  )
(This file generated 14-04-15 15:17)
(Z Axis Settings)
(  High     Up        Down     Drill)
(10.0000 	2.0000 	-0.1000 	-2.0000 )
M06 (Contoleer je files en maten in LinuxCNC.)
G21
(Absolute Coordinates)
G90
S30000
G00 Z10.0000 
G00 X0.0000 Y0.0000 
M03
G04 P3.000000
G00 Z2.0000 
G00 X25.5057 Y4.3568 
G01 Z-0.1000 F50.00 
G01 X25.4030 Y4.4981 F75.00 
G01 X25.3236 Y4.6538 
G01 X25.2696 Y4.8200 
G01 X25.2423 Y4.9926 
G01 X25.2423 Y5.1674 
G01 X25.2696 Y5.3400 
G01 X25.3236 Y5.5062 
G01 X25.4030 Y5.6619 
G01 X25.5057 Y5.8032 
G01 X25.6293 Y5.9268 
G01 X25.7706 Y6.0295 
G01 X25.9263 Y6.1089 
G01 X26.0925 Y6.1629 
G01 X26.2651 Y6.1902 
G01 X26.4399 Y6.1902 
G01 X26.6125 Y6.1629 
G01 X26.7787 Y6.1089 
G01 X26.9344 Y6.0295 
G01 X27.0757 Y5.9268 
G01 X27.1993 Y5.8032 
G01 X27.2804 Y5.6916 
G01 X27.8077 Y6.2188 
G01 X27.8077 Y24.5067 
G01 X27.8384 Y24.6211 
G01 X27.8976 Y24.7237 
G01 X29.8026 Y26.6287 
G01 X29.8863 Y26.7124 
G01 X29.9889 Y26.7716 
G01 X30.1033 Y26.8023 
G01 X52.0057 Y26.8023 
G01 X52.0730 Y26.9344 
G01 X52.1757 Y27.0757 
G01 X52.2993 Y27.1993 
G01 X52.4406 Y27.3020 
G01 X52.5963 Y27.3814 
G01 X52.7625 Y27.4354 
G01 X52.9351 Y27.4627 
G01 X53.1099 Y27.4627 
G01 X53.2825 Y27.4354 
G01 X53.4487 Y27.3814 
G01 X53.6044 Y27.3020 
G01 X53.7457 Y27.1993 
G01 X53.8693 Y27.0757 
G01 X53.9504 Y26.9641 
G01 X54.4777 Y27.4913 
G01 X54.4777 Y29.9762 
G01 X53.7887 Y30.6652 
G01 X40.2633 Y30.6652 
G01 X40.1489 Y30.6959 
G01 X40.0463 Y30.7551 
G01 X38.7763 Y32.0251 
G01 X38.6926 Y32.1088 
G01 X38.6334 Y32.2114 
G01 X38.6027 Y32.3258 
G01 X38.6027 Y51.2487 
G01 X38.2312 Y51.6202 
G01 X27.7724 Y51.6202 
G01 X27.3442 Y51.2990 
G01 X27.3814 Y51.2262 
G01 X27.4354 Y51.0600 
G01 X27.4627 Y50.8874 
G01 X27.4627 Y50.7126 
G01 X27.4354 Y50.5400 
G01 X27.3814 Y50.3738 
G01 X27.3020 Y50.2181 
G01 X27.1993 Y50.0768 
G01 X27.0757 Y49.9532 
G01 X26.9344 Y49.8505 
G01 X26.7787 Y49.7711 
G01 X26.6125 Y49.7171 
G01 X26.4399 Y49.6898 
G01 X26.2651 Y49.6898 
G01 X26.0925 Y49.7171 
G01 X25.9263 Y49.7711 
G01 X25.7706 Y49.8505 
G01 X25.6293 Y49.9532 
G01 X25.5057 Y50.0768 
G01 X25.4030 Y50.2181 
G01 X25.3236 Y50.3738 
G01 X25.2696 Y50.5400 
G01 X25.2423 Y50.7126 
G01 X25.2423 Y50.8874 
G01 X25.2696 Y51.0600 
G01 X25.3236 Y51.2262 
G01 X25.4030 Y51.3819 
G01 X25.5057 Y51.5232 
G01 X25.6293 Y51.6468 
G01 X25.7706 Y51.7495 
G01 X25.9263 Y51.8289 
G01 X26.0925 Y51.8829 
G01 X26.2651 Y51.9102 
G01 X26.4399 Y51.9102 
G01 X26.6125 Y51.8829 
G01 X26.6200 Y51.8804 
G01 X27.3270 Y52.4107 
G01 X27.3463 Y52.4299 
G01 X27.3742 Y52.4460 
G01 X27.4000 Y52.4654 
G01 X27.4253 Y52.4755 
G01 X27.4489 Y52.4891 
G01 X27.4800 Y52.4975 
G01 X27.5099 Y52.5095 
G01 X27.5370 Y52.5127 
G01 X27.5633 Y52.5198 
G01 X27.5955 Y52.5198 
G01 X27.6275 Y52.5237 
G01 X27.6545 Y52.5198 
G01 X44.8987 Y52.5198 
G01 X45.9951 Y53.6162 
G01 X46.0788 Y53.6999 
G01 X46.1814 Y53.7591 
G01 X46.2958 Y53.7898 
G01 X54.2605 Y53.7898 
G01 X54.2875 Y53.7936 
G01 X54.3195 Y53.7898 
G01 X54.3517 Y53.7898 
G01 X54.3780 Y53.7827 
G01 X54.4051 Y53.7795 
G01 X54.4350 Y53.7675 
G01 X54.4661 Y53.7591 
G01 X54.4897 Y53.7455 
G01 X54.5150 Y53.7354 
G01 X54.5408 Y53.7160 
G01 X54.5687 Y53.6999 
G01 X54.5880 Y53.6807 
G01 X55.7124 Y52.8373 
G01 X56.7967 Y52.8373 
G01 X56.8572 Y52.9561 
G01 X56.9576 Y53.0942 
G01 X57.0783 Y53.2149 
G01 X57.2164 Y53.3153 
G01 X57.3686 Y53.3928 
G01 X57.5310 Y53.4456 
G01 X57.6996 Y53.4723 
G01 X57.8704 Y53.4723 
G01 X58.0390 Y53.4456 
G01 X58.2014 Y53.3928 
G01 X58.3536 Y53.3153 
G01 X58.4917 Y53.2149 
G01 X58.6124 Y53.0942 
G01 X58.7128 Y52.9561 
G01 X58.7903 Y52.8039 
G01 X58.8431 Y52.6415 
G01 X58.8698 Y52.4729 
G01 X58.8698 Y52.3021 
G01 X58.8431 Y52.1335 
G01 X58.7903 Y51.9711 
G01 X58.7128 Y51.8189 
G01 X58.6124 Y51.6808 
G01 X58.4917 Y51.5601 
G01 X58.3536 Y51.4597 
G01 X58.2014 Y51.3822 
G01 X58.0390 Y51.3294 
G01 X57.8704 Y51.3027 
G01 X57.6996 Y51.3027 
G01 X57.5310 Y51.3294 
G01 X57.3686 Y51.3822 
G01 X57.2164 Y51.4597 
G01 X57.0783 Y51.5601 
G01 X56.9576 Y51.6808 
G01 X56.8572 Y51.8189 
G01 X56.7967 Y51.9377 
G01 X55.5945 Y51.9377 
G01 X55.5675 Y51.9338 
G01 X55.5355 Y51.9377 
G01 X55.5033 Y51.9377 
G01 X55.4770 Y51.9448 
G01 X55.4499 Y51.9480 
G01 X55.4200 Y51.9600 
G01 X55.3889 Y51.9684 
G01 X55.3653 Y51.9820 
G01 X55.3400 Y51.9921 
G01 X55.3142 Y52.0115 
G01 X55.2863 Y52.0276 
G01 X55.2670 Y52.0468 
G01 X54.1426 Y52.8902 
G01 X46.5413 Y52.8902 
G01 X45.3612 Y51.7101 
G01 X45.2586 Y51.6509 
G01 X45.1442 Y51.6202 
G01 X39.8738 Y51.6202 
G01 X39.5023 Y51.2487 
G01 X39.5023 Y32.5713 
G01 X40.5088 Y31.5648 
G01 X54.0342 Y31.5648 
G01 X54.1486 Y31.5341 
G01 X54.2512 Y31.4749 
G01 X54.3349 Y31.3912 
G01 X55.2874 Y30.4387 
G01 X55.3466 Y30.3361 
G01 X55.3773 Y30.2217 
G01 X55.3773 Y27.2458 
G01 X55.3466 Y27.1314 
G01 X55.2874 Y27.0288 
G01 X55.2037 Y26.9451 
G01 X54.2512 Y25.9926 
G01 X54.1486 Y25.9334 
G01 X54.0401 Y25.9043 
G01 X53.9720 Y25.7706 
G01 X53.8693 Y25.6293 
G01 X53.7457 Y25.5057 
G01 X53.6044 Y25.4030 
G01 X53.4487 Y25.3236 
G01 X53.2825 Y25.2696 
G01 X53.1099 Y25.2423 
G01 X52.9351 Y25.2423 
G01 X52.7625 Y25.2696 
G01 X52.5963 Y25.3236 
G01 X52.4406 Y25.4030 
G01 X52.2993 Y25.5057 
G01 X52.1757 Y25.6293 
G01 X52.0730 Y25.7706 
G01 X52.0057 Y25.9027 
G01 X30.3488 Y25.9027 
G01 X28.7073 Y24.2612 
G01 X28.7073 Y5.9733 
G01 X28.6766 Y5.8589 
G01 X28.6174 Y5.7563 
G01 X28.5337 Y5.6726 
G01 X27.5812 Y4.7201 
G01 X27.4786 Y4.6609 
G01 X27.3701 Y4.6318 
G01 X27.3020 Y4.4981 
G01 X27.1993 Y4.3568 
G01 X27.0757 Y4.2332 
G01 X26.9344 Y4.1305 
G01 X26.7787 Y4.0511 
G01 X26.6125 Y3.9971 
G01 X26.4399 Y3.9698 
G01 X26.2651 Y3.9698 
G01 X26.0925 Y3.9971 
G01 X25.9263 Y4.0511 
G01 X25.7706 Y4.1305 
G01 X25.6293 Y4.2332 
G01 X25.5057 Y4.3568 
G00 Z2.0000 
G00 X25.5057 Y6.8968 
G01 Z-0.1000 F50.00 
G01 X25.4030 Y7.0381 F75.00 
G01 X25.3236 Y7.1938 
G01 X25.2696 Y7.3600 
G01 X25.2423 Y7.5326 
G01 X25.2423 Y7.7074 
G01 X25.2696 Y7.8800 
G01 X25.3236 Y8.0462 
G01 X25.4030 Y8.2019 
G01 X25.5057 Y8.3432 
G01 X25.6293 Y8.4668 
G01 X25.7706 Y8.5695 
G01 X25.9027 Y8.6368 
G01 X25.9027 Y28.0712 
G01 X25.3576 Y28.6163 
G01 X23.5363 Y30.4376 
G01 X23.4526 Y30.5213 
G01 X23.3934 Y30.6239 
G01 X23.3627 Y30.7383 
G01 X23.3627 Y50.8592 
G01 X23.3934 Y50.9736 
G01 X23.4526 Y51.0762 
G01 X25.3154 Y52.9391 
G01 X25.2696 Y53.0800 
G01 X25.2423 Y53.2526 
G01 X25.2423 Y53.4274 
G01 X25.2696 Y53.6000 
G01 X25.3236 Y53.7662 
G01 X25.4030 Y53.9219 
G01 X25.5057 Y54.0632 
G01 X25.6293 Y54.1868 
G01 X25.7706 Y54.2895 
G01 X25.9263 Y54.3689 
G01 X26.0925 Y54.4229 
G01 X26.2651 Y54.4502 
G01 X26.4399 Y54.4502 
G01 X26.6125 Y54.4229 
G01 X26.7534 Y54.3771 
G01 X27.5801 Y55.2037 
G01 X27.6638 Y55.2874 
G01 X27.7664 Y55.3466 
G01 X27.8808 Y55.3773 
G01 X56.7967 Y55.3773 
G01 X56.8572 Y55.4961 
G01 X56.9576 Y55.6342 
G01 X57.0783 Y55.7549 
G01 X57.2164 Y55.8553 
G01 X57.3686 Y55.9328 
G01 X57.5310 Y55.9856 
G01 X57.6996 Y56.0123 
G01 X57.8704 Y56.0123 
G01 X58.0390 Y55.9856 
G01 X58.2014 Y55.9328 
G01 X58.3536 Y55.8553 
G01 X58.4917 Y55.7549 
G01 X58.6124 Y55.6342 
G01 X58.7128 Y55.4961 
G01 X58.7903 Y55.3439 
G01 X58.8431 Y55.1815 
G01 X58.8698 Y55.0129 
G01 X58.8698 Y54.8421 
G01 X58.8431 Y54.6735 
G01 X58.7903 Y54.5111 
G01 X58.7128 Y54.3589 
G01 X58.6124 Y54.2208 
G01 X58.4917 Y54.1001 
G01 X58.3536 Y53.9997 
G01 X58.2014 Y53.9222 
G01 X58.0390 Y53.8694 
G01 X57.8704 Y53.8427 
G01 X57.6996 Y53.8427 
G01 X57.5310 Y53.8694 
G01 X57.3686 Y53.9222 
G01 X57.2164 Y53.9997 
G01 X57.0783 Y54.1001 
G01 X56.9576 Y54.2208 
G01 X56.8572 Y54.3589 
G01 X56.7967 Y54.4777 
G01 X28.1263 Y54.4777 
G01 X27.3896 Y53.7409 
G01 X27.4354 Y53.6000 
G01 X27.4627 Y53.4274 
G01 X27.4627 Y53.2526 
G01 X27.4354 Y53.0800 
G01 X27.3814 Y52.9138 
G01 X27.3020 Y52.7581 
G01 X27.1993 Y52.6168 
G01 X27.0757 Y52.4932 
G01 X26.9344 Y52.3905 
G01 X26.7787 Y52.3111 
G01 X26.6125 Y52.2571 
G01 X26.4399 Y52.2298 
G01 X26.2651 Y52.2298 
G01 X26.0925 Y52.2571 
G01 X25.9516 Y52.3029 
G01 X24.2623 Y50.6137 
G01 X24.2623 Y30.9838 
G01 X25.9038 Y29.3423 
G01 X52.0057 Y29.3423 
G01 X52.0730 Y29.4744 
G01 X52.1757 Y29.6157 
G01 X52.2993 Y29.7393 
G01 X52.4406 Y29.8420 
G01 X52.5963 Y29.9214 
G01 X52.7625 Y29.9754 
G01 X52.9351 Y30.0027 
G01 X53.1099 Y30.0027 
G01 X53.2825 Y29.9754 
G01 X53.4487 Y29.9214 
G01 X53.6044 Y29.8420 
G01 X53.7457 Y29.7393 
G01 X53.8693 Y29.6157 
G01 X53.9720 Y29.4744 
G01 X54.0514 Y29.3187 
G01 X54.1054 Y29.1525 
G01 X54.1327 Y28.9799 
G01 X54.1327 Y28.8051 
G01 X54.1054 Y28.6325 
G01 X54.0514 Y28.4663 
G01 X53.9720 Y28.3106 
G01 X53.8693 Y28.1693 
G01 X53.7457 Y28.0457 
G01 X53.6044 Y27.9430 
G01 X53.4487 Y27.8636 
G01 X53.2825 Y27.8096 
G01 X53.1099 Y27.7823 
G01 X52.9351 Y27.7823 
G01 X52.7625 Y27.8096 
G01 X52.5963 Y27.8636 
G01 X52.4406 Y27.9430 
G01 X52.2993 Y28.0457 
G01 X52.1757 Y28.1693 
G01 X52.0730 Y28.3106 
G01 X52.0057 Y28.4427 
G01 X27.1738 Y28.4427 
G01 X26.8023 Y28.0712 
G01 X26.8023 Y8.6368 
G01 X26.9344 Y8.5695 
G01 X27.0757 Y8.4668 
G01 X27.1993 Y8.3432 
G01 X27.3020 Y8.2019 
G01 X27.3814 Y8.0462 
G01 X27.4354 Y7.8800 
G01 X27.4627 Y7.7074 
G01 X27.4627 Y7.5326 
G01 X27.4354 Y7.3600 
G01 X27.3814 Y7.1938 
G01 X27.3020 Y7.0381 
G01 X27.1993 Y6.8968 
G01 X27.0757 Y6.7732 
G01 X26.9344 Y6.6705 
G01 X26.7787 Y6.5911 
G01 X26.6125 Y6.5371 
G01 X26.4399 Y6.5098 
G01 X26.2651 Y6.5098 
G01 X26.0925 Y6.5371 
G01 X25.9263 Y6.5911 
G01 X25.7706 Y6.6705 
G01 X25.6293 Y6.7732 
G01 X25.5057 Y6.8968 
G00 Z2.0000 
G00 X45.1263 Y6.0749 
G01 Z-0.1000 F50.00 
G01 X46.0788 Y7.0274 F75.00 
G01 X46.1814 Y7.0866 
G01 X46.2958 Y7.1173 
G01 X59.5037 Y7.1173 
G01 X60.5102 Y8.1238 
G01 X60.5102 Y45.8512 
G01 X59.5037 Y46.8577 
G01 X58.7733 Y46.8577 
G01 X58.7128 Y46.7389 
G01 X58.6124 Y46.6008 
G01 X58.4917 Y46.4801 
G01 X58.3536 Y46.3797 
G01 X58.2014 Y46.3022 
G01 X58.0390 Y46.2494 
G01 X57.8704 Y46.2227 
G01 X57.6996 Y46.2227 
G01 X57.5310 Y46.2494 
G01 X57.3686 Y46.3022 
G01 X57.2164 Y46.3797 
G01 X57.0783 Y46.4801 
G01 X56.9576 Y46.6008 
G01 X56.8572 Y46.7389 
G01 X56.7967 Y46.8577 
G01 X48.2008 Y46.8577 
G01 X48.0864 Y46.8884 
G01 X47.9838 Y46.9476 
G01 X47.9001 Y47.0313 
G01 X47.7084 Y47.2229 
G01 X47.5675 Y47.1771 
G01 X47.3949 Y47.1498 
G01 X47.2201 Y47.1498 
G01 X47.0475 Y47.1771 
G01 X46.8813 Y47.2311 
G01 X46.7256 Y47.3105 
G01 X46.5843 Y47.4132 
G01 X46.4607 Y47.5368 
G01 X46.3580 Y47.6781 
G01 X46.2786 Y47.8338 
G01 X46.2246 Y48.0000 
G01 X46.1973 Y48.1726 
G01 X46.1973 Y48.3474 
G01 X46.2246 Y48.5200 
G01 X46.2786 Y48.6862 
G01 X46.3580 Y48.8419 
G01 X46.4607 Y48.9832 
G01 X46.5843 Y49.1068 
G01 X46.7256 Y49.2095 
G01 X46.8813 Y49.2889 
G01 X47.0475 Y49.3429 
G01 X47.2201 Y49.3702 
G01 X47.3949 Y49.3702 
G01 X47.5675 Y49.3429 
G01 X47.7337 Y49.2889 
G01 X47.8894 Y49.2095 
G01 X48.0307 Y49.1068 
G01 X48.1543 Y48.9832 
G01 X48.2570 Y48.8419 
G01 X48.3364 Y48.6862 
G01 X48.3904 Y48.5200 
G01 X48.4177 Y48.3474 
G01 X48.4177 Y48.1726 
G01 X48.3904 Y48.0000 
G01 X48.3446 Y47.8591 
G01 X48.4463 Y47.7573 
G01 X56.7967 Y47.7573 
G01 X56.8572 Y47.8761 
G01 X56.9576 Y48.0142 
G01 X57.0783 Y48.1349 
G01 X57.2164 Y48.2353 
G01 X57.3686 Y48.3128 
G01 X57.5310 Y48.3656 
G01 X57.6996 Y48.3923 
G01 X57.8704 Y48.3923 
G01 X58.0390 Y48.3656 
G01 X58.2014 Y48.3128 
G01 X58.3536 Y48.2353 
G01 X58.4917 Y48.1349 
G01 X58.6124 Y48.0142 
G01 X58.7128 Y47.8761 
G01 X58.7733 Y47.7573 
G01 X59.7492 Y47.7573 
G01 X59.8636 Y47.7266 
G01 X59.9662 Y47.6674 
G01 X61.2362 Y46.3974 
G01 X61.3199 Y46.3137 
G01 X61.3791 Y46.2111 
G01 X61.4098 Y46.0967 
G01 X61.4098 Y7.8783 
G01 X61.3791 Y7.7639 
G01 X61.3199 Y7.6613 
G01 X60.0499 Y6.3913 
G01 X59.9662 Y6.3076 
G01 X59.8636 Y6.2484 
G01 X59.7492 Y6.2177 
G01 X46.5413 Y6.2177 
G01 X45.8523 Y5.5287 
G01 X45.8523 Y3.3613 
G01 X46.2238 Y2.9898 
G01 X46.2907 Y2.9898 
G01 X46.3580 Y3.1219 
G01 X46.4607 Y3.2632 
G01 X46.5843 Y3.3868 
G01 X46.7256 Y3.4895 
G01 X46.8813 Y3.5689 
G01 X47.0475 Y3.6229 
G01 X47.2201 Y3.6502 
G01 X47.3949 Y3.6502 
G01 X47.5675 Y3.6229 
G01 X47.7337 Y3.5689 
G01 X47.8894 Y3.4895 
G01 X48.0307 Y3.3868 
G01 X48.1543 Y3.2632 
G01 X48.2570 Y3.1219 
G01 X48.3243 Y2.9898 
G01 X71.2512 Y2.9898 
G01 X73.5277 Y5.2663 
G01 X73.5277 Y22.7957 
G01 X73.3956 Y22.8630 
G01 X73.2543 Y22.9657 
G01 X73.1307 Y23.0893 
G01 X73.0280 Y23.2306 
G01 X72.9486 Y23.3863 
G01 X72.8946 Y23.5525 
G01 X72.8673 Y23.7251 
G01 X72.8673 Y23.8999 
G01 X72.8946 Y24.0725 
G01 X72.9486 Y24.2387 
G01 X73.0280 Y24.3944 
G01 X73.1307 Y24.5357 
G01 X73.2543 Y24.6593 
G01 X73.3956 Y24.7620 
G01 X73.5513 Y24.8414 
G01 X73.7175 Y24.8954 
G01 X73.8901 Y24.9227 
G01 X74.0649 Y24.9227 
G01 X74.2375 Y24.8954 
G01 X74.4037 Y24.8414 
G01 X74.5594 Y24.7620 
G01 X74.7007 Y24.6593 
G01 X74.8243 Y24.5357 
G01 X74.9270 Y24.3944 
G01 X75.0064 Y24.2387 
G01 X75.0604 Y24.0725 
G01 X75.0877 Y23.8999 
G01 X75.0877 Y23.7251 
G01 X75.0604 Y23.5525 
G01 X75.0064 Y23.3863 
G01 X74.9270 Y23.2306 
G01 X74.8243 Y23.0893 
G01 X74.7007 Y22.9657 
G01 X74.5594 Y22.8630 
G01 X74.4273 Y22.7957 
G01 X74.4273 Y5.0208 
G01 X74.3966 Y4.9064 
G01 X74.3374 Y4.8038 
G01 X74.2537 Y4.7201 
G01 X71.7137 Y2.1801 
G01 X71.6111 Y2.1209 
G01 X71.4967 Y2.0902 
G01 X48.3243 Y2.0902 
G01 X48.2570 Y1.9581 
G01 X48.1543 Y1.8168 
G01 X48.0307 Y1.6932 
G01 X47.8894 Y1.5905 
G01 X47.7337 Y1.5111 
G01 X47.5675 Y1.4571 
G01 X47.3949 Y1.4298 
G01 X47.2201 Y1.4298 
G01 X47.0475 Y1.4571 
G01 X46.8813 Y1.5111 
G01 X46.7256 Y1.5905 
G01 X46.5843 Y1.6932 
G01 X46.4607 Y1.8168 
G01 X46.3580 Y1.9581 
G01 X46.2907 Y2.0902 
G01 X45.9783 Y2.0902 
G01 X45.8639 Y2.1209 
G01 X45.7613 Y2.1801 
G01 X45.6776 Y2.2638 
G01 X45.0426 Y2.8988 
G01 X44.9834 Y3.0014 
G01 X44.9527 Y3.1158 
G01 X44.9527 Y5.7742 
G01 X44.9834 Y5.8886 
G01 X45.0426 Y5.9912 
G01 X45.1263 Y6.0749 
G00 Z2.0000 
G00 X46.5843 Y5.9268 
G01 Z-0.1000 F50.00 
G01 X46.7256 Y6.0295 F75.00 
G01 X46.8813 Y6.1089 
G01 X47.0475 Y6.1629 
G01 X47.2201 Y6.1902 
G01 X47.3949 Y6.1902 
G01 X47.5675 Y6.1629 
G01 X47.7337 Y6.1089 
G01 X47.8894 Y6.0295 
G01 X48.0307 Y5.9268 
G01 X48.1543 Y5.8032 
G01 X48.2570 Y5.6619 
G01 X48.3243 Y5.5298 
G01 X69.6637 Y5.5298 
G01 X70.9877 Y6.8538 
G01 X70.9877 Y25.5312 
G01 X70.6162 Y25.9027 
G01 X65.3458 Y25.9027 
G01 X65.2314 Y25.9334 
G01 X65.1288 Y25.9926 
G01 X63.1401 Y27.9813 
G01 X63.0809 Y28.0839 
G01 X63.0502 Y28.1983 
G01 X63.0502 Y47.7562 
G01 X61.4087 Y49.3977 
G01 X58.7733 Y49.3977 
G01 X58.7128 Y49.2789 
G01 X58.6124 Y49.1408 
G01 X58.4917 Y49.0201 
G01 X58.3536 Y48.9197 
G01 X58.2014 Y48.8422 
G01 X58.0390 Y48.7894 
G01 X57.8704 Y48.7627 
G01 X57.6996 Y48.7627 
G01 X57.5310 Y48.7894 
G01 X57.3686 Y48.8422 
G01 X57.2164 Y48.9197 
G01 X57.0783 Y49.0201 
G01 X56.9576 Y49.1408 
G01 X56.8572 Y49.2789 
G01 X56.7967 Y49.3977 
G01 X48.2008 Y49.3977 
G01 X48.0864 Y49.4284 
G01 X47.9838 Y49.4876 
G01 X47.9001 Y49.5713 
G01 X47.7084 Y49.7629 
G01 X47.5675 Y49.7171 
G01 X47.3949 Y49.6898 
G01 X47.2201 Y49.6898 
G01 X47.0475 Y49.7171 
G01 X46.8813 Y49.7711 
G01 X46.7256 Y49.8505 
G01 X46.5843 Y49.9532 
G01 X46.4607 Y50.0768 
G01 X46.3580 Y50.2181 
G01 X46.2786 Y50.3738 
G01 X46.2246 Y50.5400 
G01 X46.1973 Y50.7126 
G01 X46.1973 Y50.8874 
G01 X46.2246 Y51.0600 
G01 X46.2786 Y51.2262 
G01 X46.3580 Y51.3819 
G01 X46.4607 Y51.5232 
G01 X46.5843 Y51.6468 
G01 X46.7256 Y51.7495 
G01 X46.8813 Y51.8289 
G01 X47.0475 Y51.8829 
G01 X47.2201 Y51.9102 
G01 X47.3949 Y51.9102 
G01 X47.5675 Y51.8829 
G01 X47.7337 Y51.8289 
G01 X47.8894 Y51.7495 
G01 X48.0307 Y51.6468 
G01 X48.1543 Y51.5232 
G01 X48.2570 Y51.3819 
G01 X48.3364 Y51.2262 
G01 X48.3904 Y51.0600 
G01 X48.4177 Y50.8874 
G01 X48.4177 Y50.7126 
G01 X48.3904 Y50.5400 
G01 X48.3446 Y50.3991 
G01 X48.4463 Y50.2973 
G01 X56.7967 Y50.2973 
G01 X56.8572 Y50.4161 
G01 X56.9576 Y50.5542 
G01 X57.0783 Y50.6749 
G01 X57.2164 Y50.7753 
G01 X57.3686 Y50.8528 
G01 X57.5310 Y50.9056 
G01 X57.6996 Y50.9323 
G01 X57.8704 Y50.9323 
G01 X58.0390 Y50.9056 
G01 X58.2014 Y50.8528 
G01 X58.3536 Y50.7753 
G01 X58.4917 Y50.6749 
G01 X58.6124 Y50.5542 
G01 X58.7128 Y50.4161 
G01 X58.7733 Y50.2973 
G01 X61.6542 Y50.2973 
G01 X61.7686 Y50.2666 
G01 X61.8712 Y50.2074 
G01 X63.7762 Y48.3024 
G01 X63.8599 Y48.2187 
G01 X63.9191 Y48.1161 
G01 X63.9498 Y48.0017 
G01 X63.9498 Y28.4438 
G01 X65.5913 Y26.8023 
G01 X72.9607 Y26.8023 
G01 X73.0280 Y26.9344 
G01 X73.1307 Y27.0757 
G01 X73.2543 Y27.1993 
G01 X73.3956 Y27.3020 
G01 X73.5513 Y27.3814 
G01 X73.7175 Y27.4354 
G01 X73.8901 Y27.4627 
G01 X74.0649 Y27.4627 
G01 X74.2375 Y27.4354 
G01 X74.4037 Y27.3814 
G01 X74.5594 Y27.3020 
G01 X74.7007 Y27.1993 
G01 X74.8243 Y27.0757 
G01 X74.9270 Y26.9344 
G01 X75.0064 Y26.7787 
G01 X75.0604 Y26.6125 
G01 X75.0877 Y26.4399 
G01 X75.0877 Y26.2651 
G01 X75.0604 Y26.0925 
G01 X75.0064 Y25.9263 
G01 X74.9270 Y25.7706 
G01 X74.8243 Y25.6293 
G01 X74.7007 Y25.5057 
G01 X74.5594 Y25.4030 
G01 X74.4037 Y25.3236 
G01 X74.2375 Y25.2696 
G01 X74.0649 Y25.2423 
G01 X73.8901 Y25.2423 
G01 X73.7175 Y25.2696 
G01 X73.5513 Y25.3236 
G01 X73.3956 Y25.4030 
G01 X73.2543 Y25.5057 
G01 X73.1307 Y25.6293 
G01 X73.0280 Y25.7706 
G01 X72.9607 Y25.9027 
G01 X72.2588 Y25.9027 
G01 X71.8873 Y25.5312 
G01 X71.8873 Y6.6083 
G01 X71.8566 Y6.4939 
G01 X71.7974 Y6.3913 
G01 X71.7137 Y6.3076 
G01 X70.1262 Y4.7201 
G01 X70.0236 Y4.6609 
G01 X69.9092 Y4.6302 
G01 X48.3243 Y4.6302 
G01 X48.2570 Y4.4981 
G01 X48.1543 Y4.3568 
G01 X48.0307 Y4.2332 
G01 X47.8894 Y4.1305 
G01 X47.7337 Y4.0511 
G01 X47.5675 Y3.9971 
G01 X47.3949 Y3.9698 
G01 X47.2201 Y3.9698 
G01 X47.0475 Y3.9971 
G01 X46.8813 Y4.0511 
G01 X46.7256 Y4.1305 
G01 X46.5843 Y4.2332 
G01 X46.4607 Y4.3568 
G01 X46.3580 Y4.4981 
G01 X46.2786 Y4.6538 
G01 X46.2246 Y4.8200 
G01 X46.1973 Y4.9926 
G01 X46.1973 Y5.1674 
G01 X46.2246 Y5.3400 
G01 X46.2786 Y5.5062 
G01 X46.3580 Y5.6619 
G01 X46.4607 Y5.8032 
G01 X46.5843 Y5.9268 
G00 Z2.0000 
G00 X27.0757 Y29.6332 
G01 Z-0.1000 F50.00 
G01 X26.9344 Y29.5305 F75.00 
G01 X26.7787 Y29.4511 
G01 X26.6125 Y29.3971 
G01 X26.4399 Y29.3698 
G01 X26.2651 Y29.3698 
G01 X26.0925 Y29.3971 
G01 X25.9263 Y29.4511 
G01 X25.7706 Y29.5305 
G01 X25.6293 Y29.6332 
G01 X25.5057 Y29.7568 
G01 X25.4030 Y29.8981 
G01 X25.3236 Y30.0538 
G01 X25.2696 Y30.2200 
G01 X25.2423 Y30.3926 
G01 X25.2423 Y30.5674 
G01 X25.2696 Y30.7400 
G01 X25.3236 Y30.9062 
G01 X25.4030 Y31.0619 
G01 X25.5057 Y31.2032 
G01 X25.6293 Y31.3268 
G01 X25.7706 Y31.4295 
G01 X25.9263 Y31.5089 
G01 X26.0925 Y31.5629 
G01 X26.2651 Y31.5902 
G01 X26.4399 Y31.5902 
G01 X26.6125 Y31.5629 
G01 X26.7787 Y31.5089 
G01 X26.9344 Y31.4295 
G01 X27.0757 Y31.3268 
G01 X27.1993 Y31.2032 
G01 X27.3020 Y31.0619 
G01 X27.3814 Y30.9062 
G01 X27.4354 Y30.7400 
G01 X27.4627 Y30.5674 
G01 X27.4627 Y30.3926 
G01 X27.4354 Y30.2200 
G01 X27.3814 Y30.0538 
G01 X27.3020 Y29.8981 
G01 X27.1993 Y29.7568 
G01 X27.0757 Y29.6332 
G00 Z2.0000 
G00 X27.0757 Y47.4132 
G01 Z-0.1000 F50.00 
G01 X26.9344 Y47.3105 F75.00 
G01 X26.7787 Y47.2311 
G01 X26.6125 Y47.1771 
G01 X26.4399 Y47.1498 
G01 X26.2651 Y47.1498 
G01 X26.0925 Y47.1771 
G01 X25.9263 Y47.2311 
G01 X25.7706 Y47.3105 
G01 X25.6293 Y47.4132 
G01 X25.5057 Y47.5368 
G01 X25.4030 Y47.6781 
G01 X25.3236 Y47.8338 
G01 X25.2696 Y48.0000 
G01 X25.2423 Y48.1726 
G01 X25.2423 Y48.3474 
G01 X25.2696 Y48.5200 
G01 X25.3236 Y48.6862 
G01 X25.4030 Y48.8419 
G01 X25.5057 Y48.9832 
G01 X25.6293 Y49.1068 
G01 X25.7706 Y49.2095 
G01 X25.9263 Y49.2889 
G01 X26.0925 Y49.3429 
G01 X26.2651 Y49.3702 
G01 X26.4399 Y49.3702 
G01 X26.6125 Y49.3429 
G01 X26.7787 Y49.2889 
G01 X26.9344 Y49.2095 
G01 X27.0757 Y49.1068 
G01 X27.1993 Y48.9832 
G01 X27.3020 Y48.8419 
G01 X27.3814 Y48.6862 
G01 X27.4354 Y48.5200 
G01 X27.4627 Y48.3474 
G01 X27.4627 Y48.1726 
G01 X27.4354 Y48.0000 
G01 X27.3814 Y47.8338 
G01 X27.3020 Y47.6781 
G01 X27.1993 Y47.5368 
G01 X27.0757 Y47.4132 
G00 Z2.0000 
G00 X26.7582 Y75.3532 
G01 Z-0.1000 F50.00 
G01 X26.6169 Y75.2505 F75.00 
G01 X26.4612 Y75.1711 
G01 X26.2950 Y75.1171 
G01 X26.1224 Y75.0898 
G01 X25.9476 Y75.0898 
G01 X25.7750 Y75.1171 
G01 X25.6088 Y75.1711 
G01 X25.4531 Y75.2505 
G01 X25.3118 Y75.3532 
G01 X25.1882 Y75.4768 
G01 X25.0855 Y75.6181 
G01 X25.0061 Y75.7738 
G01 X24.9521 Y75.9400 
G01 X24.9248 Y76.1126 
G01 X24.9248 Y76.2874 
G01 X24.9521 Y76.4600 
G01 X25.0061 Y76.6262 
G01 X25.0855 Y76.7819 
G01 X25.1882 Y76.9232 
G01 X25.3118 Y77.0468 
G01 X25.4531 Y77.1495 
G01 X25.6088 Y77.2289 
G01 X25.7750 Y77.2829 
G01 X25.9476 Y77.3102 
G01 X26.1224 Y77.3102 
G01 X26.2950 Y77.2829 
G01 X26.4612 Y77.2289 
G01 X26.6169 Y77.1495 
G01 X26.7582 Y77.0468 
G01 X26.8818 Y76.9232 
G01 X26.9845 Y76.7819 
G01 X27.0639 Y76.6262 
G01 X27.1179 Y76.4600 
G01 X27.1452 Y76.2874 
G01 X27.1452 Y76.1126 
G01 X27.1179 Y75.9400 
G01 X27.0639 Y75.7738 
G01 X26.9845 Y75.6181 
G01 X26.8818 Y75.4768 
G01 X26.7582 Y75.3532 
G00 Z2.0000 
G00 X24.2182 Y75.3532 
G01 Z-0.1000 F50.00 
G01 X24.0769 Y75.2505 F75.00 
G01 X23.9212 Y75.1711 
G01 X23.7550 Y75.1171 
G01 X23.5824 Y75.0898 
G01 X23.4076 Y75.0898 
G01 X23.2350 Y75.1171 
G01 X23.0688 Y75.1711 
G01 X22.9131 Y75.2505 
G01 X22.7718 Y75.3532 
G01 X22.6482 Y75.4768 
G01 X22.5455 Y75.6181 
G01 X22.4661 Y75.7738 
G01 X22.4121 Y75.9400 
G01 X22.3848 Y76.1126 
G01 X22.3848 Y76.2874 
G01 X22.4121 Y76.4600 
G01 X22.4661 Y76.6262 
G01 X22.5455 Y76.7819 
G01 X22.6482 Y76.9232 
G01 X22.7718 Y77.0468 
G01 X22.9131 Y77.1495 
G01 X23.0688 Y77.2289 
G01 X23.2350 Y77.2829 
G01 X23.4076 Y77.3102 
G01 X23.5079 Y77.3102 
G01 X24.6413 Y78.4436 
G01 X24.7439 Y78.5462 
G01 X24.8697 Y78.6188 
G01 X25.0099 Y78.6564 
G01 X64.2076 Y78.6564 
G01 X64.3478 Y78.6188 
G01 X64.4736 Y78.5462 
G01 X66.6961 Y76.3237 
G01 X66.7987 Y76.2211 
G01 X66.8713 Y76.0953 
G01 X66.9089 Y75.9551 
G01 X66.9089 Y50.3934 
G01 X71.9834 Y45.3189 
G01 X72.0885 Y45.3189 
G01 X72.0972 Y45.3361 
G01 X72.1976 Y45.4742 
G01 X72.3183 Y45.5949 
G01 X72.4564 Y45.6953 
G01 X72.6086 Y45.7728 
G01 X72.7710 Y45.8256 
G01 X72.9396 Y45.8523 
G01 X73.1104 Y45.8523 
G01 X73.2790 Y45.8256 
G01 X73.4414 Y45.7728 
G01 X73.5936 Y45.6953 
G01 X73.7317 Y45.5949 
G01 X73.8524 Y45.4742 
G01 X73.9528 Y45.3361 
G01 X74.0303 Y45.1839 
G01 X74.0831 Y45.0215 
G01 X74.1098 Y44.8529 
G01 X74.1098 Y44.6821 
G01 X74.0831 Y44.5135 
G01 X74.0303 Y44.3511 
G01 X73.9528 Y44.1989 
G01 X73.8524 Y44.0608 
G01 X73.7317 Y43.9401 
G01 X73.5936 Y43.8397 
G01 X73.4414 Y43.7622 
G01 X73.2790 Y43.7094 
G01 X73.1104 Y43.6827 
G01 X72.9396 Y43.6827 
G01 X72.7710 Y43.7094 
G01 X72.6086 Y43.7622 
G01 X72.4564 Y43.8397 
G01 X72.3183 Y43.9401 
G01 X72.1976 Y44.0608 
G01 X72.0972 Y44.1989 
G01 X72.0885 Y44.2161 
G01 X71.6824 Y44.2161 
G01 X71.5422 Y44.2537 
G01 X71.4164 Y44.3263 
G01 X71.3138 Y44.4289 
G01 X65.9163 Y49.8264 
G01 X65.8437 Y49.9522 
G01 X65.8061 Y50.0924 
G01 X65.8061 Y75.6541 
G01 X63.9066 Y77.5536 
G01 X25.3109 Y77.5536 
G01 X24.4765 Y76.7192 
G01 X24.5239 Y76.6262 
G01 X24.5779 Y76.4600 
G01 X24.6052 Y76.2874 
G01 X24.6052 Y76.1126 
G01 X24.5779 Y75.9400 
G01 X24.5239 Y75.7738 
G01 X24.4445 Y75.6181 
G01 X24.3418 Y75.4768 
G01 X24.2182 Y75.3532 
G00 Z2.0000 
G00 X21.3607 Y75.3532 
G01 Z-0.1000 F50.00 
G01 X21.2194 Y75.2505 F75.00 
G01 X21.0637 Y75.1711 
G01 X20.8975 Y75.1171 
G01 X20.7249 Y75.0898 
G01 X20.5501 Y75.0898 
G01 X20.3775 Y75.1171 
G01 X20.2113 Y75.1711 
G01 X20.0556 Y75.2505 
G01 X19.9143 Y75.3532 
G01 X19.7907 Y75.4768 
G01 X19.6880 Y75.6181 
G01 X19.6086 Y75.7738 
G01 X19.5546 Y75.9400 
G01 X19.5273 Y76.1126 
G01 X19.5273 Y76.2874 
G01 X19.5546 Y76.4600 
G01 X19.6086 Y76.6262 
G01 X19.6880 Y76.7819 
G01 X19.7907 Y76.9232 
G01 X19.9143 Y77.0468 
G01 X20.0556 Y77.1495 
G01 X20.2113 Y77.2289 
G01 X20.3775 Y77.2829 
G01 X20.5501 Y77.3102 
G01 X20.7249 Y77.3102 
G01 X20.8975 Y77.2829 
G01 X21.0637 Y77.2289 
G01 X21.2194 Y77.1495 
G01 X21.3607 Y77.0468 
G01 X21.4843 Y76.9232 
G01 X21.5870 Y76.7819 
G01 X21.6664 Y76.6262 
G01 X21.7204 Y76.4600 
G01 X21.7477 Y76.2874 
G01 X21.7477 Y76.1126 
G01 X21.7204 Y75.9400 
G01 X21.6664 Y75.7738 
G01 X21.5870 Y75.6181 
G01 X21.4843 Y75.4768 
G01 X21.3607 Y75.3532 
G00 Z2.0000 
G00 X18.8207 Y75.3532 
G01 Z-0.1000 F50.00 
G01 X18.6794 Y75.2505 F75.00 
G01 X18.5237 Y75.1711 
G01 X18.3575 Y75.1171 
G01 X18.1849 Y75.0898 
G01 X18.0101 Y75.0898 
G01 X17.8375 Y75.1171 
G01 X17.6713 Y75.1711 
G01 X17.5156 Y75.2505 
G01 X17.3743 Y75.3532 
G01 X17.2507 Y75.4768 
G01 X17.1480 Y75.6181 
G01 X17.0686 Y75.7738 
G01 X17.0146 Y75.9400 
G01 X16.9873 Y76.1126 
G01 X16.9873 Y76.2874 
G01 X17.0146 Y76.4600 
G01 X17.0686 Y76.6262 
G01 X17.1480 Y76.7819 
G01 X17.2507 Y76.9232 
G01 X17.3743 Y77.0468 
G01 X17.5156 Y77.1495 
G01 X17.6713 Y77.2289 
G01 X17.8375 Y77.2829 
G01 X18.0101 Y77.3102 
G01 X18.1849 Y77.3102 
G01 X18.3575 Y77.2829 
G01 X18.5237 Y77.2289 
G01 X18.6794 Y77.1495 
G01 X18.8207 Y77.0468 
G01 X18.9443 Y76.9232 
G01 X19.0470 Y76.7819 
G01 X19.1264 Y76.6262 
G01 X19.1804 Y76.4600 
G01 X19.2077 Y76.2874 
G01 X19.2077 Y76.1126 
G01 X19.1804 Y75.9400 
G01 X19.1264 Y75.7738 
G01 X19.0470 Y75.6181 
G01 X18.9443 Y75.4768 
G01 X18.8207 Y75.3532 
G00 Z2.0000 
G00 X46.4607 Y75.4768 
G01 Z-0.1000 F50.00 
G01 X46.3580 Y75.6181 F75.00 
G01 X46.2786 Y75.7738 
G01 X46.2246 Y75.9400 
G01 X46.1973 Y76.1126 
G01 X46.1973 Y76.2874 
G01 X46.2246 Y76.4600 
G01 X46.2786 Y76.6262 
G01 X46.3580 Y76.7819 
G01 X46.4607 Y76.9232 
G01 X46.5843 Y77.0468 
G01 X46.7256 Y77.1495 
G01 X46.8813 Y77.2289 
G01 X47.0475 Y77.2829 
G01 X47.2201 Y77.3102 
G01 X47.3949 Y77.3102 
G01 X47.5675 Y77.2829 
G01 X47.7337 Y77.2289 
G01 X47.8894 Y77.1495 
G01 X48.0307 Y77.0468 
G01 X48.1543 Y76.9232 
G01 X48.2570 Y76.7819 
G01 X48.3364 Y76.6262 
G01 X48.3904 Y76.4600 
G01 X48.4177 Y76.2874 
G01 X48.4177 Y76.1126 
G01 X48.3904 Y75.9400 
G01 X48.3364 Y75.7738 
G01 X48.2570 Y75.6181 
G01 X48.1543 Y75.4768 
G01 X48.0307 Y75.3532 
G01 X47.8894 Y75.2505 
G01 X47.7337 Y75.1711 
G01 X47.5675 Y75.1171 
G01 X47.3949 Y75.0898 
G01 X47.2201 Y75.0898 
G01 X47.0475 Y75.1171 
G01 X46.8813 Y75.1711 
G01 X46.7256 Y75.2505 
G01 X46.5843 Y75.3532 
G01 X46.4607 Y75.4768 
G00 Z2.0000 
G00 X57.0783 Y73.5349 
G01 Z-0.1000 F50.00 
G01 X57.2164 Y73.6353 F75.00 
G01 X57.3686 Y73.7128 
G01 X57.5310 Y73.7656 
G01 X57.6996 Y73.7923 
G01 X57.8704 Y73.7923 
G01 X58.0390 Y73.7656 
G01 X58.2014 Y73.7128 
G01 X58.3536 Y73.6353 
G01 X58.4917 Y73.5349 
G01 X58.6124 Y73.4142 
G01 X58.7128 Y73.2761 
G01 X58.7903 Y73.1239 
G01 X58.8431 Y72.9615 
G01 X58.8698 Y72.7929 
G01 X58.8698 Y72.6221 
G01 X58.8431 Y72.4535 
G01 X58.7903 Y72.2911 
G01 X58.7128 Y72.1389 
G01 X58.6124 Y72.0008 
G01 X58.4917 Y71.8801 
G01 X58.3536 Y71.7797 
G01 X58.2014 Y71.7022 
G01 X58.0390 Y71.6494 
G01 X57.8704 Y71.6227 
G01 X57.6996 Y71.6227 
G01 X57.5310 Y71.6494 
G01 X57.3686 Y71.7022 
G01 X57.2164 Y71.7797 
G01 X57.0783 Y71.8801 
G01 X56.9576 Y72.0008 
G01 X56.8572 Y72.1389 
G01 X56.7797 Y72.2911 
G01 X56.7269 Y72.4535 
G01 X56.7002 Y72.6221 
G01 X56.7002 Y72.7929 
G01 X56.7269 Y72.9615 
G01 X56.7797 Y73.1239 
G01 X56.8572 Y73.2761 
G01 X56.9576 Y73.4142 
G01 X57.0783 Y73.5349 
G00 Z2.0000 
G00 X57.0783 Y70.9949 
G01 Z-0.1000 F50.00 
G01 X57.2164 Y71.0953 F75.00 
G01 X57.3686 Y71.1728 
G01 X57.5310 Y71.2256 
G01 X57.6996 Y71.2523 
G01 X57.8704 Y71.2523 
G01 X58.0390 Y71.2256 
G01 X58.2014 Y71.1728 
G01 X58.3536 Y71.0953 
G01 X58.4917 Y70.9949 
G01 X58.6124 Y70.8742 
G01 X58.7128 Y70.7361 
G01 X58.7903 Y70.5839 
G01 X58.8431 Y70.4215 
G01 X58.8698 Y70.2529 
G01 X58.8698 Y70.0821 
G01 X58.8431 Y69.9135 
G01 X58.7903 Y69.7511 
G01 X58.7128 Y69.5989 
G01 X58.6124 Y69.4608 
G01 X58.4917 Y69.3401 
G01 X58.3536 Y69.2397 
G01 X58.2014 Y69.1622 
G01 X58.0390 Y69.1094 
G01 X57.8704 Y69.0827 
G01 X57.6996 Y69.0827 
G01 X57.5310 Y69.1094 
G01 X57.3686 Y69.1622 
G01 X57.2164 Y69.2397 
G01 X57.0783 Y69.3401 
G01 X56.9576 Y69.4608 
G01 X56.8572 Y69.5989 
G01 X56.7797 Y69.7511 
G01 X56.7269 Y69.9135 
G01 X56.7002 Y70.0821 
G01 X56.7002 Y70.2529 
G01 X56.7269 Y70.4215 
G01 X56.7797 Y70.5839 
G01 X56.8572 Y70.7361 
G01 X56.9576 Y70.8742 
G01 X57.0783 Y70.9949 
G00 Z2.0000 
G00 X57.0783 Y68.4549 
G01 Z-0.1000 F50.00 
G01 X57.2164 Y68.5553 F75.00 
G01 X57.3686 Y68.6328 
G01 X57.5310 Y68.6856 
G01 X57.6996 Y68.7123 
G01 X57.8704 Y68.7123 
G01 X58.0390 Y68.6856 
G01 X58.2014 Y68.6328 
G01 X58.3536 Y68.5553 
G01 X58.4917 Y68.4549 
G01 X58.6124 Y68.3342 
G01 X58.7128 Y68.1961 
G01 X58.7903 Y68.0439 
G01 X58.8431 Y67.8815 
G01 X58.8698 Y67.7129 
G01 X58.8698 Y67.5421 
G01 X58.8431 Y67.3735 
G01 X58.7903 Y67.2111 
G01 X58.7128 Y67.0589 
G01 X58.6124 Y66.9208 
G01 X58.4917 Y66.8001 
G01 X58.3536 Y66.6997 
G01 X58.2014 Y66.6222 
G01 X58.0390 Y66.5694 
G01 X57.8704 Y66.5427 
G01 X57.6996 Y66.5427 
G01 X57.5310 Y66.5694 
G01 X57.3686 Y66.6222 
G01 X57.2164 Y66.6997 
G01 X57.0783 Y66.8001 
G01 X56.9576 Y66.9208 
G01 X56.8572 Y67.0589 
G01 X56.7797 Y67.2111 
G01 X56.7269 Y67.3735 
G01 X56.7002 Y67.5421 
G01 X56.7002 Y67.7129 
G01 X56.7269 Y67.8815 
G01 X56.7797 Y68.0439 
G01 X56.8572 Y68.1961 
G01 X56.9576 Y68.3342 
G01 X57.0783 Y68.4549 
G00 Z2.0000 
G00 X57.0783 Y65.9149 
G01 Z-0.1000 F50.00 
G01 X57.2164 Y66.0153 F75.00 
G01 X57.3686 Y66.0928 
G01 X57.5310 Y66.1456 
G01 X57.6996 Y66.1723 
G01 X57.8704 Y66.1723 
G01 X58.0390 Y66.1456 
G01 X58.2014 Y66.0928 
G01 X58.3536 Y66.0153 
G01 X58.4917 Y65.9149 
G01 X58.6124 Y65.7942 
G01 X58.7128 Y65.6561 
G01 X58.7903 Y65.5039 
G01 X58.8431 Y65.3415 
G01 X58.8698 Y65.1729 
G01 X58.8698 Y65.0021 
G01 X58.8431 Y64.8335 
G01 X58.7903 Y64.6711 
G01 X58.7128 Y64.5189 
G01 X58.6124 Y64.3808 
G01 X58.4917 Y64.2601 
G01 X58.3536 Y64.1597 
G01 X58.2014 Y64.0822 
G01 X58.0390 Y64.0294 
G01 X57.8704 Y64.0027 
G01 X57.6996 Y64.0027 
G01 X57.5310 Y64.0294 
G01 X57.3686 Y64.0822 
G01 X57.2164 Y64.1597 
G01 X57.0783 Y64.2601 
G01 X56.9576 Y64.3808 
G01 X56.8572 Y64.5189 
G01 X56.7797 Y64.6711 
G01 X56.7269 Y64.8335 
G01 X56.7002 Y65.0021 
G01 X56.7002 Y65.1729 
G01 X56.7269 Y65.3415 
G01 X56.7797 Y65.5039 
G01 X56.8572 Y65.6561 
G01 X56.9576 Y65.7942 
G01 X57.0783 Y65.9149 
G00 Z2.0000 
G00 X57.0783 Y63.3749 
G01 Z-0.1000 F50.00 
G01 X57.2164 Y63.4753 F75.00 
G01 X57.3686 Y63.5528 
G01 X57.5310 Y63.6056 
G01 X57.6996 Y63.6323 
G01 X57.8704 Y63.6323 
G01 X58.0390 Y63.6056 
G01 X58.2014 Y63.5528 
G01 X58.3536 Y63.4753 
G01 X58.4917 Y63.3749 
G01 X58.6124 Y63.2542 
G01 X58.7128 Y63.1161 
G01 X58.7903 Y62.9639 
G01 X58.8431 Y62.8015 
G01 X58.8698 Y62.6329 
G01 X58.8698 Y62.4621 
G01 X58.8431 Y62.2935 
G01 X58.7903 Y62.1311 
G01 X58.7128 Y61.9789 
G01 X58.6124 Y61.8408 
G01 X58.4917 Y61.7201 
G01 X58.3536 Y61.6197 
G01 X58.2014 Y61.5422 
G01 X58.0390 Y61.4894 
G01 X57.8704 Y61.4627 
G01 X57.6996 Y61.4627 
G01 X57.5310 Y61.4894 
G01 X57.3686 Y61.5422 
G01 X57.2164 Y61.6197 
G01 X57.0783 Y61.7201 
G01 X56.9576 Y61.8408 
G01 X56.8572 Y61.9789 
G01 X56.7797 Y62.1311 
G01 X56.7269 Y62.2935 
G01 X56.7002 Y62.4621 
G01 X56.7002 Y62.6329 
G01 X56.7269 Y62.8015 
G01 X56.7797 Y62.9639 
G01 X56.8572 Y63.1161 
G01 X56.9576 Y63.2542 
G01 X57.0783 Y63.3749 
G00 Z2.0000 
G00 X57.0783 Y60.8349 
G01 Z-0.1000 F50.00 
G01 X57.2164 Y60.9353 F75.00 
G01 X57.3686 Y61.0128 
G01 X57.5310 Y61.0656 
G01 X57.6996 Y61.0923 
G01 X57.8704 Y61.0923 
G01 X58.0390 Y61.0656 
G01 X58.2014 Y61.0128 
G01 X58.3536 Y60.9353 
G01 X58.4917 Y60.8349 
G01 X58.6124 Y60.7142 
G01 X58.7128 Y60.5761 
G01 X58.7903 Y60.4239 
G01 X58.8431 Y60.2615 
G01 X58.8698 Y60.0929 
G01 X58.8698 Y59.9221 
G01 X58.8431 Y59.7535 
G01 X58.7903 Y59.5911 
G01 X58.7128 Y59.4389 
G01 X58.6124 Y59.3008 
G01 X58.4917 Y59.1801 
G01 X58.3536 Y59.0797 
G01 X58.2014 Y59.0022 
G01 X58.0390 Y58.9494 
G01 X57.8704 Y58.9227 
G01 X57.6996 Y58.9227 
G01 X57.5310 Y58.9494 
G01 X57.3686 Y59.0022 
G01 X57.2164 Y59.0797 
G01 X57.0783 Y59.1801 
G01 X56.9576 Y59.3008 
G01 X56.8572 Y59.4389 
G01 X56.7797 Y59.5911 
G01 X56.7269 Y59.7535 
G01 X56.7002 Y59.9221 
G01 X56.7002 Y60.0929 
G01 X56.7269 Y60.2615 
G01 X56.7797 Y60.4239 
G01 X56.8572 Y60.5761 
G01 X56.9576 Y60.7142 
G01 X57.0783 Y60.8349 
G00 Z2.0000 
G00 X57.0783 Y58.2949 
G01 Z-0.1000 F50.00 
G01 X57.2164 Y58.3953 F75.00 
G01 X57.3686 Y58.4728 
G01 X57.5310 Y58.5256 
G01 X57.6996 Y58.5523 
G01 X57.8704 Y58.5523 
G01 X58.0390 Y58.5256 
G01 X58.2014 Y58.4728 
G01 X58.3536 Y58.3953 
G01 X58.4917 Y58.2949 
G01 X58.6124 Y58.1742 
G01 X58.7128 Y58.0361 
G01 X58.7903 Y57.8839 
G01 X58.8431 Y57.7215 
G01 X58.8698 Y57.5529 
G01 X58.8698 Y57.3821 
G01 X58.8431 Y57.2135 
G01 X58.7903 Y57.0511 
G01 X58.7128 Y56.8989 
G01 X58.6124 Y56.7608 
G01 X58.4917 Y56.6401 
G01 X58.3536 Y56.5397 
G01 X58.2014 Y56.4622 
G01 X58.0390 Y56.4094 
G01 X57.8704 Y56.3827 
G01 X57.6996 Y56.3827 
G01 X57.5310 Y56.4094 
G01 X57.3686 Y56.4622 
G01 X57.2164 Y56.5397 
G01 X57.0783 Y56.6401 
G01 X56.9576 Y56.7608 
G01 X56.8572 Y56.8989 
G01 X56.7797 Y57.0511 
G01 X56.7269 Y57.2135 
G01 X56.7002 Y57.3821 
G01 X56.7002 Y57.5529 
G01 X56.7269 Y57.7215 
G01 X56.7797 Y57.8839 
G01 X56.8572 Y58.0361 
G01 X56.9576 Y58.1742 
G01 X57.0783 Y58.2949 
G00 Z2.0000 
G00 X53.8693 Y52.4757 
G01 Z-0.1000 F50.00 
G01 X53.9720 Y52.3344 F75.00 
G01 X54.0514 Y52.1787 
G01 X54.1054 Y52.0125 
G01 X54.1327 Y51.8399 
G01 X54.1327 Y51.6651 
G01 X54.1054 Y51.4925 
G01 X54.0514 Y51.3263 
G01 X53.9720 Y51.1706 
G01 X53.8693 Y51.0293 
G01 X53.7457 Y50.9057 
G01 X53.6044 Y50.8030 
G01 X53.4487 Y50.7236 
G01 X53.2825 Y50.6696 
G01 X53.1099 Y50.6423 
G01 X52.9351 Y50.6423 
G01 X52.7625 Y50.6696 
G01 X52.5963 Y50.7236 
G01 X52.4406 Y50.8030 
G01 X52.2993 Y50.9057 
G01 X52.1757 Y51.0293 
G01 X52.0730 Y51.1706 
G01 X51.9936 Y51.3263 
G01 X51.9396 Y51.4925 
G01 X51.9123 Y51.6651 
G01 X51.9123 Y51.8399 
G01 X51.9396 Y52.0125 
G01 X51.9936 Y52.1787 
G01 X52.0730 Y52.3344 
G01 X52.1757 Y52.4757 
G01 X52.2993 Y52.5993 
G01 X52.4406 Y52.7020 
G01 X52.5963 Y52.7814 
G01 X52.7625 Y52.8354 
G01 X52.9351 Y52.8627 
G01 X53.1099 Y52.8627 
G01 X53.2825 Y52.8354 
G01 X53.4487 Y52.7814 
G01 X53.6044 Y52.7020 
G01 X53.7457 Y52.5993 
G01 X53.8693 Y52.4757 
G00 Z2.0000 
G00 X57.0783 Y45.5949 
G01 Z-0.1000 F50.00 
G01 X57.2164 Y45.6953 F75.00 
G01 X57.3686 Y45.7728 
G01 X57.5310 Y45.8256 
G01 X57.6996 Y45.8523 
G01 X57.8704 Y45.8523 
G01 X58.0390 Y45.8256 
G01 X58.2014 Y45.7728 
G01 X58.3536 Y45.6953 
G01 X58.4917 Y45.5949 
G01 X58.6124 Y45.4742 
G01 X58.7128 Y45.3361 
G01 X58.7903 Y45.1839 
G01 X58.8431 Y45.0215 
G01 X58.8698 Y44.8529 
G01 X58.8698 Y44.6821 
G01 X58.8431 Y44.5135 
G01 X58.7903 Y44.3511 
G01 X58.7128 Y44.1989 
G01 X58.6124 Y44.0608 
G01 X58.4917 Y43.9401 
G01 X58.3536 Y43.8397 
G01 X58.2014 Y43.7622 
G01 X58.0390 Y43.7094 
G01 X57.8704 Y43.6827 
G01 X57.6996 Y43.6827 
G01 X57.5310 Y43.7094 
G01 X57.3686 Y43.7622 
G01 X57.2164 Y43.8397 
G01 X57.0783 Y43.9401 
G01 X56.9576 Y44.0608 
G01 X56.8572 Y44.1989 
G01 X56.7797 Y44.3511 
G01 X56.7269 Y44.5135 
G01 X56.7002 Y44.6821 
G01 X56.7002 Y44.8529 
G01 X56.7269 Y45.0215 
G01 X56.7797 Y45.1839 
G01 X56.8572 Y45.3361 
G01 X56.9576 Y45.4742 
G01 X57.0783 Y45.5949 
G00 Z2.0000 
G00 X67.8213 Y50.4614 
G01 Z-0.1000 F50.00 
G01 X67.7487 Y50.5872 F75.00 
G01 X67.7111 Y50.7274 
G01 X67.7111 Y74.6851 
G01 X67.7487 Y74.8253 
G01 X67.8213 Y74.9511 
G01 X69.7263 Y76.8561 
G01 X69.8289 Y76.9587 
G01 X69.9547 Y77.0313 
G01 X70.0949 Y77.0689 
G01 X84.8451 Y77.0689 
G01 X84.9853 Y77.0313 
G01 X85.1111 Y76.9587 
G01 X86.6986 Y75.3712 
G01 X86.8012 Y75.2686 
G01 X86.8738 Y75.1428 
G01 X86.9114 Y75.0026 
G01 X86.9114 Y70.1515 
G01 X86.9286 Y70.1428 
G01 X87.0667 Y70.0424 
G01 X87.1874 Y69.9217 
G01 X87.2878 Y69.7836 
G01 X87.3653 Y69.6314 
G01 X87.4181 Y69.4690 
G01 X87.4448 Y69.3004 
G01 X87.4448 Y69.1296 
G01 X87.4181 Y68.9610 
G01 X87.3653 Y68.7986 
G01 X87.2878 Y68.6464 
G01 X87.1874 Y68.5083 
G01 X87.0667 Y68.3876 
G01 X86.9286 Y68.2872 
G01 X86.7764 Y68.2097 
G01 X86.6140 Y68.1569 
G01 X86.4454 Y68.1302 
G01 X86.2746 Y68.1302 
G01 X86.1060 Y68.1569 
G01 X85.9436 Y68.2097 
G01 X85.7914 Y68.2872 
G01 X85.6533 Y68.3876 
G01 X85.5326 Y68.5083 
G01 X85.4322 Y68.6464 
G01 X85.3547 Y68.7986 
G01 X85.3019 Y68.9610 
G01 X85.2752 Y69.1296 
G01 X85.2752 Y69.3004 
G01 X85.3019 Y69.4690 
G01 X85.3547 Y69.6314 
G01 X85.4322 Y69.7836 
G01 X85.5326 Y69.9217 
G01 X85.6533 Y70.0424 
G01 X85.7914 Y70.1428 
G01 X85.8086 Y70.1515 
G01 X85.8086 Y74.7016 
G01 X84.5441 Y75.9661 
G01 X70.3959 Y75.9661 
G01 X68.8139 Y74.3841 
G01 X68.8139 Y51.0284 
G01 X69.4434 Y50.3989 
G01 X72.0885 Y50.3989 
G01 X72.0972 Y50.4161 
G01 X72.1976 Y50.5542 
G01 X72.3183 Y50.6749 
G01 X72.4564 Y50.7753 
G01 X72.6086 Y50.8528 
G01 X72.7710 Y50.9056 
G01 X72.9396 Y50.9323 
G01 X73.1104 Y50.9323 
G01 X73.2790 Y50.9056 
G01 X73.4414 Y50.8528 
G01 X73.5936 Y50.7753 
G01 X73.7317 Y50.6749 
G01 X73.8524 Y50.5542 
G01 X73.9528 Y50.4161 
G01 X74.0303 Y50.2639 
G01 X74.0831 Y50.1015 
G01 X74.1098 Y49.9329 
G01 X74.1098 Y49.7621 
G01 X74.0831 Y49.5935 
G01 X74.0303 Y49.4311 
G01 X73.9528 Y49.2789 
G01 X73.8524 Y49.1408 
G01 X73.7317 Y49.0201 
G01 X73.5936 Y48.9197 
G01 X73.4414 Y48.8422 
G01 X73.2790 Y48.7894 
G01 X73.1104 Y48.7627 
G01 X72.9396 Y48.7627 
G01 X72.7710 Y48.7894 
G01 X72.6086 Y48.8422 
G01 X72.4564 Y48.9197 
G01 X72.3183 Y49.0201 
G01 X72.1976 Y49.1408 
G01 X72.0972 Y49.2789 
G01 X72.0885 Y49.2961 
G01 X69.1424 Y49.2961 
G01 X69.0022 Y49.3337 
G01 X68.8764 Y49.4063 
G01 X67.9239 Y50.3588 
G01 X67.8213 Y50.4614 
G00 Z2.0000 
G00 X69.4088 Y53.0014 
G01 Z-0.1000 F50.00 
G01 X69.3362 Y53.1272 F75.00 
G01 X69.2986 Y53.2674 
G01 X69.2986 Y73.7326 
G01 X69.3362 Y73.8728 
G01 X69.4088 Y73.9986 
G01 X70.6788 Y75.2686 
G01 X70.7814 Y75.3712 
G01 X70.9072 Y75.4438 
G01 X71.0474 Y75.4814 
G01 X82.6226 Y75.4814 
G01 X82.7628 Y75.4438 
G01 X82.8886 Y75.3712 
G01 X84.1586 Y74.1012 
G01 X84.2612 Y73.9986 
G01 X84.3338 Y73.8728 
G01 X84.3714 Y73.7326 
G01 X84.3714 Y70.1515 
G01 X84.3886 Y70.1428 
G01 X84.5267 Y70.0424 
G01 X84.6474 Y69.9217 
G01 X84.7478 Y69.7836 
G01 X84.8253 Y69.6314 
G01 X84.8781 Y69.4690 
G01 X84.9048 Y69.3004 
G01 X84.9048 Y69.1296 
G01 X84.8781 Y68.9610 
G01 X84.8253 Y68.7986 
G01 X84.7478 Y68.6464 
G01 X84.6474 Y68.5083 
G01 X84.5267 Y68.3876 
G01 X84.3886 Y68.2872 
G01 X84.2364 Y68.2097 
G01 X84.0740 Y68.1569 
G01 X83.9054 Y68.1302 
G01 X83.7346 Y68.1302 
G01 X83.5660 Y68.1569 
G01 X83.4036 Y68.2097 
G01 X83.2514 Y68.2872 
G01 X83.1133 Y68.3876 
G01 X82.9926 Y68.5083 
G01 X82.8922 Y68.6464 
G01 X82.8147 Y68.7986 
G01 X82.7619 Y68.9610 
G01 X82.7352 Y69.1296 
G01 X82.7352 Y69.3004 
G01 X82.7619 Y69.4690 
G01 X82.8147 Y69.6314 
G01 X82.8922 Y69.7836 
G01 X82.9926 Y69.9217 
G01 X83.1133 Y70.0424 
G01 X83.2514 Y70.1428 
G01 X83.2686 Y70.1515 
G01 X83.2686 Y73.4316 
G01 X82.3216 Y74.3786 
G01 X71.3484 Y74.3786 
G01 X70.4014 Y73.4316 
G01 X70.4014 Y53.5684 
G01 X71.0309 Y52.9389 
G01 X72.0885 Y52.9389 
G01 X72.0972 Y52.9561 
G01 X72.1976 Y53.0942 
G01 X72.3183 Y53.2149 
G01 X72.4564 Y53.3153 
G01 X72.6086 Y53.3928 
G01 X72.7710 Y53.4456 
G01 X72.9396 Y53.4723 
G01 X73.1104 Y53.4723 
G01 X73.2790 Y53.4456 
G01 X73.4414 Y53.3928 
G01 X73.5936 Y53.3153 
G01 X73.7317 Y53.2149 
G01 X73.8524 Y53.0942 
G01 X73.9528 Y52.9561 
G01 X74.0303 Y52.8039 
G01 X74.0831 Y52.6415 
G01 X74.1098 Y52.4729 
G01 X74.1098 Y52.3021 
G01 X74.0831 Y52.1335 
G01 X74.0303 Y51.9711 
G01 X73.9528 Y51.8189 
G01 X73.8524 Y51.6808 
G01 X73.7317 Y51.5601 
G01 X73.5936 Y51.4597 
G01 X73.4414 Y51.3822 
G01 X73.2790 Y51.3294 
G01 X73.1104 Y51.3027 
G01 X72.9396 Y51.3027 
G01 X72.7710 Y51.3294 
G01 X72.6086 Y51.3822 
G01 X72.4564 Y51.4597 
G01 X72.3183 Y51.5601 
G01 X72.1976 Y51.6808 
G01 X72.0972 Y51.8189 
G01 X72.0885 Y51.8361 
G01 X70.7299 Y51.8361 
G01 X70.5897 Y51.8737 
G01 X70.4639 Y51.9463 
G01 X69.5114 Y52.8988 
G01 X69.4088 Y53.0014 
G00 Z2.0000 
G00 X72.1976 Y54.2208 
G01 Z-0.1000 F50.00 
G01 X72.0972 Y54.3589 F75.00 
G01 X72.0197 Y54.5111 
G01 X71.9669 Y54.6735 
G01 X71.9402 Y54.8421 
G01 X71.9402 Y55.0129 
G01 X71.9669 Y55.1815 
G01 X72.0197 Y55.3439 
G01 X72.0972 Y55.4961 
G01 X72.1976 Y55.6342 
G01 X72.3183 Y55.7549 
G01 X72.4564 Y55.8553 
G01 X72.6086 Y55.9328 
G01 X72.7710 Y55.9856 
G01 X72.9396 Y56.0123 
G01 X73.1104 Y56.0123 
G01 X73.2790 Y55.9856 
G01 X73.4414 Y55.9328 
G01 X73.5936 Y55.8553 
G01 X73.7317 Y55.7549 
G01 X73.8524 Y55.6342 
G01 X73.9528 Y55.4961 
G01 X74.0303 Y55.3439 
G01 X74.0831 Y55.1815 
G01 X74.1098 Y55.0129 
G01 X74.1098 Y54.8421 
G01 X74.0831 Y54.6735 
G01 X74.0303 Y54.5111 
G01 X73.9528 Y54.3589 
G01 X73.8524 Y54.2208 
G01 X73.7317 Y54.1001 
G01 X73.5936 Y53.9997 
G01 X73.4414 Y53.9222 
G01 X73.2790 Y53.8694 
G01 X73.1104 Y53.8427 
G01 X72.9396 Y53.8427 
G01 X72.7710 Y53.8694 
G01 X72.6086 Y53.9222 
G01 X72.4564 Y53.9997 
G01 X72.3183 Y54.1001 
G01 X72.1976 Y54.2208 
G00 Z2.0000 
G00 X72.1976 Y56.7608 
G01 Z-0.1000 F50.00 
G01 X72.0972 Y56.8989 F75.00 
G01 X72.0197 Y57.0511 
G01 X71.9669 Y57.2135 
G01 X71.9402 Y57.3821 
G01 X71.9402 Y57.5529 
G01 X71.9669 Y57.7215 
G01 X72.0197 Y57.8839 
G01 X72.0972 Y58.0361 
G01 X72.1976 Y58.1742 
G01 X72.3183 Y58.2949 
G01 X72.4564 Y58.3953 
G01 X72.6086 Y58.4728 
G01 X72.7710 Y58.5256 
G01 X72.9396 Y58.5523 
G01 X73.1104 Y58.5523 
G01 X73.2790 Y58.5256 
G01 X73.4414 Y58.4728 
G01 X73.5936 Y58.3953 
G01 X73.7317 Y58.2949 
G01 X73.8524 Y58.1742 
G01 X73.9528 Y58.0361 
G01 X74.0303 Y57.8839 
G01 X74.0831 Y57.7215 
G01 X74.1098 Y57.5529 
G01 X74.1098 Y57.3821 
G01 X74.0831 Y57.2135 
G01 X74.0303 Y57.0511 
G01 X73.9528 Y56.8989 
G01 X73.8524 Y56.7608 
G01 X73.7317 Y56.6401 
G01 X73.5936 Y56.5397 
G01 X73.4414 Y56.4622 
G01 X73.2790 Y56.4094 
G01 X73.1104 Y56.3827 
G01 X72.9396 Y56.3827 
G01 X72.7710 Y56.4094 
G01 X72.6086 Y56.4622 
G01 X72.4564 Y56.5397 
G01 X72.3183 Y56.6401 
G01 X72.1976 Y56.7608 
G00 Z2.0000 
G00 X72.1976 Y59.3008 
G01 Z-0.1000 F50.00 
G01 X72.0972 Y59.4389 F75.00 
G01 X72.0197 Y59.5911 
G01 X71.9669 Y59.7535 
G01 X71.9402 Y59.9221 
G01 X71.9402 Y60.0929 
G01 X71.9669 Y60.2615 
G01 X72.0197 Y60.4239 
G01 X72.0972 Y60.5761 
G01 X72.1976 Y60.7142 
G01 X72.3183 Y60.8349 
G01 X72.4564 Y60.9353 
G01 X72.6086 Y61.0128 
G01 X72.7710 Y61.0656 
G01 X72.9396 Y61.0923 
G01 X73.1104 Y61.0923 
G01 X73.2790 Y61.0656 
G01 X73.4414 Y61.0128 
G01 X73.5936 Y60.9353 
G01 X73.7317 Y60.8349 
G01 X73.8524 Y60.7142 
G01 X73.9528 Y60.5761 
G01 X74.0303 Y60.4239 
G01 X74.0831 Y60.2615 
G01 X74.1098 Y60.0929 
G01 X74.1098 Y59.9221 
G01 X74.0831 Y59.7535 
G01 X74.0303 Y59.5911 
G01 X73.9528 Y59.4389 
G01 X73.8524 Y59.3008 
G01 X73.7317 Y59.1801 
G01 X73.5936 Y59.0797 
G01 X73.4414 Y59.0022 
G01 X73.2790 Y58.9494 
G01 X73.1104 Y58.9227 
G01 X72.9396 Y58.9227 
G01 X72.7710 Y58.9494 
G01 X72.6086 Y59.0022 
G01 X72.4564 Y59.0797 
G01 X72.3183 Y59.1801 
G01 X72.1976 Y59.3008 
G00 Z2.0000 
G00 X72.1976 Y61.8408 
G01 Z-0.1000 F50.00 
G01 X72.0972 Y61.9789 F75.00 
G01 X72.0197 Y62.1311 
G01 X71.9669 Y62.2935 
G01 X71.9402 Y62.4621 
G01 X71.9402 Y62.6329 
G01 X71.9669 Y62.8015 
G01 X72.0197 Y62.9639 
G01 X72.0972 Y63.1161 
G01 X72.1976 Y63.2542 
G01 X72.3183 Y63.3749 
G01 X72.4564 Y63.4753 
G01 X72.6086 Y63.5528 
G01 X72.7710 Y63.6056 
G01 X72.9396 Y63.6323 
G01 X73.1104 Y63.6323 
G01 X73.2790 Y63.6056 
G01 X73.4414 Y63.5528 
G01 X73.5936 Y63.4753 
G01 X73.7317 Y63.3749 
G01 X73.8524 Y63.2542 
G01 X73.9528 Y63.1161 
G01 X74.0303 Y62.9639 
G01 X74.0831 Y62.8015 
G01 X74.1098 Y62.6329 
G01 X74.1098 Y62.4621 
G01 X74.0831 Y62.2935 
G01 X74.0303 Y62.1311 
G01 X73.9528 Y61.9789 
G01 X73.8524 Y61.8408 
G01 X73.7317 Y61.7201 
G01 X73.5936 Y61.6197 
G01 X73.4414 Y61.5422 
G01 X73.2790 Y61.4894 
G01 X73.1104 Y61.4627 
G01 X72.9396 Y61.4627 
G01 X72.7710 Y61.4894 
G01 X72.6086 Y61.5422 
G01 X72.4564 Y61.6197 
G01 X72.3183 Y61.7201 
G01 X72.1976 Y61.8408 
G00 Z2.0000 
G00 X72.1976 Y64.3808 
G01 Z-0.1000 F50.00 
G01 X72.0972 Y64.5189 F75.00 
G01 X72.0197 Y64.6711 
G01 X71.9669 Y64.8335 
G01 X71.9402 Y65.0021 
G01 X71.9402 Y65.1729 
G01 X71.9669 Y65.3415 
G01 X72.0197 Y65.5039 
G01 X72.0972 Y65.6561 
G01 X72.1976 Y65.7942 
G01 X72.3183 Y65.9149 
G01 X72.4564 Y66.0153 
G01 X72.6086 Y66.0928 
G01 X72.7710 Y66.1456 
G01 X72.9396 Y66.1723 
G01 X73.1104 Y66.1723 
G01 X73.2790 Y66.1456 
G01 X73.4414 Y66.0928 
G01 X73.5936 Y66.0153 
G01 X73.7317 Y65.9149 
G01 X73.8524 Y65.7942 
G01 X73.9528 Y65.6561 
G01 X73.9615 Y65.6389 
G01 X76.2726 Y65.6389 
G01 X76.4128 Y65.6013 
G01 X76.5386 Y65.5287 
G01 X78.1261 Y63.9412 
G01 X78.2287 Y63.8386 
G01 X78.3013 Y63.7128 
G01 X78.3389 Y63.5726 
G01 X78.3389 Y60.8709 
G01 X79.6034 Y59.6064 
G01 X81.4357 Y59.6064 
G01 X81.4444 Y59.6236 
G01 X81.5448 Y59.7617 
G01 X81.6655 Y59.8824 
G01 X81.8036 Y59.9828 
G01 X81.9558 Y60.0603 
G01 X82.1182 Y60.1131 
G01 X82.2868 Y60.1398 
G01 X82.4576 Y60.1398 
G01 X82.6262 Y60.1131 
G01 X82.7886 Y60.0603 
G01 X82.9408 Y59.9828 
G01 X83.0789 Y59.8824 
G01 X83.1996 Y59.7617 
G01 X83.3000 Y59.6236 
G01 X83.3775 Y59.4714 
G01 X83.4303 Y59.3090 
G01 X83.4570 Y59.1404 
G01 X83.4570 Y58.9696 
G01 X83.4303 Y58.8010 
G01 X83.3775 Y58.6386 
G01 X83.3000 Y58.4864 
G01 X83.1996 Y58.3483 
G01 X83.0789 Y58.2276 
G01 X82.9408 Y58.1272 
G01 X82.7886 Y58.0497 
G01 X82.6262 Y57.9969 
G01 X82.4576 Y57.9702 
G01 X82.2868 Y57.9702 
G01 X82.1182 Y57.9969 
G01 X81.9558 Y58.0497 
G01 X81.8036 Y58.1272 
G01 X81.6655 Y58.2276 
G01 X81.5448 Y58.3483 
G01 X81.4444 Y58.4864 
G01 X81.4357 Y58.5036 
G01 X79.3024 Y58.5036 
G01 X79.1622 Y58.5412 
G01 X79.0364 Y58.6138 
G01 X78.9338 Y58.7164 
G01 X77.4489 Y60.2013 
G01 X77.3463 Y60.3039 
G01 X77.2737 Y60.4297 
G01 X77.2361 Y60.5699 
G01 X77.2361 Y63.2716 
G01 X75.9716 Y64.5361 
G01 X73.9615 Y64.5361 
G01 X73.9528 Y64.5189 
G01 X73.8524 Y64.3808 
G01 X73.7317 Y64.2601 
G01 X73.5936 Y64.1597 
G01 X73.4414 Y64.0822 
G01 X73.2790 Y64.0294 
G01 X73.1104 Y64.0027 
G01 X72.9396 Y64.0027 
G01 X72.7710 Y64.0294 
G01 X72.6086 Y64.0822 
G01 X72.4564 Y64.1597 
G01 X72.3183 Y64.2601 
G01 X72.1976 Y64.3808 
G00 Z2.0000 
G00 X72.1976 Y66.9208 
G01 Z-0.1000 F50.00 
G01 X72.0972 Y67.0589 F75.00 
G01 X72.0197 Y67.2111 
G01 X71.9669 Y67.3735 
G01 X71.9402 Y67.5421 
G01 X71.9402 Y67.7129 
G01 X71.9669 Y67.8815 
G01 X72.0197 Y68.0439 
G01 X72.0972 Y68.1961 
G01 X72.1976 Y68.3342 
G01 X72.3183 Y68.4549 
G01 X72.4564 Y68.5553 
G01 X72.6086 Y68.6328 
G01 X72.7710 Y68.6856 
G01 X72.9396 Y68.7123 
G01 X73.1104 Y68.7123 
G01 X73.2790 Y68.6856 
G01 X73.4414 Y68.6328 
G01 X73.5936 Y68.5553 
G01 X73.7317 Y68.4549 
G01 X73.8524 Y68.3342 
G01 X73.9528 Y68.1961 
G01 X73.9615 Y68.1789 
G01 X75.9716 Y68.1789 
G01 X77.3463 Y69.5536 
G01 X77.4489 Y69.6562 
G01 X77.5747 Y69.7288 
G01 X77.7149 Y69.7664 
G01 X80.3435 Y69.7664 
G01 X80.3522 Y69.7836 
G01 X80.4526 Y69.9217 
G01 X80.5733 Y70.0424 
G01 X80.7114 Y70.1428 
G01 X80.8636 Y70.2203 
G01 X81.0260 Y70.2731 
G01 X81.1946 Y70.2998 
G01 X81.3654 Y70.2998 
G01 X81.5340 Y70.2731 
G01 X81.6964 Y70.2203 
G01 X81.8486 Y70.1428 
G01 X81.9867 Y70.0424 
G01 X82.1074 Y69.9217 
G01 X82.2078 Y69.7836 
G01 X82.2853 Y69.6314 
G01 X82.3381 Y69.4690 
G01 X82.3648 Y69.3004 
G01 X82.3648 Y69.1296 
G01 X82.3381 Y68.9610 
G01 X82.2853 Y68.7986 
G01 X82.2078 Y68.6464 
G01 X82.1074 Y68.5083 
G01 X81.9867 Y68.3876 
G01 X81.8486 Y68.2872 
G01 X81.6964 Y68.2097 
G01 X81.5340 Y68.1569 
G01 X81.3654 Y68.1302 
G01 X81.1946 Y68.1302 
G01 X81.0260 Y68.1569 
G01 X80.8636 Y68.2097 
G01 X80.7114 Y68.2872 
G01 X80.5733 Y68.3876 
G01 X80.4526 Y68.5083 
G01 X80.3522 Y68.6464 
G01 X80.3435 Y68.6636 
G01 X78.0159 Y68.6636 
G01 X76.5386 Y67.1863 
G01 X76.4128 Y67.1137 
G01 X76.2726 Y67.0761 
G01 X73.9615 Y67.0761 
G01 X73.9528 Y67.0589 
G01 X73.8524 Y66.9208 
G01 X73.7317 Y66.8001 
G01 X73.5936 Y66.6997 
G01 X73.4414 Y66.6222 
G01 X73.2790 Y66.5694 
G01 X73.1104 Y66.5427 
G01 X72.9396 Y66.5427 
G01 X72.7710 Y66.5694 
G01 X72.6086 Y66.6222 
G01 X72.4564 Y66.6997 
G01 X72.3183 Y66.8001 
G01 X72.1976 Y66.9208 
G00 Z2.0000 
G00 X72.1976 Y69.4608 
G01 Z-0.1000 F50.00 
G01 X72.0972 Y69.5989 F75.00 
G01 X72.0197 Y69.7511 
G01 X71.9669 Y69.9135 
G01 X71.9402 Y70.0821 
G01 X71.9402 Y70.2529 
G01 X71.9669 Y70.4215 
G01 X72.0197 Y70.5839 
G01 X72.0972 Y70.7361 
G01 X72.1976 Y70.8742 
G01 X72.3183 Y70.9949 
G01 X72.4564 Y71.0953 
G01 X72.6086 Y71.1728 
G01 X72.7710 Y71.2256 
G01 X72.9396 Y71.2523 
G01 X73.1104 Y71.2523 
G01 X73.2790 Y71.2256 
G01 X73.4414 Y71.1728 
G01 X73.5936 Y71.0953 
G01 X73.7317 Y70.9949 
G01 X73.8524 Y70.8742 
G01 X73.9528 Y70.7361 
G01 X74.0303 Y70.5839 
G01 X74.0831 Y70.4215 
G01 X74.1098 Y70.2529 
G01 X74.1098 Y70.0821 
G01 X74.0831 Y69.9135 
G01 X74.0303 Y69.7511 
G01 X73.9528 Y69.5989 
G01 X73.8524 Y69.4608 
G01 X73.7317 Y69.3401 
G01 X73.5936 Y69.2397 
G01 X73.4414 Y69.1622 
G01 X73.2790 Y69.1094 
G01 X73.1104 Y69.0827 
G01 X72.9396 Y69.0827 
G01 X72.7710 Y69.1094 
G01 X72.6086 Y69.1622 
G01 X72.4564 Y69.2397 
G01 X72.3183 Y69.3401 
G01 X72.1976 Y69.4608 
G00 Z2.0000 
G00 X72.1976 Y72.0008 
G01 Z-0.1000 F50.00 
G01 X72.0972 Y72.1389 F75.00 
G01 X72.0197 Y72.2911 
G01 X71.9669 Y72.4535 
G01 X71.9402 Y72.6221 
G01 X71.9402 Y72.7929 
G01 X71.9669 Y72.9615 
G01 X72.0197 Y73.1239 
G01 X72.0972 Y73.2761 
G01 X72.1976 Y73.4142 
G01 X72.3183 Y73.5349 
G01 X72.4564 Y73.6353 
G01 X72.6086 Y73.7128 
G01 X72.7710 Y73.7656 
G01 X72.9396 Y73.7923 
G01 X73.1104 Y73.7923 
G01 X73.2790 Y73.7656 
G01 X73.4414 Y73.7128 
G01 X73.5936 Y73.6353 
G01 X73.7317 Y73.5349 
G01 X73.8524 Y73.4142 
G01 X73.9528 Y73.2761 
G01 X74.0303 Y73.1239 
G01 X74.0831 Y72.9615 
G01 X74.1098 Y72.7929 
G01 X74.1098 Y72.6221 
G01 X74.0831 Y72.4535 
G01 X74.0303 Y72.2911 
G01 X73.9528 Y72.1389 
G01 X73.8524 Y72.0008 
G01 X73.7317 Y71.8801 
G01 X73.5936 Y71.7797 
G01 X73.4414 Y71.7022 
G01 X73.2790 Y71.6494 
G01 X73.1104 Y71.6227 
G01 X72.9396 Y71.6227 
G01 X72.7710 Y71.6494 
G01 X72.6086 Y71.7022 
G01 X72.4564 Y71.7797 
G01 X72.3183 Y71.8801 
G01 X72.1976 Y72.0008 
G00 Z2.0000 
G00 X80.5733 Y67.5024 
G01 Z-0.1000 F50.00 
G01 X80.7114 Y67.6028 F75.00 
G01 X80.8636 Y67.6803 
G01 X81.0260 Y67.7331 
G01 X81.1946 Y67.7598 
G01 X81.3654 Y67.7598 
G01 X81.5340 Y67.7331 
G01 X81.6964 Y67.6803 
G01 X81.8486 Y67.6028 
G01 X81.9867 Y67.5024 
G01 X82.1074 Y67.3817 
G01 X82.2078 Y67.2436 
G01 X82.2853 Y67.0914 
G01 X82.3381 Y66.9290 
G01 X82.3648 Y66.7604 
G01 X82.3648 Y66.5896 
G01 X82.3381 Y66.4210 
G01 X82.2853 Y66.2586 
G01 X82.2078 Y66.1064 
G01 X82.1074 Y65.9683 
G01 X81.9867 Y65.8476 
G01 X81.8486 Y65.7472 
G01 X81.6964 Y65.6697 
G01 X81.5340 Y65.6169 
G01 X81.3654 Y65.5902 
G01 X81.1946 Y65.5902 
G01 X81.0260 Y65.6169 
G01 X80.8636 Y65.6697 
G01 X80.7114 Y65.7472 
G01 X80.5733 Y65.8476 
G01 X80.4526 Y65.9683 
G01 X80.3522 Y66.1064 
G01 X80.2747 Y66.2586 
G01 X80.2219 Y66.4210 
G01 X80.1952 Y66.5896 
G01 X80.1952 Y66.7604 
G01 X80.2219 Y66.9290 
G01 X80.2747 Y67.0914 
G01 X80.3522 Y67.2436 
G01 X80.4526 Y67.3817 
G01 X80.5733 Y67.5024 
G00 Z2.0000 
G00 X83.1133 Y67.5024 
G01 Z-0.1000 F50.00 
G01 X83.2514 Y67.6028 F75.00 
G01 X83.4036 Y67.6803 
G01 X83.5660 Y67.7331 
G01 X83.7346 Y67.7598 
G01 X83.9054 Y67.7598 
G01 X84.0740 Y67.7331 
G01 X84.2364 Y67.6803 
G01 X84.3886 Y67.6028 
G01 X84.5267 Y67.5024 
G01 X84.6474 Y67.3817 
G01 X84.7478 Y67.2436 
G01 X84.8253 Y67.0914 
G01 X84.8781 Y66.9290 
G01 X84.9048 Y66.7604 
G01 X84.9048 Y66.5896 
G01 X84.8781 Y66.4210 
G01 X84.8253 Y66.2586 
G01 X84.7478 Y66.1064 
G01 X84.6474 Y65.9683 
G01 X84.5267 Y65.8476 
G01 X84.3886 Y65.7472 
G01 X84.2364 Y65.6697 
G01 X84.1682 Y65.6475 
G01 X84.1682 Y49.6441 
G01 X84.2612 Y49.5511 
G01 X84.3338 Y49.4253 
G01 X84.3714 Y49.2851 
G01 X84.3714 Y49.1399 
G01 X84.3338 Y48.9997 
G01 X84.2612 Y48.8739 
G01 X82.2536 Y46.8663 
G01 X82.1278 Y46.7937 
G01 X81.9876 Y46.7561 
G01 X73.9615 Y46.7561 
G01 X73.9528 Y46.7389 
G01 X73.8524 Y46.6008 
G01 X73.7317 Y46.4801 
G01 X73.5936 Y46.3797 
G01 X73.4414 Y46.3022 
G01 X73.2790 Y46.2494 
G01 X73.1104 Y46.2227 
G01 X72.9396 Y46.2227 
G01 X72.7710 Y46.2494 
G01 X72.6086 Y46.3022 
G01 X72.4564 Y46.3797 
G01 X72.3183 Y46.4801 
G01 X72.1976 Y46.6008 
G01 X72.0972 Y46.7389 
G01 X72.0197 Y46.8911 
G01 X71.9669 Y47.0535 
G01 X71.9402 Y47.2221 
G01 X71.9402 Y47.3929 
G01 X71.9669 Y47.5615 
G01 X72.0197 Y47.7239 
G01 X72.0972 Y47.8761 
G01 X72.1976 Y48.0142 
G01 X72.3183 Y48.1349 
G01 X72.4564 Y48.2353 
G01 X72.6086 Y48.3128 
G01 X72.7710 Y48.3656 
G01 X72.9396 Y48.3923 
G01 X73.1104 Y48.3923 
G01 X73.2790 Y48.3656 
G01 X73.4414 Y48.3128 
G01 X73.5936 Y48.2353 
G01 X73.7317 Y48.1349 
G01 X73.8524 Y48.0142 
G01 X73.9528 Y47.8761 
G01 X73.9615 Y47.8589 
G01 X81.6866 Y47.8589 
G01 X83.4718 Y49.6441 
G01 X83.4718 Y65.6475 
G01 X83.4036 Y65.6697 
G01 X83.2514 Y65.7472 
G01 X83.1133 Y65.8476 
G01 X82.9926 Y65.9683 
G01 X82.8922 Y66.1064 
G01 X82.8147 Y66.2586 
G01 X82.7619 Y66.4210 
G01 X82.7352 Y66.5896 
G01 X82.7352 Y66.7604 
G01 X82.7619 Y66.9290 
G01 X82.8147 Y67.0914 
G01 X82.8922 Y67.2436 
G01 X82.9926 Y67.3817 
G01 X83.1133 Y67.5024 
G00 Z2.0000 
G00 X85.6533 Y67.5024 
G01 Z-0.1000 F50.00 
G01 X85.7914 Y67.6028 F75.00 
G01 X85.9436 Y67.6803 
G01 X86.1060 Y67.7331 
G01 X86.2746 Y67.7598 
G01 X86.4454 Y67.7598 
G01 X86.6140 Y67.7331 
G01 X86.7764 Y67.6803 
G01 X86.9286 Y67.6028 
G01 X87.0667 Y67.5024 
G01 X87.1874 Y67.3817 
G01 X87.2878 Y67.2436 
G01 X87.3653 Y67.0914 
G01 X87.4181 Y66.9290 
G01 X87.4448 Y66.7604 
G01 X87.4448 Y66.5896 
G01 X87.4181 Y66.4210 
G01 X87.3653 Y66.2586 
G01 X87.2878 Y66.1064 
G01 X87.1874 Y65.9683 
G01 X87.0667 Y65.8476 
G01 X86.9286 Y65.7472 
G01 X86.8978 Y65.7315 
G01 X86.7717 Y60.0015 
G01 X86.7717 Y59.9349 
G01 X86.7701 Y59.9290 
G01 X86.7700 Y59.9228 
G01 X86.7513 Y59.8589 
G01 X86.7341 Y59.7947 
G01 X86.7310 Y59.7893 
G01 X86.7293 Y59.7834 
G01 X86.6948 Y59.7265 
G01 X86.6615 Y59.6689 
G01 X86.6572 Y59.6646 
G01 X86.6540 Y59.6593 
G01 X86.6059 Y59.6133 
G01 X86.3199 Y59.3273 
G01 X86.3259 Y59.3090 
G01 X86.3526 Y59.1404 
G01 X86.3526 Y58.9696 
G01 X86.3259 Y58.8010 
G01 X86.2731 Y58.6386 
G01 X86.1956 Y58.4864 
G01 X86.0952 Y58.3483 
G01 X85.9745 Y58.2276 
G01 X85.8364 Y58.1272 
G01 X85.6842 Y58.0497 
G01 X85.5218 Y57.9969 
G01 X85.3532 Y57.9702 
G01 X85.1824 Y57.9702 
G01 X85.0138 Y57.9969 
G01 X84.8514 Y58.0497 
G01 X84.6992 Y58.1272 
G01 X84.5611 Y58.2276 
G01 X84.4404 Y58.3483 
G01 X84.3400 Y58.4864 
G01 X84.2625 Y58.6386 
G01 X84.2097 Y58.8010 
G01 X84.1830 Y58.9696 
G01 X84.1830 Y59.1404 
G01 X84.2097 Y59.3090 
G01 X84.2625 Y59.4714 
G01 X84.3400 Y59.6236 
G01 X84.4404 Y59.7617 
G01 X84.5611 Y59.8824 
G01 X84.6992 Y59.9828 
G01 X84.8514 Y60.0603 
G01 X85.0138 Y60.1131 
G01 X85.1824 Y60.1398 
G01 X85.3532 Y60.1398 
G01 X85.5218 Y60.1131 
G01 X85.5401 Y60.1071 
G01 X85.6739 Y60.2409 
G01 X85.7950 Y65.7454 
G01 X85.7914 Y65.7472 
G01 X85.6533 Y65.8476 
G01 X85.5326 Y65.9683 
G01 X85.4322 Y66.1064 
G01 X85.3547 Y66.2586 
G01 X85.3019 Y66.4210 
G01 X85.2752 Y66.5896 
G01 X85.2752 Y66.7604 
G01 X85.3019 Y66.9290 
G01 X85.3547 Y67.0914 
G01 X85.4322 Y67.2436 
G01 X85.5326 Y67.3817 
G01 X85.6533 Y67.5024 
G00 Z2.0000 
G00 X93.3023 Y42.3460 
G01 Z-0.1000 F50.00 
G01 X93.4347 Y42.4423 F75.00 
G01 X93.5806 Y42.5166 
G01 X93.7364 Y42.5672 
G01 X93.8981 Y42.5928 
G01 X94.0619 Y42.5928 
G01 X94.2236 Y42.5672 
G01 X94.3794 Y42.5166 
G01 X94.5253 Y42.4423 
G01 X94.6577 Y42.3460 
G01 X94.7735 Y42.2302 
G01 X94.8698 Y42.0978 
G01 X94.9441 Y41.9519 
G01 X94.9947 Y41.7961 
G01 X95.0203 Y41.6344 
G01 X95.0203 Y41.4706 
G01 X94.9947 Y41.3089 
G01 X94.9441 Y41.1531 
G01 X94.8698 Y41.0072 
G01 X94.7735 Y40.8748 
G01 X94.6577 Y40.7590 
G01 X94.5253 Y40.6627 
G01 X94.3794 Y40.5884 
G01 X94.2236 Y40.5378 
G01 X94.0619 Y40.5121 
G01 X93.8981 Y40.5121 
G01 X93.7364 Y40.5378 
G01 X93.5806 Y40.5884 
G01 X93.4347 Y40.6627 
G01 X93.3023 Y40.7590 
G01 X93.1865 Y40.8748 
G01 X93.0902 Y41.0072 
G01 X93.0159 Y41.1531 
G01 X92.9653 Y41.3089 
G01 X92.9397 Y41.4706 
G01 X92.9397 Y41.6344 
G01 X92.9653 Y41.7961 
G01 X93.0159 Y41.9519 
G01 X93.0902 Y42.0978 
G01 X93.1865 Y42.2302 
G01 X93.3023 Y42.3460 
G00 Z2.0000 
G00 X93.3023 Y37.3460 
G01 Z-0.1000 F50.00 
G01 X93.4347 Y37.4423 F75.00 
G01 X93.5806 Y37.5166 
G01 X93.7364 Y37.5672 
G01 X93.8981 Y37.5928 
G01 X94.0619 Y37.5928 
G01 X94.2236 Y37.5672 
G01 X94.3794 Y37.5166 
G01 X94.5253 Y37.4423 
G01 X94.6577 Y37.3460 
G01 X94.7735 Y37.2302 
G01 X94.8698 Y37.0978 
G01 X94.9441 Y36.9519 
G01 X94.9947 Y36.7961 
G01 X95.0203 Y36.6344 
G01 X95.0203 Y36.4706 
G01 X94.9947 Y36.3089 
G01 X94.9441 Y36.1531 
G01 X94.8698 Y36.0072 
G01 X94.7735 Y35.8748 
G01 X94.6577 Y35.7590 
G01 X94.5253 Y35.6627 
G01 X94.3794 Y35.5884 
G01 X94.2236 Y35.5378 
G01 X94.0619 Y35.5121 
G01 X93.8981 Y35.5121 
G01 X93.7364 Y35.5378 
G01 X93.5806 Y35.5884 
G01 X93.4347 Y35.6627 
G01 X93.3023 Y35.7590 
G01 X93.1865 Y35.8748 
G01 X93.0902 Y36.0072 
G01 X93.0159 Y36.1531 
G01 X92.9653 Y36.3089 
G01 X92.9397 Y36.4706 
G01 X92.9397 Y36.6344 
G01 X92.9653 Y36.7961 
G01 X93.0159 Y36.9519 
G01 X93.0902 Y37.0978 
G01 X93.1865 Y37.2302 
G01 X93.3023 Y37.3460 
G00 Z2.0000 
G00 X25.4294 Y4.2916 
G01 Z-0.1000 F50.00 
G01 X25.3174 Y4.4457 F75.00 
G01 X25.2310 Y4.6154 
G01 X25.1721 Y4.7966 
G01 X25.1423 Y4.9848 
G01 X25.1423 Y5.1752 
G01 X25.1721 Y5.3634 
G01 X25.2310 Y5.5446 
G01 X25.3174 Y5.7143 
G01 X25.4294 Y5.8684 
G01 X25.5641 Y6.0031 
G01 X25.7182 Y6.1151 
G01 X25.8879 Y6.2015 
G01 X26.0691 Y6.2604 
G01 X26.2573 Y6.2902 
G01 X26.4477 Y6.2902 
G01 X26.6359 Y6.2604 
G01 X26.8171 Y6.2015 
G01 X26.9868 Y6.1151 
G01 X27.1409 Y6.0031 
G01 X27.2756 Y5.8684 
G01 X27.2925 Y5.8451 
G01 X27.7077 Y6.2602 
G01 X27.7077 Y24.5199 
G01 X27.7452 Y24.6597 
G01 X27.8176 Y24.7851 
G01 X29.7225 Y26.6901 
G01 X29.8249 Y26.7924 
G01 X29.9503 Y26.8648 
G01 X30.0901 Y26.9023 
G01 X51.9444 Y26.9023 
G01 X51.9874 Y26.9868 
G01 X52.0994 Y27.1409 
G01 X52.2341 Y27.2756 
G01 X52.3882 Y27.3876 
G01 X52.5579 Y27.4740 
G01 X52.7391 Y27.5329 
G01 X52.9273 Y27.5627 
G01 X53.1177 Y27.5627 
G01 X53.3059 Y27.5329 
G01 X53.4871 Y27.4740 
G01 X53.6568 Y27.3876 
G01 X53.8109 Y27.2756 
G01 X53.9456 Y27.1409 
G01 X53.9625 Y27.1176 
G01 X54.3777 Y27.5327 
G01 X54.3777 Y29.9348 
G01 X53.7473 Y30.5652 
G01 X40.2501 Y30.5652 
G01 X40.1103 Y30.6027 
G01 X39.9849 Y30.6750 
G01 X38.7149 Y31.9450 
G01 X38.6125 Y32.0474 
G01 X38.5402 Y32.1728 
G01 X38.5027 Y32.3126 
G01 X38.5027 Y51.2073 
G01 X38.1898 Y51.5202 
G01 X27.8058 Y51.5202 
G01 X27.4715 Y51.2695 
G01 X27.4740 Y51.2646 
G01 X27.5329 Y51.0834 
G01 X27.5627 Y50.8952 
G01 X27.5627 Y50.7048 
G01 X27.5329 Y50.5166 
G01 X27.4740 Y50.3354 
G01 X27.3876 Y50.1657 
G01 X27.2756 Y50.0116 
G01 X27.1409 Y49.8769 
G01 X26.9868 Y49.7649 
G01 X26.8171 Y49.6785 
G01 X26.6359 Y49.6196 
G01 X26.4477 Y49.5898 
G01 X26.2573 Y49.5898 
G01 X26.0691 Y49.6196 
G01 X25.8879 Y49.6785 
G01 X25.7182 Y49.7649 
G01 X25.5641 Y49.8769 
G01 X25.4294 Y50.0116 
G01 X25.3174 Y50.1657 
G01 X25.2310 Y50.3354 
G01 X25.1721 Y50.5166 
G01 X25.1423 Y50.7048 
G01 X25.1423 Y50.8952 
G01 X25.1721 Y51.0834 
G01 X25.2310 Y51.2646 
G01 X25.3174 Y51.4343 
G01 X25.4294 Y51.5884 
G01 X25.5641 Y51.7231 
G01 X25.7182 Y51.8351 
G01 X25.8879 Y51.9215 
G01 X26.0691 Y51.9804 
G01 X26.2573 Y52.0102 
G01 X26.4477 Y52.0102 
G01 X26.5953 Y51.9868 
G01 X27.2614 Y52.4864 
G01 X27.2849 Y52.5099 
G01 X27.3190 Y52.5296 
G01 X27.3505 Y52.5533 
G01 X27.3814 Y52.5657 
G01 X27.4103 Y52.5823 
G01 X27.4483 Y52.5925 
G01 X27.4849 Y52.6072 
G01 X27.5179 Y52.6112 
G01 X27.5501 Y52.6198 
G01 X27.5895 Y52.6198 
G01 X27.6286 Y52.6245 
G01 X27.6616 Y52.6198 
G01 X44.8573 Y52.6198 
G01 X45.9151 Y53.6776 
G01 X46.0174 Y53.7799 
G01 X46.1428 Y53.8523 
G01 X46.2826 Y53.8898 
G01 X54.2534 Y53.8898 
G01 X54.2864 Y53.8945 
G01 X54.3255 Y53.8898 
G01 X54.3649 Y53.8898 
G01 X54.3971 Y53.8812 
G01 X54.4301 Y53.8772 
G01 X54.4667 Y53.8625 
G01 X54.5047 Y53.8523 
G01 X54.5336 Y53.8357 
G01 X54.5645 Y53.8233 
G01 X54.5960 Y53.7996 
G01 X54.6301 Y53.7799 
G01 X54.6536 Y53.7564 
G01 X55.7458 Y52.9373 
G01 X56.7354 Y52.9373 
G01 X56.7717 Y53.0085 
G01 X56.8813 Y53.1593 
G01 X57.0132 Y53.2912 
G01 X57.1640 Y53.4008 
G01 X57.3302 Y53.4855 
G01 X57.5076 Y53.5431 
G01 X57.6917 Y53.5723 
G01 X57.8782 Y53.5723 
G01 X58.0624 Y53.5431 
G01 X58.2398 Y53.4855 
G01 X58.4060 Y53.4008 
G01 X58.5568 Y53.2912 
G01 X58.6887 Y53.1593 
G01 X58.7983 Y53.0085 
G01 X58.8830 Y52.8423 
G01 X58.9406 Y52.6649 
G01 X58.9698 Y52.4807 
G01 X58.9698 Y52.2942 
G01 X58.9406 Y52.1101 
G01 X58.8830 Y51.9327 
G01 X58.7983 Y51.7665 
G01 X58.6887 Y51.6157 
G01 X58.5568 Y51.4838 
G01 X58.4060 Y51.3742 
G01 X58.2398 Y51.2895 
G01 X58.0624 Y51.2319 
G01 X57.8782 Y51.2027 
G01 X57.6917 Y51.2027 
G01 X57.5076 Y51.2319 
G01 X57.3302 Y51.2895 
G01 X57.1640 Y51.3742 
G01 X57.0132 Y51.4838 
G01 X56.8813 Y51.6157 
G01 X56.7717 Y51.7665 
G01 X56.7354 Y51.8377 
G01 X55.6016 Y51.8377 
G01 X55.5686 Y51.8330 
G01 X55.5295 Y51.8377 
G01 X55.4901 Y51.8377 
G01 X55.4579 Y51.8463 
G01 X55.4249 Y51.8503 
G01 X55.3883 Y51.8650 
G01 X55.3503 Y51.8752 
G01 X55.3214 Y51.8918 
G01 X55.2905 Y51.9042 
G01 X55.2590 Y51.9279 
G01 X55.2249 Y51.9475 
G01 X55.2014 Y51.9711 
G01 X54.1092 Y52.7902 
G01 X53.6516 Y52.7902 
G01 X53.6568 Y52.7876 
G01 X53.8109 Y52.6756 
G01 X53.9456 Y52.5409 
G01 X54.0576 Y52.3868 
G01 X54.1440 Y52.2171 
G01 X54.2029 Y52.0359 
G01 X54.2327 Y51.8477 
G01 X54.2327 Y51.6573 
G01 X54.2029 Y51.4691 
G01 X54.1440 Y51.2879 
G01 X54.0576 Y51.1182 
G01 X53.9456 Y50.9641 
G01 X53.8109 Y50.8294 
G01 X53.6568 Y50.7174 
G01 X53.4871 Y50.6310 
G01 X53.3059 Y50.5721 
G01 X53.1177 Y50.5423 
G01 X52.9273 Y50.5423 
G01 X52.7391 Y50.5721 
G01 X52.5579 Y50.6310 
G01 X52.3882 Y50.7174 
G01 X52.2341 Y50.8294 
G01 X52.0994 Y50.9641 
G01 X51.9874 Y51.1182 
G01 X51.9010 Y51.2879 
G01 X51.8421 Y51.4691 
G01 X51.8123 Y51.6573 
G01 X51.8123 Y51.8477 
G01 X51.8421 Y52.0359 
G01 X51.9010 Y52.2171 
G01 X51.9874 Y52.3868 
G01 X52.0994 Y52.5409 
G01 X52.2341 Y52.6756 
G01 X52.3882 Y52.7876 
G01 X52.3934 Y52.7902 
G01 X46.5827 Y52.7902 
G01 X45.4226 Y51.6300 
G01 X45.2972 Y51.5577 
G01 X45.1574 Y51.5202 
G01 X39.9152 Y51.5202 
G01 X39.6023 Y51.2073 
G01 X39.6023 Y32.6127 
G01 X40.5502 Y31.6648 
G01 X54.0474 Y31.6648 
G01 X54.1872 Y31.6273 
G01 X54.3126 Y31.5549 
G01 X54.4149 Y31.4526 
G01 X55.3674 Y30.5001 
G01 X55.4398 Y30.3747 
G01 X55.4773 Y30.2349 
G01 X55.4773 Y27.2326 
G01 X55.4398 Y27.0928 
G01 X55.3674 Y26.9674 
G01 X55.2651 Y26.8651 
G01 X54.3126 Y25.9125 
G01 X54.1872 Y25.8402 
G01 X54.1090 Y25.8192 
G01 X54.0576 Y25.7182 
G01 X53.9456 Y25.5641 
G01 X53.8109 Y25.4294 
G01 X53.6568 Y25.3174 
G01 X53.4871 Y25.2310 
G01 X53.3059 Y25.1721 
G01 X53.1177 Y25.1423 
G01 X52.9273 Y25.1423 
G01 X52.7391 Y25.1721 
G01 X52.5579 Y25.2310 
G01 X52.3882 Y25.3174 
G01 X52.2341 Y25.4294 
G01 X52.0994 Y25.5641 
G01 X51.9874 Y25.7182 
G01 X51.9444 Y25.8027 
G01 X30.3902 Y25.8027 
G01 X28.8073 Y24.2198 
G01 X28.8073 Y5.9601 
G01 X28.7698 Y5.8203 
G01 X28.6974 Y5.6949 
G01 X28.5951 Y5.5926 
G01 X27.6426 Y4.6400 
G01 X27.5172 Y4.5677 
G01 X27.4390 Y4.5467 
G01 X27.3876 Y4.4457 
G01 X27.2756 Y4.2916 
G01 X27.1409 Y4.1569 
G01 X26.9868 Y4.0449 
G01 X26.8171 Y3.9585 
G01 X26.6359 Y3.8996 
G01 X26.4477 Y3.8698 
G01 X26.2573 Y3.8698 
G01 X26.0691 Y3.8996 
G01 X25.8879 Y3.9585 
G01 X25.7182 Y4.0449 
G01 X25.5641 Y4.1569 
G01 X25.4294 Y4.2916 
G00 Z2.0000 
G00 X25.4294 Y6.8316 
G01 Z-0.1000 F50.00 
G01 X25.3174 Y6.9857 F75.00 
G01 X25.2310 Y7.1554 
G01 X25.1721 Y7.3366 
G01 X25.1423 Y7.5248 
G01 X25.1423 Y7.7152 
G01 X25.1721 Y7.9034 
G01 X25.2310 Y8.0846 
G01 X25.3174 Y8.2543 
G01 X25.4294 Y8.4084 
G01 X25.5641 Y8.5431 
G01 X25.7182 Y8.6551 
G01 X25.8027 Y8.6981 
G01 X25.8027 Y28.0298 
G01 X25.2776 Y28.5549 
G01 X23.4749 Y30.3575 
G01 X23.3726 Y30.4599 
G01 X23.3002 Y30.5853 
G01 X23.2627 Y30.7251 
G01 X23.2627 Y50.8724 
G01 X23.3002 Y51.0122 
G01 X23.3726 Y51.1376 
G01 X25.2014 Y52.9664 
G01 X25.1721 Y53.0566 
G01 X25.1423 Y53.2448 
G01 X25.1423 Y53.4352 
G01 X25.1721 Y53.6234 
G01 X25.2310 Y53.8046 
G01 X25.3174 Y53.9743 
G01 X25.4294 Y54.1284 
G01 X25.5641 Y54.2631 
G01 X25.7182 Y54.3751 
G01 X25.8879 Y54.4615 
G01 X26.0691 Y54.5204 
G01 X26.2573 Y54.5502 
G01 X26.4477 Y54.5502 
G01 X26.6359 Y54.5204 
G01 X26.7261 Y54.4911 
G01 X27.5001 Y55.2651 
G01 X27.6024 Y55.3674 
G01 X27.7278 Y55.4398 
G01 X27.8676 Y55.4773 
G01 X56.7354 Y55.4773 
G01 X56.7717 Y55.5485 
G01 X56.8813 Y55.6993 
G01 X57.0132 Y55.8312 
G01 X57.1640 Y55.9408 
G01 X57.3302 Y56.0255 
G01 X57.5076 Y56.0831 
G01 X57.6917 Y56.1123 
G01 X57.8782 Y56.1123 
G01 X58.0624 Y56.0831 
G01 X58.2398 Y56.0255 
G01 X58.4060 Y55.9408 
G01 X58.5568 Y55.8312 
G01 X58.6887 Y55.6993 
G01 X58.7983 Y55.5485 
G01 X58.8830 Y55.3823 
G01 X58.9406 Y55.2049 
G01 X58.9698 Y55.0207 
G01 X58.9698 Y54.8342 
G01 X58.9406 Y54.6501 
G01 X58.8830 Y54.4727 
G01 X58.7983 Y54.3065 
G01 X58.6887 Y54.1557 
G01 X58.5568 Y54.0238 
G01 X58.4060 Y53.9142 
G01 X58.2398 Y53.8295 
G01 X58.0624 Y53.7719 
G01 X57.8782 Y53.7427 
G01 X57.6917 Y53.7427 
G01 X57.5076 Y53.7719 
G01 X57.3302 Y53.8295 
G01 X57.1640 Y53.9142 
G01 X57.0132 Y54.0238 
G01 X56.8813 Y54.1557 
G01 X56.7717 Y54.3065 
G01 X56.7354 Y54.3777 
G01 X28.1677 Y54.3777 
G01 X27.5036 Y53.7136 
G01 X27.5329 Y53.6234 
G01 X27.5627 Y53.4352 
G01 X27.5627 Y53.2448 
G01 X27.5329 Y53.0566 
G01 X27.4740 Y52.8754 
G01 X27.3876 Y52.7057 
G01 X27.2756 Y52.5516 
G01 X27.1409 Y52.4169 
G01 X26.9868 Y52.3049 
G01 X26.8171 Y52.2185 
G01 X26.6359 Y52.1596 
G01 X26.4477 Y52.1298 
G01 X26.2573 Y52.1298 
G01 X26.0691 Y52.1596 
G01 X25.9789 Y52.1889 
G01 X24.3623 Y50.5723 
G01 X24.3623 Y31.0252 
G01 X25.1686 Y30.2190 
G01 X25.1423 Y30.3848 
G01 X25.1423 Y30.5752 
G01 X25.1721 Y30.7634 
G01 X25.2310 Y30.9446 
G01 X25.3174 Y31.1143 
G01 X25.4294 Y31.2684 
G01 X25.5641 Y31.4031 
G01 X25.7182 Y31.5151 
G01 X25.8879 Y31.6015 
G01 X26.0691 Y31.6604 
G01 X26.2573 Y31.6902 
G01 X26.4477 Y31.6902 
G01 X26.6359 Y31.6604 
G01 X26.8171 Y31.6015 
G01 X26.9868 Y31.5151 
G01 X27.1409 Y31.4031 
G01 X27.2756 Y31.2684 
G01 X27.3876 Y31.1143 
G01 X27.4740 Y30.9446 
G01 X27.5329 Y30.7634 
G01 X27.5627 Y30.5752 
G01 X27.5627 Y30.3848 
G01 X27.5329 Y30.1966 
G01 X27.4740 Y30.0154 
G01 X27.3876 Y29.8457 
G01 X27.2756 Y29.6916 
G01 X27.1409 Y29.5569 
G01 X26.9868 Y29.4449 
G01 X26.9816 Y29.4423 
G01 X51.9444 Y29.4423 
G01 X51.9874 Y29.5268 
G01 X52.0994 Y29.6809 
G01 X52.2341 Y29.8156 
G01 X52.3882 Y29.9276 
G01 X52.5579 Y30.0140 
G01 X52.7391 Y30.0729 
G01 X52.9273 Y30.1027 
G01 X53.1177 Y30.1027 
G01 X53.3059 Y30.0729 
G01 X53.4871 Y30.0140 
G01 X53.6568 Y29.9276 
G01 X53.8109 Y29.8156 
G01 X53.9456 Y29.6809 
G01 X54.0576 Y29.5268 
G01 X54.1440 Y29.3571 
G01 X54.2029 Y29.1759 
G01 X54.2327 Y28.9877 
G01 X54.2327 Y28.7973 
G01 X54.2029 Y28.6091 
G01 X54.1440 Y28.4279 
G01 X54.0576 Y28.2582 
G01 X53.9456 Y28.1041 
G01 X53.8109 Y27.9694 
G01 X53.6568 Y27.8574 
G01 X53.4871 Y27.7710 
G01 X53.3059 Y27.7121 
G01 X53.1177 Y27.6823 
G01 X52.9273 Y27.6823 
G01 X52.7391 Y27.7121 
G01 X52.5579 Y27.7710 
G01 X52.3882 Y27.8574 
G01 X52.2341 Y27.9694 
G01 X52.0994 Y28.1041 
G01 X51.9874 Y28.2582 
G01 X51.9444 Y28.3427 
G01 X27.2152 Y28.3427 
G01 X26.9023 Y28.0298 
G01 X26.9023 Y8.6981 
G01 X26.9868 Y8.6551 
G01 X27.1409 Y8.5431 
G01 X27.2756 Y8.4084 
G01 X27.3876 Y8.2543 
G01 X27.4740 Y8.0846 
G01 X27.5329 Y7.9034 
G01 X27.5627 Y7.7152 
G01 X27.5627 Y7.5248 
G01 X27.5329 Y7.3366 
G01 X27.4740 Y7.1554 
G01 X27.3876 Y6.9857 
G01 X27.2756 Y6.8316 
G01 X27.1409 Y6.6969 
G01 X26.9868 Y6.5849 
G01 X26.8171 Y6.4985 
G01 X26.6359 Y6.4396 
G01 X26.4477 Y6.4098 
G01 X26.2573 Y6.4098 
G01 X26.0691 Y6.4396 
G01 X25.8879 Y6.4985 
G01 X25.7182 Y6.5849 
G01 X25.5641 Y6.6969 
G01 X25.4294 Y6.8316 
G00 Z2.0000 
G00 X45.0649 Y6.1549 
G01 Z-0.1000 F50.00 
G01 X46.0174 Y7.1074 F75.00 
G01 X46.1428 Y7.1798 
G01 X46.2826 Y7.2173 
G01 X59.4623 Y7.2173 
G01 X60.4102 Y8.1652 
G01 X60.4102 Y45.8098 
G01 X59.4623 Y46.7577 
G01 X58.8346 Y46.7577 
G01 X58.7983 Y46.6865 
G01 X58.6887 Y46.5357 
G01 X58.5568 Y46.4038 
G01 X58.4060 Y46.2942 
G01 X58.2398 Y46.2095 
G01 X58.0624 Y46.1519 
G01 X57.8782 Y46.1227 
G01 X57.6917 Y46.1227 
G01 X57.5076 Y46.1519 
G01 X57.3302 Y46.2095 
G01 X57.1640 Y46.2942 
G01 X57.0132 Y46.4038 
G01 X56.8813 Y46.5357 
G01 X56.7717 Y46.6865 
G01 X56.7354 Y46.7577 
G01 X48.1876 Y46.7577 
G01 X48.0478 Y46.7952 
G01 X47.9224 Y46.8676 
G01 X47.8201 Y46.9699 
G01 X47.6811 Y47.1089 
G01 X47.5909 Y47.0796 
G01 X47.4027 Y47.0498 
G01 X47.2123 Y47.0498 
G01 X47.0241 Y47.0796 
G01 X46.8429 Y47.1385 
G01 X46.6732 Y47.2249 
G01 X46.5191 Y47.3369 
G01 X46.3844 Y47.4716 
G01 X46.2724 Y47.6257 
G01 X46.1860 Y47.7954 
G01 X46.1271 Y47.9766 
G01 X46.0973 Y48.1648 
G01 X46.0973 Y48.3552 
G01 X46.1271 Y48.5434 
G01 X46.1860 Y48.7246 
G01 X46.2724 Y48.8943 
G01 X46.3844 Y49.0484 
G01 X46.5191 Y49.1831 
G01 X46.6732 Y49.2951 
G01 X46.8429 Y49.3815 
G01 X47.0241 Y49.4404 
G01 X47.2123 Y49.4702 
G01 X47.4027 Y49.4702 
G01 X47.5909 Y49.4404 
G01 X47.7721 Y49.3815 
G01 X47.9418 Y49.2951 
G01 X48.0959 Y49.1831 
G01 X48.2306 Y49.0484 
G01 X48.3426 Y48.8943 
G01 X48.4290 Y48.7246 
G01 X48.4879 Y48.5434 
G01 X48.5177 Y48.3552 
G01 X48.5177 Y48.1648 
G01 X48.4879 Y47.9766 
G01 X48.4586 Y47.8864 
G01 X48.4877 Y47.8573 
G01 X56.7354 Y47.8573 
G01 X56.7717 Y47.9285 
G01 X56.8813 Y48.0793 
G01 X57.0132 Y48.2112 
G01 X57.1640 Y48.3208 
G01 X57.3302 Y48.4055 
G01 X57.5076 Y48.4631 
G01 X57.6917 Y48.4923 
G01 X57.8782 Y48.4923 
G01 X58.0624 Y48.4631 
G01 X58.2398 Y48.4055 
G01 X58.4060 Y48.3208 
G01 X58.5568 Y48.2112 
G01 X58.6887 Y48.0793 
G01 X58.7983 Y47.9285 
G01 X58.8346 Y47.8573 
G01 X59.7624 Y47.8573 
G01 X59.9022 Y47.8198 
G01 X60.0276 Y47.7474 
G01 X61.2976 Y46.4774 
G01 X61.3999 Y46.3751 
G01 X61.4723 Y46.2497 
G01 X61.5098 Y46.1099 
G01 X61.5098 Y7.8651 
G01 X61.4723 Y7.7253 
G01 X61.3999 Y7.5999 
G01 X60.1299 Y6.3299 
G01 X60.0276 Y6.2275 
G01 X59.9022 Y6.1552 
G01 X59.7624 Y6.1177 
G01 X47.9366 Y6.1177 
G01 X47.9418 Y6.1151 
G01 X48.0959 Y6.0031 
G01 X48.2306 Y5.8684 
G01 X48.3426 Y5.7143 
G01 X48.3856 Y5.6298 
G01 X69.6223 Y5.6298 
G01 X70.8877 Y6.8952 
G01 X70.8877 Y25.4898 
G01 X70.5748 Y25.8027 
G01 X65.3326 Y25.8027 
G01 X65.1928 Y25.8402 
G01 X65.0674 Y25.9125 
G01 X63.0600 Y27.9199 
G01 X62.9877 Y28.0453 
G01 X62.9502 Y28.1851 
G01 X62.9502 Y47.7148 
G01 X61.3673 Y49.2977 
G01 X58.8346 Y49.2977 
G01 X58.7983 Y49.2265 
G01 X58.6887 Y49.0757 
G01 X58.5568 Y48.9438 
G01 X58.4060 Y48.8342 
G01 X58.2398 Y48.7495 
G01 X58.0624 Y48.6919 
G01 X57.8782 Y48.6627 
G01 X57.6917 Y48.6627 
G01 X57.5076 Y48.6919 
G01 X57.3302 Y48.7495 
G01 X57.1640 Y48.8342 
G01 X57.0132 Y48.9438 
G01 X56.8813 Y49.0757 
G01 X56.7717 Y49.2265 
G01 X56.7354 Y49.2977 
G01 X48.1876 Y49.2977 
G01 X48.0478 Y49.3352 
G01 X47.9224 Y49.4076 
G01 X47.8201 Y49.5099 
G01 X47.6811 Y49.6489 
G01 X47.5909 Y49.6196 
G01 X47.4027 Y49.5898 
G01 X47.2123 Y49.5898 
G01 X47.0241 Y49.6196 
G01 X46.8429 Y49.6785 
G01 X46.6732 Y49.7649 
G01 X46.5191 Y49.8769 
G01 X46.3844 Y50.0116 
G01 X46.2724 Y50.1657 
G01 X46.1860 Y50.3354 
G01 X46.1271 Y50.5166 
G01 X46.0973 Y50.7048 
G01 X46.0973 Y50.8952 
G01 X46.1271 Y51.0834 
G01 X46.1860 Y51.2646 
G01 X46.2724 Y51.4343 
G01 X46.3844 Y51.5884 
G01 X46.5191 Y51.7231 
G01 X46.6732 Y51.8351 
G01 X46.8429 Y51.9215 
G01 X47.0241 Y51.9804 
G01 X47.2123 Y52.0102 
G01 X47.4027 Y52.0102 
G01 X47.5909 Y51.9804 
G01 X47.7721 Y51.9215 
G01 X47.9418 Y51.8351 
G01 X48.0959 Y51.7231 
G01 X48.2306 Y51.5884 
G01 X48.3426 Y51.4343 
G01 X48.4290 Y51.2646 
G01 X48.4879 Y51.0834 
G01 X48.5177 Y50.8952 
G01 X48.5177 Y50.7048 
G01 X48.4879 Y50.5166 
G01 X48.4586 Y50.4264 
G01 X48.4877 Y50.3973 
G01 X56.7354 Y50.3973 
G01 X56.7717 Y50.4685 
G01 X56.8813 Y50.6193 
G01 X57.0132 Y50.7512 
G01 X57.1640 Y50.8608 
G01 X57.3302 Y50.9455 
G01 X57.5076 Y51.0031 
G01 X57.6917 Y51.0323 
G01 X57.8782 Y51.0323 
G01 X58.0624 Y51.0031 
G01 X58.2398 Y50.9455 
G01 X58.4060 Y50.8608 
G01 X58.5568 Y50.7512 
G01 X58.6887 Y50.6193 
G01 X58.7983 Y50.4685 
G01 X58.8346 Y50.3973 
G01 X61.6674 Y50.3973 
G01 X61.8072 Y50.3598 
G01 X61.9326 Y50.2874 
G01 X63.8376 Y48.3824 
G01 X63.9399 Y48.2801 
G01 X64.0123 Y48.1547 
G01 X64.0498 Y48.0149 
G01 X64.0498 Y28.4852 
G01 X65.6327 Y26.9023 
G01 X72.8994 Y26.9023 
G01 X72.9424 Y26.9868 
G01 X73.0544 Y27.1409 
G01 X73.1891 Y27.2756 
G01 X73.3432 Y27.3876 
G01 X73.5129 Y27.4740 
G01 X73.6941 Y27.5329 
G01 X73.8823 Y27.5627 
G01 X74.0727 Y27.5627 
G01 X74.2609 Y27.5329 
G01 X74.4421 Y27.4740 
G01 X74.6118 Y27.3876 
G01 X74.7659 Y27.2756 
G01 X74.9006 Y27.1409 
G01 X75.0126 Y26.9868 
G01 X75.0990 Y26.8171 
G01 X75.1579 Y26.6359 
G01 X75.1877 Y26.4477 
G01 X75.1877 Y26.2573 
G01 X75.1579 Y26.0691 
G01 X75.0990 Y25.8879 
G01 X75.0126 Y25.7182 
G01 X74.9006 Y25.5641 
G01 X74.7659 Y25.4294 
G01 X74.6118 Y25.3174 
G01 X74.4421 Y25.2310 
G01 X74.2609 Y25.1721 
G01 X74.0727 Y25.1423 
G01 X73.8823 Y25.1423 
G01 X73.6941 Y25.1721 
G01 X73.5129 Y25.2310 
G01 X73.3432 Y25.3174 
G01 X73.1891 Y25.4294 
G01 X73.0544 Y25.5641 
G01 X72.9424 Y25.7182 
G01 X72.8994 Y25.8027 
G01 X72.3002 Y25.8027 
G01 X71.9873 Y25.4898 
G01 X71.9873 Y6.5951 
G01 X71.9498 Y6.4553 
G01 X71.8774 Y6.3299 
G01 X71.7751 Y6.2275 
G01 X70.1876 Y4.6400 
G01 X70.0622 Y4.5677 
G01 X69.9224 Y4.5302 
G01 X48.3856 Y4.5302 
G01 X48.3426 Y4.4457 
G01 X48.2306 Y4.2916 
G01 X48.0959 Y4.1569 
G01 X47.9418 Y4.0449 
G01 X47.7721 Y3.9585 
G01 X47.5909 Y3.8996 
G01 X47.4027 Y3.8698 
G01 X47.2123 Y3.8698 
G01 X47.0241 Y3.8996 
G01 X46.8429 Y3.9585 
G01 X46.6732 Y4.0449 
G01 X46.5191 Y4.1569 
G01 X46.3844 Y4.2916 
G01 X46.2724 Y4.4457 
G01 X46.1860 Y4.6154 
G01 X46.1271 Y4.7966 
G01 X46.0973 Y4.9848 
G01 X46.0973 Y5.1752 
G01 X46.1271 Y5.3634 
G01 X46.1860 Y5.5446 
G01 X46.2724 Y5.7143 
G01 X46.3844 Y5.8684 
G01 X46.5191 Y6.0031 
G01 X46.6732 Y6.1151 
G01 X46.6784 Y6.1177 
G01 X46.5827 Y6.1177 
G01 X45.9523 Y5.4873 
G01 X45.9523 Y3.4027 
G01 X46.2415 Y3.1135 
G01 X46.2724 Y3.1743 
G01 X46.3844 Y3.3284 
G01 X46.5191 Y3.4631 
G01 X46.6732 Y3.5751 
G01 X46.8429 Y3.6615 
G01 X47.0241 Y3.7204 
G01 X47.2123 Y3.7502 
G01 X47.4027 Y3.7502 
G01 X47.5909 Y3.7204 
G01 X47.7721 Y3.6615 
G01 X47.9418 Y3.5751 
G01 X48.0959 Y3.4631 
G01 X48.2306 Y3.3284 
G01 X48.3426 Y3.1743 
G01 X48.3856 Y3.0898 
G01 X71.2098 Y3.0898 
G01 X73.4277 Y5.3077 
G01 X73.4277 Y22.7344 
G01 X73.3432 Y22.7774 
G01 X73.1891 Y22.8894 
G01 X73.0544 Y23.0241 
G01 X72.9424 Y23.1782 
G01 X72.8560 Y23.3479 
G01 X72.7971 Y23.5291 
G01 X72.7673 Y23.7173 
G01 X72.7673 Y23.9077 
G01 X72.7971 Y24.0959 
G01 X72.8560 Y24.2771 
G01 X72.9424 Y24.4468 
G01 X73.0544 Y24.6009 
G01 X73.1891 Y24.7356 
G01 X73.3432 Y24.8476 
G01 X73.5129 Y24.9340 
G01 X73.6941 Y24.9929 
G01 X73.8823 Y25.0227 
G01 X74.0727 Y25.0227 
G01 X74.2609 Y24.9929 
G01 X74.4421 Y24.9340 
G01 X74.6118 Y24.8476 
G01 X74.7659 Y24.7356 
G01 X74.9006 Y24.6009 
G01 X75.0126 Y24.4468 
G01 X75.0990 Y24.2771 
G01 X75.1579 Y24.0959 
G01 X75.1877 Y23.9077 
G01 X75.1877 Y23.7173 
G01 X75.1579 Y23.5291 
G01 X75.0990 Y23.3479 
G01 X75.0126 Y23.1782 
G01 X74.9006 Y23.0241 
G01 X74.7659 Y22.8894 
G01 X74.6118 Y22.7774 
G01 X74.5273 Y22.7344 
G01 X74.5273 Y5.0076 
G01 X74.4898 Y4.8678 
G01 X74.4174 Y4.7424 
G01 X74.3151 Y4.6400 
G01 X71.7751 Y2.1000 
G01 X71.6497 Y2.0277 
G01 X71.5099 Y1.9902 
G01 X48.3856 Y1.9902 
G01 X48.3426 Y1.9057 
G01 X48.2306 Y1.7516 
G01 X48.0959 Y1.6169 
G01 X47.9418 Y1.5049 
G01 X47.7721 Y1.4185 
G01 X47.5909 Y1.3596 
G01 X47.4027 Y1.3298 
G01 X47.2123 Y1.3298 
G01 X47.0241 Y1.3596 
G01 X46.8429 Y1.4185 
G01 X46.6732 Y1.5049 
G01 X46.5191 Y1.6169 
G01 X46.3844 Y1.7516 
G01 X46.2724 Y1.9057 
G01 X46.2294 Y1.9902 
G01 X45.9651 Y1.9902 
G01 X45.8253 Y2.0277 
G01 X45.6999 Y2.1000 
G01 X45.5975 Y2.2024 
G01 X44.9626 Y2.8374 
G01 X44.8902 Y2.9628 
G01 X44.8527 Y3.1026 
G01 X44.8527 Y5.7874 
G01 X44.8902 Y5.9272 
G01 X44.9626 Y6.0526 
G01 X45.0649 Y6.1549 
G00 Z2.0000 
G00 X56.8813 Y43.9957 
G01 Z-0.1000 F50.00 
G01 X56.7717 Y44.1465 F75.00 
G01 X56.6870 Y44.3127 
G01 X56.6294 Y44.4901 
G01 X56.6002 Y44.6743 
G01 X56.6002 Y44.8607 
G01 X56.6294 Y45.0449 
G01 X56.6870 Y45.2223 
G01 X56.7717 Y45.3885 
G01 X56.8813 Y45.5393 
G01 X57.0132 Y45.6712 
G01 X57.1640 Y45.7808 
G01 X57.3302 Y45.8655 
G01 X57.5076 Y45.9231 
G01 X57.6917 Y45.9523 
G01 X57.8782 Y45.9523 
G01 X58.0624 Y45.9231 
G01 X58.2398 Y45.8655 
G01 X58.4060 Y45.7808 
G01 X58.5568 Y45.6712 
G01 X58.6887 Y45.5393 
G01 X58.7983 Y45.3885 
G01 X58.8830 Y45.2223 
G01 X58.9406 Y45.0449 
G01 X58.9698 Y44.8607 
G01 X58.9698 Y44.6743 
G01 X58.9406 Y44.4901 
G01 X58.8830 Y44.3127 
G01 X58.7983 Y44.1465 
G01 X58.6887 Y43.9957 
G01 X58.5568 Y43.8638 
G01 X58.4060 Y43.7542 
G01 X58.2398 Y43.6695 
G01 X58.0624 Y43.6119 
G01 X57.8782 Y43.5827 
G01 X57.6917 Y43.5827 
G01 X57.5076 Y43.6119 
G01 X57.3302 Y43.6695 
G01 X57.1640 Y43.7542 
G01 X57.0132 Y43.8638 
G01 X56.8813 Y43.9957 
G00 Z2.0000 
G00 X56.8813 Y56.6957 
G01 Z-0.1000 F50.00 
G01 X56.7717 Y56.8465 F75.00 
G01 X56.6870 Y57.0127 
G01 X56.6294 Y57.1901 
G01 X56.6002 Y57.3743 
G01 X56.6002 Y57.5607 
G01 X56.6294 Y57.7449 
G01 X56.6870 Y57.9223 
G01 X56.7717 Y58.0885 
G01 X56.8813 Y58.2393 
G01 X57.0132 Y58.3712 
G01 X57.1640 Y58.4808 
G01 X57.3302 Y58.5655 
G01 X57.5076 Y58.6231 
G01 X57.6917 Y58.6523 
G01 X57.8782 Y58.6523 
G01 X58.0624 Y58.6231 
G01 X58.2398 Y58.5655 
G01 X58.4060 Y58.4808 
G01 X58.5568 Y58.3712 
G01 X58.6887 Y58.2393 
G01 X58.7983 Y58.0885 
G01 X58.8830 Y57.9223 
G01 X58.9406 Y57.7449 
G01 X58.9698 Y57.5607 
G01 X58.9698 Y57.3743 
G01 X58.9406 Y57.1901 
G01 X58.8830 Y57.0127 
G01 X58.7983 Y56.8465 
G01 X58.6887 Y56.6957 
G01 X58.5568 Y56.5638 
G01 X58.4060 Y56.4542 
G01 X58.2398 Y56.3695 
G01 X58.0624 Y56.3119 
G01 X57.8782 Y56.2827 
G01 X57.6917 Y56.2827 
G01 X57.5076 Y56.3119 
G01 X57.3302 Y56.3695 
G01 X57.1640 Y56.4542 
G01 X57.0132 Y56.5638 
G01 X56.8813 Y56.6957 
G00 Z2.0000 
G00 X56.8813 Y59.2357 
G01 Z-0.1000 F50.00 
G01 X56.7717 Y59.3865 F75.00 
G01 X56.6870 Y59.5527 
G01 X56.6294 Y59.7301 
G01 X56.6002 Y59.9143 
G01 X56.6002 Y60.1007 
G01 X56.6294 Y60.2849 
G01 X56.6870 Y60.4623 
G01 X56.7717 Y60.6285 
G01 X56.8813 Y60.7793 
G01 X57.0132 Y60.9112 
G01 X57.1640 Y61.0208 
G01 X57.3302 Y61.1055 
G01 X57.5076 Y61.1631 
G01 X57.6917 Y61.1923 
G01 X57.8782 Y61.1923 
G01 X58.0624 Y61.1631 
G01 X58.2398 Y61.1055 
G01 X58.4060 Y61.0208 
G01 X58.5568 Y60.9112 
G01 X58.6887 Y60.7793 
G01 X58.7983 Y60.6285 
G01 X58.8830 Y60.4623 
G01 X58.9406 Y60.2849 
G01 X58.9698 Y60.1007 
G01 X58.9698 Y59.9143 
G01 X58.9406 Y59.7301 
G01 X58.8830 Y59.5527 
G01 X58.7983 Y59.3865 
G01 X58.6887 Y59.2357 
G01 X58.5568 Y59.1038 
G01 X58.4060 Y58.9942 
G01 X58.2398 Y58.9095 
G01 X58.0624 Y58.8519 
G01 X57.8782 Y58.8227 
G01 X57.6917 Y58.8227 
G01 X57.5076 Y58.8519 
G01 X57.3302 Y58.9095 
G01 X57.1640 Y58.9942 
G01 X57.0132 Y59.1038 
G01 X56.8813 Y59.2357 
G00 Z2.0000 
G00 X56.8813 Y61.7757 
G01 Z-0.1000 F50.00 
G01 X56.7717 Y61.9265 F75.00 
G01 X56.6870 Y62.0927 
G01 X56.6294 Y62.2701 
G01 X56.6002 Y62.4543 
G01 X56.6002 Y62.6407 
G01 X56.6294 Y62.8249 
G01 X56.6870 Y63.0023 
G01 X56.7717 Y63.1685 
G01 X56.8813 Y63.3193 
G01 X57.0132 Y63.4512 
G01 X57.1640 Y63.5608 
G01 X57.3302 Y63.6455 
G01 X57.5076 Y63.7031 
G01 X57.6917 Y63.7323 
G01 X57.8782 Y63.7323 
G01 X58.0624 Y63.7031 
G01 X58.2398 Y63.6455 
G01 X58.4060 Y63.5608 
G01 X58.5568 Y63.4512 
G01 X58.6887 Y63.3193 
G01 X58.7983 Y63.1685 
G01 X58.8830 Y63.0023 
G01 X58.9406 Y62.8249 
G01 X58.9698 Y62.6407 
G01 X58.9698 Y62.4543 
G01 X58.9406 Y62.2701 
G01 X58.8830 Y62.0927 
G01 X58.7983 Y61.9265 
G01 X58.6887 Y61.7757 
G01 X58.5568 Y61.6438 
G01 X58.4060 Y61.5342 
G01 X58.2398 Y61.4495 
G01 X58.0624 Y61.3919 
G01 X57.8782 Y61.3627 
G01 X57.6917 Y61.3627 
G01 X57.5076 Y61.3919 
G01 X57.3302 Y61.4495 
G01 X57.1640 Y61.5342 
G01 X57.0132 Y61.6438 
G01 X56.8813 Y61.7757 
G00 Z2.0000 
G00 X56.8813 Y64.3157 
G01 Z-0.1000 F50.00 
G01 X56.7717 Y64.4665 F75.00 
G01 X56.6870 Y64.6327 
G01 X56.6294 Y64.8101 
G01 X56.6002 Y64.9942 
G01 X56.6002 Y65.1807 
G01 X56.6294 Y65.3649 
G01 X56.6870 Y65.5423 
G01 X56.7717 Y65.7085 
G01 X56.8813 Y65.8593 
G01 X57.0132 Y65.9912 
G01 X57.1640 Y66.1008 
G01 X57.3302 Y66.1855 
G01 X57.5076 Y66.2431 
G01 X57.6917 Y66.2723 
G01 X57.8782 Y66.2723 
G01 X58.0624 Y66.2431 
G01 X58.2398 Y66.1855 
G01 X58.4060 Y66.1008 
G01 X58.5568 Y65.9912 
G01 X58.6887 Y65.8593 
G01 X58.7983 Y65.7085 
G01 X58.8830 Y65.5423 
G01 X58.9406 Y65.3649 
G01 X58.9698 Y65.1807 
G01 X58.9698 Y64.9942 
G01 X58.9406 Y64.8101 
G01 X58.8830 Y64.6327 
G01 X58.7983 Y64.4665 
G01 X58.6887 Y64.3157 
G01 X58.5568 Y64.1838 
G01 X58.4060 Y64.0742 
G01 X58.2398 Y63.9895 
G01 X58.0624 Y63.9319 
G01 X57.8782 Y63.9027 
G01 X57.6917 Y63.9027 
G01 X57.5076 Y63.9319 
G01 X57.3302 Y63.9895 
G01 X57.1640 Y64.0742 
G01 X57.0132 Y64.1838 
G01 X56.8813 Y64.3157 
G00 Z2.0000 
G00 X56.8813 Y66.8557 
G01 Z-0.1000 F50.00 
G01 X56.7717 Y67.0065 F75.00 
G01 X56.6870 Y67.1727 
G01 X56.6294 Y67.3501 
G01 X56.6002 Y67.5343 
G01 X56.6002 Y67.7207 
G01 X56.6294 Y67.9049 
G01 X56.6870 Y68.0823 
G01 X56.7717 Y68.2485 
G01 X56.8813 Y68.3993 
G01 X57.0132 Y68.5312 
G01 X57.1640 Y68.6408 
G01 X57.3302 Y68.7255 
G01 X57.5076 Y68.7831 
G01 X57.6917 Y68.8123 
G01 X57.8782 Y68.8123 
G01 X58.0624 Y68.7831 
G01 X58.2398 Y68.7255 
G01 X58.4060 Y68.6408 
G01 X58.5568 Y68.5312 
G01 X58.6887 Y68.3993 
G01 X58.7983 Y68.2485 
G01 X58.8830 Y68.0823 
G01 X58.9406 Y67.9049 
G01 X58.9698 Y67.7207 
G01 X58.9698 Y67.5343 
G01 X58.9406 Y67.3501 
G01 X58.8830 Y67.1727 
G01 X58.7983 Y67.0065 
G01 X58.6887 Y66.8557 
G01 X58.5568 Y66.7238 
G01 X58.4060 Y66.6142 
G01 X58.2398 Y66.5295 
G01 X58.0624 Y66.4719 
G01 X57.8782 Y66.4427 
G01 X57.6917 Y66.4427 
G01 X57.5076 Y66.4719 
G01 X57.3302 Y66.5295 
G01 X57.1640 Y66.6142 
G01 X57.0132 Y66.7238 
G01 X56.8813 Y66.8557 
G00 Z2.0000 
G00 X56.8813 Y69.3957 
G01 Z-0.1000 F50.00 
G01 X56.7717 Y69.5465 F75.00 
G01 X56.6870 Y69.7127 
G01 X56.6294 Y69.8901 
G01 X56.6002 Y70.0743 
G01 X56.6002 Y70.2607 
G01 X56.6294 Y70.4449 
G01 X56.6870 Y70.6223 
G01 X56.7717 Y70.7885 
G01 X56.8813 Y70.9393 
G01 X57.0132 Y71.0712 
G01 X57.1640 Y71.1808 
G01 X57.3302 Y71.2655 
G01 X57.5076 Y71.3231 
G01 X57.6917 Y71.3523 
G01 X57.8782 Y71.3523 
G01 X58.0624 Y71.3231 
G01 X58.2398 Y71.2655 
G01 X58.4060 Y71.1808 
G01 X58.5568 Y71.0712 
G01 X58.6887 Y70.9393 
G01 X58.7983 Y70.7885 
G01 X58.8830 Y70.6223 
G01 X58.9406 Y70.4449 
G01 X58.9698 Y70.2607 
G01 X58.9698 Y70.0743 
G01 X58.9406 Y69.8901 
G01 X58.8830 Y69.7127 
G01 X58.7983 Y69.5465 
G01 X58.6887 Y69.3957 
G01 X58.5568 Y69.2638 
G01 X58.4060 Y69.1542 
G01 X58.2398 Y69.0695 
G01 X58.0624 Y69.0119 
G01 X57.8782 Y68.9827 
G01 X57.6917 Y68.9827 
G01 X57.5076 Y69.0119 
G01 X57.3302 Y69.0695 
G01 X57.1640 Y69.1542 
G01 X57.0132 Y69.2638 
G01 X56.8813 Y69.3957 
G00 Z2.0000 
G00 X56.8813 Y71.9357 
G01 Z-0.1000 F50.00 
G01 X56.7717 Y72.0865 F75.00 
G01 X56.6870 Y72.2527 
G01 X56.6294 Y72.4301 
G01 X56.6002 Y72.6142 
G01 X56.6002 Y72.8007 
G01 X56.6294 Y72.9849 
G01 X56.6870 Y73.1623 
G01 X56.7717 Y73.3285 
G01 X56.8813 Y73.4793 
G01 X57.0132 Y73.6112 
G01 X57.1640 Y73.7208 
G01 X57.3302 Y73.8055 
G01 X57.5076 Y73.8631 
G01 X57.6917 Y73.8923 
G01 X57.8782 Y73.8923 
G01 X58.0624 Y73.8631 
G01 X58.2398 Y73.8055 
G01 X58.4060 Y73.7208 
G01 X58.5568 Y73.6112 
G01 X58.6887 Y73.4793 
G01 X58.7983 Y73.3285 
G01 X58.8830 Y73.1623 
G01 X58.9406 Y72.9849 
G01 X58.9698 Y72.8007 
G01 X58.9698 Y72.6142 
G01 X58.9406 Y72.4301 
G01 X58.8830 Y72.2527 
G01 X58.7983 Y72.0865 
G01 X58.6887 Y71.9357 
G01 X58.5568 Y71.8038 
G01 X58.4060 Y71.6942 
G01 X58.2398 Y71.6095 
G01 X58.0624 Y71.5519 
G01 X57.8782 Y71.5227 
G01 X57.6917 Y71.5227 
G01 X57.5076 Y71.5519 
G01 X57.3302 Y71.6095 
G01 X57.1640 Y71.6942 
G01 X57.0132 Y71.8038 
G01 X56.8813 Y71.9357 
G00 Z2.0000 
G00 X48.0959 Y75.2769 
G01 Z-0.1000 F50.00 
G01 X47.9418 Y75.1649 F75.00 
G01 X47.7721 Y75.0785 
G01 X47.5909 Y75.0196 
G01 X47.4027 Y74.9898 
G01 X47.2123 Y74.9898 
G01 X47.0241 Y75.0196 
G01 X46.8429 Y75.0785 
G01 X46.6732 Y75.1649 
G01 X46.5191 Y75.2769 
G01 X46.3844 Y75.4116 
G01 X46.2724 Y75.5657 
G01 X46.1860 Y75.7354 
G01 X46.1271 Y75.9166 
G01 X46.0973 Y76.1048 
G01 X46.0973 Y76.2952 
G01 X46.1271 Y76.4834 
G01 X46.1860 Y76.6646 
G01 X46.2724 Y76.8343 
G01 X46.3844 Y76.9884 
G01 X46.5191 Y77.1231 
G01 X46.6732 Y77.2351 
G01 X46.8429 Y77.3215 
G01 X47.0241 Y77.3804 
G01 X47.2123 Y77.4102 
G01 X47.4027 Y77.4102 
G01 X47.5909 Y77.3804 
G01 X47.7721 Y77.3215 
G01 X47.9418 Y77.2351 
G01 X48.0959 Y77.1231 
G01 X48.2306 Y76.9884 
G01 X48.3426 Y76.8343 
G01 X48.4290 Y76.6646 
G01 X48.4879 Y76.4834 
G01 X48.5177 Y76.2952 
G01 X48.5177 Y76.1048 
G01 X48.4879 Y75.9166 
G01 X48.4290 Y75.7354 
G01 X48.3426 Y75.5657 
G01 X48.2306 Y75.4116 
G01 X48.0959 Y75.2769 
G00 Z2.0000 
G00 X63.8652 Y77.4536 
G01 Z-0.1000 F50.00 
G01 X25.3523 Y77.4536 F75.00 
G01 X24.5986 Y76.6998 
G01 X24.6165 Y76.6646 
G01 X24.6754 Y76.4834 
G01 X24.7052 Y76.2952 
G01 X24.7052 Y76.1048 
G01 X24.6754 Y75.9166 
G01 X24.6165 Y75.7354 
G01 X24.5301 Y75.5657 
G01 X24.4181 Y75.4116 
G01 X24.2834 Y75.2769 
G01 X24.1293 Y75.1649 
G01 X23.9596 Y75.0785 
G01 X23.7784 Y75.0196 
G01 X23.5902 Y74.9898 
G01 X23.3998 Y74.9898 
G01 X23.2116 Y75.0196 
G01 X23.0304 Y75.0785 
G01 X22.8607 Y75.1649 
G01 X22.7066 Y75.2769 
G01 X22.5719 Y75.4116 
G01 X22.4599 Y75.5657 
G01 X22.3735 Y75.7354 
G01 X22.3146 Y75.9166 
G01 X22.2848 Y76.1048 
G01 X22.2848 Y76.2952 
G01 X22.3146 Y76.4834 
G01 X22.3735 Y76.6646 
G01 X22.4599 Y76.8343 
G01 X22.5719 Y76.9884 
G01 X22.7066 Y77.1231 
G01 X22.8607 Y77.2351 
G01 X23.0304 Y77.3215 
G01 X23.2116 Y77.3804 
G01 X23.3998 Y77.4102 
G01 X23.4665 Y77.4102 
G01 X24.5765 Y78.5202 
G01 X24.6673 Y78.6110 
G01 X24.7739 Y78.6823 
G01 X24.8925 Y78.7314 
G01 X25.0183 Y78.7564 
G01 X64.1992 Y78.7564 
G01 X64.3250 Y78.7314 
G01 X64.4436 Y78.6823 
G01 X64.5502 Y78.6110 
G01 X66.7727 Y76.3885 
G01 X66.8635 Y76.2977 
G01 X66.9348 Y76.1911 
G01 X66.9839 Y76.0725 
G01 X67.0089 Y75.9467 
G01 X67.0089 Y50.4348 
G01 X72.0248 Y45.4189 
G01 X72.0338 Y45.4189 
G01 X72.1213 Y45.5393 
G01 X72.2532 Y45.6712 
G01 X72.4040 Y45.7808 
G01 X72.5702 Y45.8655 
G01 X72.7476 Y45.9231 
G01 X72.9317 Y45.9523 
G01 X73.1182 Y45.9523 
G01 X73.3024 Y45.9231 
G01 X73.4798 Y45.8655 
G01 X73.6460 Y45.7808 
G01 X73.7968 Y45.6712 
G01 X73.9287 Y45.5393 
G01 X74.0383 Y45.3885 
G01 X74.1230 Y45.2223 
G01 X74.1806 Y45.0449 
G01 X74.2098 Y44.8607 
G01 X74.2098 Y44.6743 
G01 X74.1806 Y44.4901 
G01 X74.1230 Y44.3127 
G01 X74.0383 Y44.1465 
G01 X73.9287 Y43.9957 
G01 X73.7968 Y43.8638 
G01 X73.6460 Y43.7542 
G01 X73.4798 Y43.6695 
G01 X73.3024 Y43.6119 
G01 X73.1182 Y43.5827 
G01 X72.9317 Y43.5827 
G01 X72.7476 Y43.6119 
G01 X72.5702 Y43.6695 
G01 X72.4040 Y43.7542 
G01 X72.2532 Y43.8638 
G01 X72.1213 Y43.9957 
G01 X72.0338 Y44.1161 
G01 X71.6908 Y44.1161 
G01 X71.5650 Y44.1411 
G01 X71.4464 Y44.1902 
G01 X71.3398 Y44.2615 
G01 X71.2490 Y44.3523 
G01 X65.8515 Y49.7498 
G01 X65.7802 Y49.8564 
G01 X65.7311 Y49.9750 
G01 X65.7061 Y50.1008 
G01 X65.7061 Y75.6127 
G01 X63.8652 Y77.4536 
G00 Z2.0000 
G00 X69.7523 Y77.0235 
G01 Z-0.1000 F50.00 
G01 X69.8589 Y77.0948 F75.00 
G01 X69.9775 Y77.1439 
G01 X70.1033 Y77.1689 
G01 X84.8367 Y77.1689 
G01 X84.9625 Y77.1439 
G01 X85.0811 Y77.0948 
G01 X85.1877 Y77.0235 
G01 X86.7752 Y75.4360 
G01 X86.8660 Y75.3452 
G01 X86.9373 Y75.2386 
G01 X86.9864 Y75.1200 
G01 X87.0114 Y74.9942 
G01 X87.0114 Y70.2062 
G01 X87.1318 Y70.1187 
G01 X87.2637 Y69.9868 
G01 X87.3733 Y69.8360 
G01 X87.4580 Y69.6698 
G01 X87.5156 Y69.4924 
G01 X87.5448 Y69.3082 
G01 X87.5448 Y69.1218 
G01 X87.5156 Y68.9376 
G01 X87.4580 Y68.7602 
G01 X87.3733 Y68.5940 
G01 X87.2637 Y68.4432 
G01 X87.1318 Y68.3113 
G01 X86.9810 Y68.2017 
G01 X86.8148 Y68.1170 
G01 X86.6374 Y68.0594 
G01 X86.4532 Y68.0302 
G01 X86.2668 Y68.0302 
G01 X86.0826 Y68.0594 
G01 X85.9052 Y68.1170 
G01 X85.7390 Y68.2017 
G01 X85.5882 Y68.3113 
G01 X85.4563 Y68.4432 
G01 X85.3467 Y68.5940 
G01 X85.2620 Y68.7602 
G01 X85.2044 Y68.9376 
G01 X85.1752 Y69.1218 
G01 X85.1752 Y69.3082 
G01 X85.2044 Y69.4924 
G01 X85.2620 Y69.6698 
G01 X85.3467 Y69.8360 
G01 X85.4563 Y69.9868 
G01 X85.5882 Y70.1187 
G01 X85.7086 Y70.2062 
G01 X85.7086 Y74.6602 
G01 X84.5027 Y75.8661 
G01 X70.4373 Y75.8661 
G01 X68.9139 Y74.3427 
G01 X68.9139 Y51.0698 
G01 X69.4848 Y50.4989 
G01 X72.0338 Y50.4989 
G01 X72.1213 Y50.6193 
G01 X72.2532 Y50.7512 
G01 X72.4040 Y50.8608 
G01 X72.5702 Y50.9455 
G01 X72.7476 Y51.0031 
G01 X72.9317 Y51.0323 
G01 X73.1182 Y51.0323 
G01 X73.3024 Y51.0031 
G01 X73.4798 Y50.9455 
G01 X73.6460 Y50.8608 
G01 X73.7968 Y50.7512 
G01 X73.9287 Y50.6193 
G01 X74.0383 Y50.4685 
G01 X74.1230 Y50.3023 
G01 X74.1806 Y50.1249 
G01 X74.2098 Y49.9407 
G01 X74.2098 Y49.7542 
G01 X74.1806 Y49.5701 
G01 X74.1230 Y49.3927 
G01 X74.0383 Y49.2265 
G01 X73.9287 Y49.0757 
G01 X73.7968 Y48.9438 
G01 X73.6460 Y48.8342 
G01 X73.4798 Y48.7495 
G01 X73.3024 Y48.6919 
G01 X73.1182 Y48.6627 
G01 X72.9317 Y48.6627 
G01 X72.7476 Y48.6919 
G01 X72.5702 Y48.7495 
G01 X72.4040 Y48.8342 
G01 X72.2532 Y48.9438 
G01 X72.1213 Y49.0757 
G01 X72.0338 Y49.1961 
G01 X69.1508 Y49.1961 
G01 X69.0250 Y49.2211 
G01 X68.9064 Y49.2702 
G01 X68.7998 Y49.3415 
G01 X67.8473 Y50.2940 
G01 X67.7565 Y50.3848 
G01 X67.6852 Y50.4914 
G01 X67.6361 Y50.6100 
G01 X67.6111 Y50.7358 
G01 X67.6111 Y74.6767 
G01 X67.6361 Y74.8025 
G01 X67.6852 Y74.9211 
G01 X67.7565 Y75.0277 
G01 X69.6615 Y76.9327 
G01 X69.7523 Y77.0235 
G00 Z2.0000 
G00 X70.7048 Y75.4360 
G01 Z-0.1000 F50.00 
G01 X70.8114 Y75.5073 F75.00 
G01 X70.9300 Y75.5564 
G01 X71.0558 Y75.5814 
G01 X82.6142 Y75.5814 
G01 X82.7400 Y75.5564 
G01 X82.8586 Y75.5073 
G01 X82.9652 Y75.4360 
G01 X84.2352 Y74.1660 
G01 X84.3260 Y74.0752 
G01 X84.3973 Y73.9686 
G01 X84.4464 Y73.8500 
G01 X84.4714 Y73.7242 
G01 X84.4714 Y70.2062 
G01 X84.5918 Y70.1187 
G01 X84.7237 Y69.9868 
G01 X84.8333 Y69.8360 
G01 X84.9180 Y69.6698 
G01 X84.9756 Y69.4924 
G01 X85.0048 Y69.3082 
G01 X85.0048 Y69.1218 
G01 X84.9756 Y68.9376 
G01 X84.9180 Y68.7602 
G01 X84.8333 Y68.5940 
G01 X84.7237 Y68.4432 
G01 X84.5918 Y68.3113 
G01 X84.4410 Y68.2017 
G01 X84.2748 Y68.1170 
G01 X84.0974 Y68.0594 
G01 X83.9132 Y68.0302 
G01 X83.7267 Y68.0302 
G01 X83.5426 Y68.0594 
G01 X83.3652 Y68.1170 
G01 X83.1990 Y68.2017 
G01 X83.0482 Y68.3113 
G01 X82.9163 Y68.4432 
G01 X82.8067 Y68.5940 
G01 X82.7220 Y68.7602 
G01 X82.6644 Y68.9376 
G01 X82.6352 Y69.1218 
G01 X82.6352 Y69.3082 
G01 X82.6644 Y69.4924 
G01 X82.7220 Y69.6698 
G01 X82.8067 Y69.8360 
G01 X82.9163 Y69.9868 
G01 X83.0482 Y70.1187 
G01 X83.1686 Y70.2062 
G01 X83.1686 Y73.3902 
G01 X82.2802 Y74.2786 
G01 X71.3898 Y74.2786 
G01 X70.5014 Y73.3902 
G01 X70.5014 Y53.6098 
G01 X71.0723 Y53.0389 
G01 X72.0338 Y53.0389 
G01 X72.1213 Y53.1593 
G01 X72.2532 Y53.2912 
G01 X72.4040 Y53.4008 
G01 X72.5702 Y53.4855 
G01 X72.7476 Y53.5431 
G01 X72.9317 Y53.5723 
G01 X73.1182 Y53.5723 
G01 X73.3024 Y53.5431 
G01 X73.4798 Y53.4855 
G01 X73.6460 Y53.4008 
G01 X73.7968 Y53.2912 
G01 X73.9287 Y53.1593 
G01 X74.0383 Y53.0085 
G01 X74.1230 Y52.8423 
G01 X74.1806 Y52.6649 
G01 X74.2098 Y52.4807 
G01 X74.2098 Y52.2942 
G01 X74.1806 Y52.1101 
G01 X74.1230 Y51.9327 
G01 X74.0383 Y51.7665 
G01 X73.9287 Y51.6157 
G01 X73.7968 Y51.4838 
G01 X73.6460 Y51.3742 
G01 X73.4798 Y51.2895 
G01 X73.3024 Y51.2319 
G01 X73.1182 Y51.2027 
G01 X72.9317 Y51.2027 
G01 X72.7476 Y51.2319 
G01 X72.5702 Y51.2895 
G01 X72.4040 Y51.3742 
G01 X72.2532 Y51.4838 
G01 X72.1213 Y51.6157 
G01 X72.0338 Y51.7361 
G01 X70.7383 Y51.7361 
G01 X70.6125 Y51.7611 
G01 X70.4939 Y51.8102 
G01 X70.3873 Y51.8815 
G01 X69.4348 Y52.8340 
G01 X69.3440 Y52.9248 
G01 X69.2727 Y53.0314 
G01 X69.2236 Y53.1500 
G01 X69.1986 Y53.2758 
G01 X69.1986 Y73.7242 
G01 X69.2236 Y73.8500 
G01 X69.2727 Y73.9686 
G01 X69.3440 Y74.0752 
G01 X70.6140 Y75.3452 
G01 X70.7048 Y75.4360 
G00 Z2.0000 
G00 X72.2532 Y73.6112 
G01 Z-0.1000 F50.00 
G01 X72.4040 Y73.7208 F75.00 
G01 X72.5702 Y73.8055 
G01 X72.7476 Y73.8631 
G01 X72.9317 Y73.8923 
G01 X73.1182 Y73.8923 
G01 X73.3024 Y73.8631 
G01 X73.4798 Y73.8055 
G01 X73.6460 Y73.7208 
G01 X73.7968 Y73.6112 
G01 X73.9287 Y73.4793 
G01 X74.0383 Y73.3285 
G01 X74.1230 Y73.1623 
G01 X74.1806 Y72.9849 
G01 X74.2098 Y72.8007 
G01 X74.2098 Y72.6142 
G01 X74.1806 Y72.4301 
G01 X74.1230 Y72.2527 
G01 X74.0383 Y72.0865 
G01 X73.9287 Y71.9357 
G01 X73.7968 Y71.8038 
G01 X73.6460 Y71.6942 
G01 X73.4798 Y71.6095 
G01 X73.3024 Y71.5519 
G01 X73.1182 Y71.5227 
G01 X72.9317 Y71.5227 
G01 X72.7476 Y71.5519 
G01 X72.5702 Y71.6095 
G01 X72.4040 Y71.6942 
G01 X72.2532 Y71.8038 
G01 X72.1213 Y71.9357 
G01 X72.0117 Y72.0865 
G01 X71.9270 Y72.2527 
G01 X71.8694 Y72.4301 
G01 X71.8402 Y72.6142 
G01 X71.8402 Y72.8007 
G01 X71.8694 Y72.9849 
G01 X71.9270 Y73.1623 
G01 X72.0117 Y73.3285 
G01 X72.1213 Y73.4793 
G01 X72.2532 Y73.6112 
G00 Z2.0000 
G00 X72.2532 Y71.0712 
G01 Z-0.1000 F50.00 
G01 X72.4040 Y71.1808 F75.00 
G01 X72.5702 Y71.2655 
G01 X72.7476 Y71.3231 
G01 X72.9317 Y71.3523 
G01 X73.1182 Y71.3523 
G01 X73.3024 Y71.3231 
G01 X73.4798 Y71.2655 
G01 X73.6460 Y71.1808 
G01 X73.7968 Y71.0712 
G01 X73.9287 Y70.9393 
G01 X74.0383 Y70.7885 
G01 X74.1230 Y70.6223 
G01 X74.1806 Y70.4449 
G01 X74.2098 Y70.2607 
G01 X74.2098 Y70.0743 
G01 X74.1806 Y69.8901 
G01 X74.1230 Y69.7127 
G01 X74.0383 Y69.5465 
G01 X73.9287 Y69.3957 
G01 X73.7968 Y69.2638 
G01 X73.6460 Y69.1542 
G01 X73.4798 Y69.0695 
G01 X73.3024 Y69.0119 
G01 X73.1182 Y68.9827 
G01 X72.9317 Y68.9827 
G01 X72.7476 Y69.0119 
G01 X72.5702 Y69.0695 
G01 X72.4040 Y69.1542 
G01 X72.2532 Y69.2638 
G01 X72.1213 Y69.3957 
G01 X72.0117 Y69.5465 
G01 X71.9270 Y69.7127 
G01 X71.8694 Y69.8901 
G01 X71.8402 Y70.0743 
G01 X71.8402 Y70.2607 
G01 X71.8694 Y70.4449 
G01 X71.9270 Y70.6223 
G01 X72.0117 Y70.7885 
G01 X72.1213 Y70.9393 
G01 X72.2532 Y71.0712 
G00 Z2.0000 
G00 X72.2532 Y68.5312 
G01 Z-0.1000 F50.00 
G01 X72.4040 Y68.6408 F75.00 
G01 X72.5702 Y68.7255 
G01 X72.7476 Y68.7831 
G01 X72.9317 Y68.8123 
G01 X73.1182 Y68.8123 
G01 X73.3024 Y68.7831 
G01 X73.4798 Y68.7255 
G01 X73.6460 Y68.6408 
G01 X73.7968 Y68.5312 
G01 X73.9287 Y68.3993 
G01 X74.0162 Y68.2789 
G01 X75.9302 Y68.2789 
G01 X77.2815 Y69.6302 
G01 X77.3723 Y69.7210 
G01 X77.4789 Y69.7923 
G01 X77.5975 Y69.8414 
G01 X77.7233 Y69.8664 
G01 X80.2888 Y69.8664 
G01 X80.3763 Y69.9868 
G01 X80.5082 Y70.1187 
G01 X80.6590 Y70.2283 
G01 X80.8252 Y70.3130 
G01 X81.0026 Y70.3706 
G01 X81.1868 Y70.3998 
G01 X81.3732 Y70.3998 
G01 X81.5574 Y70.3706 
G01 X81.7348 Y70.3130 
G01 X81.9010 Y70.2283 
G01 X82.0518 Y70.1187 
G01 X82.1837 Y69.9868 
G01 X82.2933 Y69.8360 
G01 X82.3780 Y69.6698 
G01 X82.4356 Y69.4924 
G01 X82.4648 Y69.3082 
G01 X82.4648 Y69.1218 
G01 X82.4356 Y68.9376 
G01 X82.3780 Y68.7602 
G01 X82.2933 Y68.5940 
G01 X82.1837 Y68.4432 
G01 X82.0518 Y68.3113 
G01 X81.9010 Y68.2017 
G01 X81.7348 Y68.1170 
G01 X81.5574 Y68.0594 
G01 X81.3732 Y68.0302 
G01 X81.1868 Y68.0302 
G01 X81.0026 Y68.0594 
G01 X80.8252 Y68.1170 
G01 X80.6590 Y68.2017 
G01 X80.5082 Y68.3113 
G01 X80.3763 Y68.4432 
G01 X80.2888 Y68.5636 
G01 X78.0573 Y68.5636 
G01 X76.6152 Y67.1215 
G01 X76.5086 Y67.0502 
G01 X76.3900 Y67.0011 
G01 X76.2642 Y66.9761 
G01 X74.0162 Y66.9761 
G01 X73.9287 Y66.8557 
G01 X73.7968 Y66.7238 
G01 X73.6460 Y66.6142 
G01 X73.4798 Y66.5295 
G01 X73.3024 Y66.4719 
G01 X73.1182 Y66.4427 
G01 X72.9317 Y66.4427 
G01 X72.7476 Y66.4719 
G01 X72.5702 Y66.5295 
G01 X72.4040 Y66.6142 
G01 X72.2532 Y66.7238 
G01 X72.1213 Y66.8557 
G01 X72.0117 Y67.0065 
G01 X71.9270 Y67.1727 
G01 X71.8694 Y67.3501 
G01 X71.8402 Y67.5343 
G01 X71.8402 Y67.7207 
G01 X71.8694 Y67.9049 
G01 X71.9270 Y68.0823 
G01 X72.0117 Y68.2485 
G01 X72.1213 Y68.3993 
G01 X72.2532 Y68.5312 
G00 Z2.0000 
G00 X72.2532 Y65.9912 
G01 Z-0.1000 F50.00 
G01 X72.4040 Y66.1008 F75.00 
G01 X72.5702 Y66.1855 
G01 X72.7476 Y66.2431 
G01 X72.9317 Y66.2723 
G01 X73.1182 Y66.2723 
G01 X73.3024 Y66.2431 
G01 X73.4798 Y66.1855 
G01 X73.6460 Y66.1008 
G01 X73.7968 Y65.9912 
G01 X73.9287 Y65.8593 
G01 X74.0162 Y65.7389 
G01 X76.2642 Y65.7389 
G01 X76.3900 Y65.7139 
G01 X76.5086 Y65.6648 
G01 X76.6152 Y65.5935 
G01 X78.2027 Y64.0060 
G01 X78.2935 Y63.9152 
G01 X78.3648 Y63.8086 
G01 X78.4139 Y63.6900 
G01 X78.4389 Y63.5642 
G01 X78.4389 Y60.9123 
G01 X79.6448 Y59.7064 
G01 X81.3810 Y59.7064 
G01 X81.4685 Y59.8268 
G01 X81.6004 Y59.9587 
G01 X81.7512 Y60.0683 
G01 X81.9174 Y60.1530 
G01 X82.0948 Y60.2106 
G01 X82.2789 Y60.2398 
G01 X82.4654 Y60.2398 
G01 X82.6496 Y60.2106 
G01 X82.8270 Y60.1530 
G01 X82.9932 Y60.0683 
G01 X83.1440 Y59.9587 
G01 X83.2759 Y59.8268 
G01 X83.3718 Y59.6949 
G01 X83.3718 Y65.5749 
G01 X83.3652 Y65.5770 
G01 X83.1990 Y65.6617 
G01 X83.0482 Y65.7713 
G01 X82.9163 Y65.9032 
G01 X82.8067 Y66.0540 
G01 X82.7220 Y66.2202 
G01 X82.6644 Y66.3976 
G01 X82.6352 Y66.5817 
G01 X82.6352 Y66.7682 
G01 X82.6644 Y66.9524 
G01 X82.7220 Y67.1298 
G01 X82.8067 Y67.2960 
G01 X82.9163 Y67.4468 
G01 X83.0482 Y67.5787 
G01 X83.1990 Y67.6883 
G01 X83.3652 Y67.7730 
G01 X83.5426 Y67.8306 
G01 X83.7267 Y67.8598 
G01 X83.9132 Y67.8598 
G01 X84.0974 Y67.8306 
G01 X84.2748 Y67.7730 
G01 X84.4410 Y67.6883 
G01 X84.5918 Y67.5787 
G01 X84.7237 Y67.4468 
G01 X84.8333 Y67.2960 
G01 X84.9180 Y67.1298 
G01 X84.9756 Y66.9524 
G01 X85.0048 Y66.7682 
G01 X85.0048 Y66.5817 
G01 X84.9756 Y66.3976 
G01 X84.9180 Y66.2202 
G01 X84.8333 Y66.0540 
G01 X84.7237 Y65.9032 
G01 X84.5918 Y65.7713 
G01 X84.4410 Y65.6617 
G01 X84.2748 Y65.5770 
G01 X84.2682 Y65.5749 
G01 X84.2682 Y59.6949 
G01 X84.3641 Y59.8268 
G01 X84.4960 Y59.9587 
G01 X84.6468 Y60.0683 
G01 X84.8130 Y60.1530 
G01 X84.9904 Y60.2106 
G01 X85.1745 Y60.2398 
G01 X85.3610 Y60.2398 
G01 X85.5081 Y60.2165 
G01 X85.5748 Y60.2832 
G01 X85.6939 Y65.6945 
G01 X85.5882 Y65.7713 
G01 X85.4563 Y65.9032 
G01 X85.3467 Y66.0540 
G01 X85.2620 Y66.2202 
G01 X85.2044 Y66.3976 
G01 X85.1752 Y66.5817 
G01 X85.1752 Y66.7682 
G01 X85.2044 Y66.9524 
G01 X85.2620 Y67.1298 
G01 X85.3467 Y67.2960 
G01 X85.4563 Y67.4468 
G01 X85.5882 Y67.5787 
G01 X85.7390 Y67.6883 
G01 X85.9052 Y67.7730 
G01 X86.0826 Y67.8306 
G01 X86.2668 Y67.8598 
G01 X86.4532 Y67.8598 
G01 X86.6374 Y67.8306 
G01 X86.8148 Y67.7730 
G01 X86.9810 Y67.6883 
G01 X87.1318 Y67.5787 
G01 X87.2637 Y67.4468 
G01 X87.3733 Y67.2960 
G01 X87.4580 Y67.1298 
G01 X87.5156 Y66.9524 
G01 X87.5448 Y66.7682 
G01 X87.5448 Y66.5817 
G01 X87.5156 Y66.3976 
G01 X87.4580 Y66.2202 
G01 X87.3733 Y66.0540 
G01 X87.2637 Y65.9032 
G01 X87.1318 Y65.7713 
G01 X86.9965 Y65.6730 
G01 X86.8717 Y60.0003 
G01 X86.8717 Y59.9433 
G01 X86.8703 Y59.9363 
G01 X86.8701 Y59.9290 
G01 X86.8578 Y59.8733 
G01 X86.8467 Y59.8175 
G01 X86.8439 Y59.8108 
G01 X86.8423 Y59.8038 
G01 X86.8193 Y59.7515 
G01 X86.7976 Y59.6989 
G01 X86.7935 Y59.6929 
G01 X86.7906 Y59.6863 
G01 X86.7579 Y59.6396 
G01 X86.7263 Y59.5923 
G01 X86.7212 Y59.5872 
G01 X86.7170 Y59.5812 
G01 X86.6758 Y59.5418 
G01 X86.4293 Y59.2953 
G01 X86.4526 Y59.1482 
G01 X86.4526 Y58.9618 
G01 X86.4234 Y58.7776 
G01 X86.3658 Y58.6002 
G01 X86.2811 Y58.4340 
G01 X86.1715 Y58.2832 
G01 X86.0396 Y58.1513 
G01 X85.8888 Y58.0417 
G01 X85.7226 Y57.9570 
G01 X85.5452 Y57.8994 
G01 X85.3610 Y57.8702 
G01 X85.1745 Y57.8702 
G01 X84.9904 Y57.8994 
G01 X84.8130 Y57.9570 
G01 X84.6468 Y58.0417 
G01 X84.4960 Y58.1513 
G01 X84.3641 Y58.2832 
G01 X84.2682 Y58.4151 
G01 X84.2682 Y49.6855 
G01 X84.3260 Y49.6277 
G01 X84.3973 Y49.5211 
G01 X84.4464 Y49.4025 
G01 X84.4714 Y49.2767 
G01 X84.4714 Y49.1483 
G01 X84.4464 Y49.0225 
G01 X84.3973 Y48.9039 
G01 X84.3260 Y48.7973 
G01 X82.3302 Y46.8015 
G01 X82.2236 Y46.7302 
G01 X82.1050 Y46.6811 
G01 X81.9792 Y46.6561 
G01 X74.0162 Y46.6561 
G01 X73.9287 Y46.5357 
G01 X73.7968 Y46.4038 
G01 X73.6460 Y46.2942 
G01 X73.4798 Y46.2095 
G01 X73.3024 Y46.1519 
G01 X73.1182 Y46.1227 
G01 X72.9317 Y46.1227 
G01 X72.7476 Y46.1519 
G01 X72.5702 Y46.2095 
G01 X72.4040 Y46.2942 
G01 X72.2532 Y46.4038 
G01 X72.1213 Y46.5357 
G01 X72.0117 Y46.6865 
G01 X71.9270 Y46.8527 
G01 X71.8694 Y47.0301 
G01 X71.8402 Y47.2142 
G01 X71.8402 Y47.4007 
G01 X71.8694 Y47.5849 
G01 X71.9270 Y47.7623 
G01 X72.0117 Y47.9285 
G01 X72.1213 Y48.0793 
G01 X72.2532 Y48.2112 
G01 X72.4040 Y48.3208 
G01 X72.5702 Y48.4055 
G01 X72.7476 Y48.4631 
G01 X72.9317 Y48.4923 
G01 X73.1182 Y48.4923 
G01 X73.3024 Y48.4631 
G01 X73.4798 Y48.4055 
G01 X73.6460 Y48.3208 
G01 X73.7968 Y48.2112 
G01 X73.9287 Y48.0793 
G01 X74.0162 Y47.9589 
G01 X81.6452 Y47.9589 
G01 X83.3718 Y49.6855 
G01 X83.3718 Y58.4151 
G01 X83.2759 Y58.2832 
G01 X83.1440 Y58.1513 
G01 X82.9932 Y58.0417 
G01 X82.8270 Y57.9570 
