(.../software/eagle/pcbgcode/pcb-gcode.ulp)
(Copyright 2005 - 2012 by John Johnson)
(See readme.txt for licensing terms.)
(This file generated from the board:)
(.../pcb/controller/midicontroller.brd)
(Current profile is .../pcbgcode/profiles/generic.pp  )
(This file generated 14-04-15 15:17)
(Z Axis Settings)
(  High     Up        Down     Drill)
(10.0000 	2.0000 	-0.1000 	-2.0000 )
M06 (Contoleer je files en maten in LinuxCNC.)
( Tool|       Size       |  Min Sub |  Max Sub |   Count )
( T02  0.800mm 0.0315in 0.0315in 0.0315in )
( T03  1.000mm 0.0394in 0.0394in 0.0470in )
G21
(Absolute Coordinates)
G90
S20000
G00 Z10.0000 
G00 X0.0000 Y0.0000 
M03
G04 P3.000000
M05
G00 Z35.0000 
M06 T02  ; 0.8000 
G00 Z2.0000 
M03
G04 P3.000000
G00 Z2.000000
G00 X4.7625 Y4.7625 
G01 Z-2.0000 F75.00 
G01 Z2.000000
(R2.0000  P0.500000)
G00 X26.3525 Y5.0800 
G01 Z-2.000000
G01 Z2.000000
G00 X26.3525 Y7.6200 
G01 Z-2.000000
G01 Z2.000000
G00 X47.3075 Y5.0800 
G01 Z-2.000000
G01 Z2.000000
G00 X47.3075 Y2.5400 
G01 Z-2.000000
G01 Z2.000000
G00 X53.0225 Y26.3525 
G01 Z-2.000000
G01 Z2.000000
G00 X53.0225 Y28.8925 
G01 Z-2.000000
G01 Z2.000000
G00 X47.3075 Y48.2600 
G01 Z-2.000000
G01 Z2.000000
G00 X47.3075 Y50.8000 
G01 Z-2.000000
G01 Z2.000000
G00 X53.0225 Y51.7525 
G01 Z-2.000000
G01 Z2.000000
G00 X47.3075 Y76.2000 
G01 Z-2.000000
G01 Z2.000000
G00 X26.0350 Y76.2000 
G01 Z-2.000000
G01 Z2.000000
G00 X23.4950 Y76.2000 
G01 Z-2.000000
G01 Z2.000000
G00 X20.6375 Y76.2000 
G01 Z-2.000000
G01 Z2.000000
G00 X18.0975 Y76.2000 
G01 Z-2.000000
G01 Z2.000000
G00 X26.3525 Y53.3400 
G01 Z-2.000000
G01 Z2.000000
G00 X26.3525 Y50.8000 
G01 Z-2.000000
G01 Z2.000000
G00 X26.3525 Y48.2600 
G01 Z-2.000000
G01 Z2.000000
G00 X26.3525 Y30.4800 
G01 Z-2.000000
G01 Z2.000000
G00 X4.7625 Y52.3875 
G01 Z-2.000000
G01 Z2.000000
G00 X73.9775 Y26.3525 
G01 Z-2.000000
G01 Z2.000000
G00 X73.9775 Y23.8125 
G01 Z-2.000000
G01 Z2.000000
G00 X95.2500 Y4.7625 
G01 Z-2.000000
G01 Z2.000000
G00 X95.2500 Y52.3875 
G01 Z-2.000000
G01 Z2.000000
M05
G00 Z35.0000 
G00 X0.0000 Y0.0000 
M06 T03  ; 1.0000 
G00 Z2.0000 
M03
G04 P3.000000
G00 Z2.000000
G00 X57.7850 Y44.7675 
G01 Z-2.0000 F75.00 
G01 Z2.000000
(R2.0000  P0.500000)
G00 X57.7850 Y47.3075 
G01 Z-2.000000
G01 Z2.000000
G00 X57.7850 Y49.8475 
G01 Z-2.000000
G01 Z2.000000
G00 X57.7850 Y52.3875 
G01 Z-2.000000
G01 Z2.000000
G00 X57.7850 Y54.9275 
G01 Z-2.000000
G01 Z2.000000
G00 X57.7850 Y57.4675 
G01 Z-2.000000
G01 Z2.000000
G00 X57.7850 Y60.0075 
G01 Z-2.000000
G01 Z2.000000
G00 X57.7850 Y62.5475 
G01 Z-2.000000
G01 Z2.000000
G00 X57.7850 Y65.0875 
G01 Z-2.000000
G01 Z2.000000
G00 X57.7850 Y67.6275 
G01 Z-2.000000
G01 Z2.000000
G00 X57.7850 Y70.1675 
G01 Z-2.000000
G01 Z2.000000
G00 X57.7850 Y72.7075 
G01 Z-2.000000
G01 Z2.000000
G00 X73.0250 Y72.7075 
G01 Z-2.000000
G01 Z2.000000
G00 X73.0250 Y70.1675 
G01 Z-2.000000
G01 Z2.000000
G00 X73.0250 Y67.6275 
G01 Z-2.000000
G01 Z2.000000
G00 X73.0250 Y65.0875 
G01 Z-2.000000
G01 Z2.000000
G00 X73.0250 Y62.5475 
G01 Z-2.000000
G01 Z2.000000
G00 X73.0250 Y60.0075 
G01 Z-2.000000
G01 Z2.000000
G00 X73.0250 Y57.4675 
G01 Z-2.000000
G01 Z2.000000
G00 X73.0250 Y54.9275 
G01 Z-2.000000
G01 Z2.000000
G00 X73.0250 Y52.3875 
G01 Z-2.000000
G01 Z2.000000
G00 X73.0250 Y49.8475 
G01 Z-2.000000
G01 Z2.000000
G00 X73.0250 Y47.3075 
G01 Z-2.000000
G01 Z2.000000
G00 X73.0250 Y44.7675 
G01 Z-2.000000
G01 Z2.000000
G00 X82.3722 Y59.0550 
G01 Z-2.000000
G01 Z2.000000
G00 X85.2678 Y59.0550 
G01 Z-2.000000
G01 Z2.000000
G00 X86.3600 Y66.6750 
G01 Z-2.000000
G01 Z2.000000
G00 X83.8200 Y66.6750 
G01 Z-2.000000
G01 Z2.000000
G00 X81.2800 Y66.6750 
G01 Z-2.000000
G01 Z2.000000
G00 X81.2800 Y69.2150 
G01 Z-2.000000
G01 Z2.000000
G00 X83.8200 Y69.2150 
G01 Z-2.000000
G01 Z2.000000
G00 X86.3600 Y69.2150 
G01 Z-2.000000
G01 Z2.000000
G00 X93.9800 Y41.5525 
G01 Z-2.000000
G01 Z2.000000
G00 X93.9800 Y36.5525 
G01 Z-2.000000
G01 Z2.000000
T01 
G00 Z10.0000 
M05
M02
